;FLAVOR:Marlin
;TIME:6623
;Filament used: 5.34261m
;Layer height: 0.2
;MINX:65.829
;MINY:64.875
PRINT_START_SET MESH_MIN=65.829,64.875
;MINZ:0.2
;MAXX:156.575
;MAXY:155.125
PRINT_START_SET MESH_MAX=156.575,155.125
;MAXZ:15
;TARGET_MACHINE.NAME:Creality Ender-3 S1 Pro
;POSTPROCESSED
;Generated with Cura_SteamEngine 5.5.0
M82 ;absolute extrusion mode
M190 S0
M109 S0
_PRINT_START_PHASE_INIT EXTRUDER=230 BED=85 NOZZLE_SIZE=0.4
; Insert custom gcode here.
_PRINT_START_PHASE_PREHEAT
; Insert custom gcode here.
_PRINT_START_PHASE_PROBING
; Insert custom gcode here.
_PRINT_START_PHASE_EXTRUDER
; Insert custom gcode here.
_PRINT_START_PHASE_PURGE

; This is the place to put slicer purge lines if you haven't set a non-zero
; variable_start_purge_length to have START_PRINT automatically calculate and
; perform the purge (e.g. if using a Mosaic Palette, which requires the slicer
; to generate the purge).
G92 E0
G92 E0
G1 F2100 E-4
;LAYER_COUNT:75
INIT_LAYER_GCODE LAYERS=75
PRINT_START_SET LAYERS=75
;BEFORE_LAYER_CHANGE
;LAYER:0
BEFORE_LAYER_CHANGE LAYER=0
AFTER_LAYER_CHANGE
M107
M204 S2000
G0 F6000 X69.132 Y68.432 Z0.2
M204 S500
;TYPE:SKIRT
G1 F2100 E0
G1 F900 X69.843 Y67.768 E0.03074
G1 X70.554 Y67.21 E0.0593
G1 X71.629 Y66.527 E0.09954
G1 X71.933 Y66.358 E0.11053
G1 X72.804 Y65.926 E0.14125
G1 X73.706 Y65.572 E0.17187
G1 X74.43 Y65.352 E0.19578
G1 X74.829 Y65.247 E0.20881
G1 X75.797 Y65.04 E0.24009
G1 X77.165 Y64.896 E0.28355
G1 X77.832 Y64.878 E0.30464
G1 X144.353 Y64.875 E2.40651
G1 X145.254 Y64.889 E2.43498
G1 X146.226 Y64.95 E2.46575
G1 X147.19 Y65.097 E2.49657
G1 X148.109 Y65.322 E2.52646
G1 X149.462 Y65.811 E2.57192
G1 X149.793 Y65.956 E2.58334
G1 X150.635 Y66.372 E2.61301
G1 X151.496 Y66.898 E2.64489
G1 X152.279 Y67.478 E2.67568
G1 X153.008 Y68.126 E2.7065
G1 X153.788 Y68.956 E2.74249
G1 X154.413 Y69.754 E2.77452
G1 X154.982 Y70.63 E2.80752
G1 X155.423 Y71.464 E2.83733
G1 X155.917 Y72.67 E2.87851
G1 X156.233 Y73.727 E2.91337
G1 X156.417 Y74.612 E2.94193
G1 X156.538 Y75.635 E2.97448
G1 X156.562 Y76.189 E2.992
G1 X156.575 Y76.961 E3.0164
G1 X156.574 Y143.005 E5.1032
G1 X156.562 Y143.778 E5.12763
G1 X156.504 Y144.751 E5.15842
G1 X156.358 Y145.714 E5.1892
G1 X156.128 Y146.661 E5.21999
G1 X155.819 Y147.576 E5.25051
G1 X155.463 Y148.406 E5.27904
G1 X155.042 Y149.245 E5.3087
G1 X154.512 Y150.103 E5.34057
G1 X153.972 Y150.827 E5.36911
G1 X153.276 Y151.607 E5.40214
G1 X152.542 Y152.296 E5.43395
G1 X151.635 Y153.005 E5.47032
G1 X150.817 Y153.533 E5.50109
G1 X149.983 Y153.974 E5.5309
G1 X148.777 Y154.468 E5.57208
G1 X147.72 Y154.784 E5.60693
G1 X146.835 Y154.968 E5.6355
G1 X145.811 Y155.089 E5.66808
G1 X145.229 Y155.114 E5.68648
G1 X144.621 Y155.124 E5.7057
G1 X78.338 Y155.125 E7.80005
G1 X77.506 Y155.113 E7.82634
G1 X76.523 Y155.053 E7.85746
G1 X75.343 Y154.861 E7.89523
G1 X74.832 Y154.747 E7.91178
G1 X73.893 Y154.491 E7.94253
G1 X73.045 Y154.18 E7.97107
G1 X71.897 Y153.622 E8.0114
G1 X71.586 Y153.447 E8.02268
G1 X70.759 Y152.932 E8.05346
G1 X69.982 Y152.347 E8.08419
G1 X69.258 Y151.694 E8.115
G1 X68.596 Y150.981 E8.14574
G1 X68.016 Y150.236 E8.17557
G1 X67.372 Y149.215 E8.21371
G1 X67.202 Y148.906 E8.22486
G1 X66.769 Y148.032 E8.25568
G1 X66.418 Y147.126 E8.28638
G1 X66.164 Y146.26 E8.31489
G1 X65.96 Y145.234 E8.34795
G1 X65.859 Y144.282 E8.37819
G1 X65.84 Y143.786 E8.39388
G1 X65.829 Y143.115 E8.41508
G1 X65.829 Y76.903 E10.50719
G1 X65.841 Y76.198 E10.52947
G1 X65.901 Y75.225 E10.56027
G1 X66.048 Y74.264 E10.59099
G1 X66.279 Y73.317 E10.62179
G1 X66.593 Y72.395 E10.65257
G1 X66.969 Y71.54 E10.68208
G1 X67.385 Y70.764 E10.7099
G1 X67.897 Y69.937 E10.74063
G1 X68.481 Y69.157 E10.77142
G1 X69.132 Y68.432 E10.80221
M204 S2000
G0 F6000 X69.405 Y68.724
M204 S500
G1 F900 X70.09 Y68.083 E10.83185
G1 X70.801 Y67.525 E10.86041
G1 X71.824 Y66.876 E10.89869
G1 X72.111 Y66.716 E10.90907
G1 X72.951 Y66.298 E10.93872
G1 X73.822 Y65.955 E10.9683
G1 X74.532 Y65.739 E10.99175
G1 X74.914 Y65.638 E11.00423
G1 X75.839 Y65.438 E11.03413
G1 X77.176 Y65.296 E11.07662
G1 X77.832 Y65.278 E11.09735
G1 X144.347 Y65.275 E13.19903
G1 X145.23 Y65.288 E13.22694
G1 X146.166 Y65.345 E13.25657
G1 X147.095 Y65.486 E13.28626
G1 X148.014 Y65.711 E13.31615
G1 X149.301 Y66.177 E13.3594
G1 X149.616 Y66.315 E13.37027
G1 X150.458 Y66.731 E13.39994
G1 X151.259 Y67.22 E13.4296
G1 X152.014 Y67.777 E13.45924
G1 X152.717 Y68.4 E13.48892
G1 X153.473 Y69.203 E13.52377
G1 X154.098 Y70.001 E13.5558
G1 X154.628 Y70.817 E13.58654
G1 X155.069 Y71.651 E13.61635
G1 X155.534 Y72.785 E13.65508
G1 X155.841 Y73.808 E13.68883
G1 X156.025 Y74.693 E13.71739
G1 X156.138 Y75.653 E13.74793
G1 X156.162 Y76.196 E13.7651
G1 X156.175 Y76.961 E13.78928
G1 X156.174 Y142.999 E15.87589
G1 X156.163 Y143.755 E15.89978
G1 X156.108 Y144.692 E15.92944
G1 X155.969 Y145.62 E15.95909
G1 X155.749 Y146.533 E15.98876
G1 X155.451 Y147.419 E16.0183
G1 X155.105 Y148.227 E16.04607
G1 X154.684 Y149.066 E16.07573
G1 X154.191 Y149.864 E16.10537
G1 X153.651 Y150.588 E16.13391
G1 X153.002 Y151.315 E16.1647
G1 X152.268 Y152.004 E16.19651
G1 X151.417 Y152.669 E16.23063
G1 X150.63 Y153.179 E16.26027
G1 X149.796 Y153.62 E16.29007
G1 X148.662 Y154.085 E16.3288
G1 X147.639 Y154.392 E16.36255
G1 X146.754 Y154.576 E16.39111
G1 X145.794 Y154.689 E16.42165
G1 X145.222 Y154.714 E16.43974
G1 X144.621 Y154.724 E16.45874
G1 X78.343 Y154.725 E18.55293
G1 X77.53 Y154.714 E18.57862
G1 X76.587 Y154.658 E18.60847
G1 X75.407 Y154.466 E18.64625
G1 X74.937 Y154.361 E18.66146
G1 X74.031 Y154.115 E18.69113
G1 X73.183 Y153.804 E18.71967
G1 X72.093 Y153.273 E18.75798
G1 X71.797 Y153.107 E18.7687
G1 X70.999 Y152.612 E18.79837
G1 X70.249 Y152.049 E18.828
G1 X69.551 Y151.422 E18.85765
G1 X68.912 Y150.735 E18.88729
G1 X68.332 Y149.99 E18.91713
G1 X67.711 Y149.002 E18.954
G1 X67.56 Y148.728 E18.96388
G1 X67.142 Y147.887 E18.99356
G1 X66.802 Y147.013 E19.02319
G1 X66.548 Y146.147 E19.05171
G1 X66.358 Y145.191 E19.0825
G1 X66.259 Y144.266 E19.1119
G1 X66.24 Y143.779 E19.1273
G1 X66.229 Y143.108 E19.1485
G1 X66.229 Y76.909 E21.2402
G1 X66.24 Y76.222 E21.26191
G1 X66.297 Y75.285 E21.29157
G1 X66.437 Y74.358 E21.32119
G1 X66.658 Y73.445 E21.35088
G1 X66.959 Y72.556 E21.38053
G1 X67.335 Y71.701 E21.41004
G1 X67.725 Y70.974 E21.43611
G1 X68.218 Y70.176 E21.46575
G1 X68.779 Y69.424 E21.4954
G1 X69.405 Y68.724 E21.52507
M204 S2000
G0 F6000 X69.679 Y69.016
M204 S500
G1 F900 X70.337 Y68.398 E21.55359
G1 X71.048 Y67.84 E21.58215
G1 X72.019 Y67.225 E21.61847
G1 X72.29 Y67.074 E21.62827
G1 X73.098 Y66.67 E21.65681
G1 X73.938 Y66.338 E21.68535
G1 X74.635 Y66.126 E21.70837
G1 X75 Y66.029 E21.7203
G1 X75.882 Y65.836 E21.74883
G1 X77.187 Y65.696 E21.7903
G1 X77.832 Y65.678 E21.81069
G1 X144.341 Y65.675 E23.91218
G1 X145.206 Y65.687 E23.93952
G1 X146.107 Y65.741 E23.96804
G1 X147.001 Y65.875 E23.9966
G1 X147.878 Y66.087 E24.02511
G1 X149.14 Y66.543 E24.06751
G1 X149.439 Y66.674 E24.07782
G1 X150.25 Y67.073 E24.10638
G1 X151.022 Y67.542 E24.13492
G1 X151.749 Y68.077 E24.16345
G1 X152.426 Y68.675 E24.19199
G1 X153.158 Y69.45 E24.22567
G1 X153.783 Y70.248 E24.2577
G1 X154.275 Y71.005 E24.28623
G1 X154.699 Y71.803 E24.31478
G1 X155.151 Y72.901 E24.3523
G1 X155.449 Y73.889 E24.3849
G1 X155.633 Y74.774 E24.41346
G1 X155.738 Y75.671 E24.442
G1 X155.762 Y76.203 E24.45883
G1 X155.775 Y76.961 E24.48278
G1 X155.774 Y142.994 E26.56923
G1 X155.764 Y143.732 E26.59256
G1 X155.712 Y144.634 E26.6211
G1 X155.58 Y145.527 E26.64963
G1 X155.37 Y146.406 E26.67818
G1 X155.083 Y147.262 E26.70671
G1 X154.747 Y148.048 E26.73372
G1 X154.343 Y148.856 E26.76226
G1 X153.87 Y149.625 E26.79079
G1 X153.33 Y150.349 E26.81933
G1 X152.728 Y151.023 E26.84788
G1 X151.994 Y151.712 E26.87969
G1 X151.199 Y152.334 E26.91159
G1 X150.442 Y152.826 E26.94011
G1 X149.644 Y153.25 E26.96867
G1 X148.546 Y153.702 E27.00618
G1 X147.558 Y154 E27.03879
G1 X146.673 Y154.184 E27.06735
G1 X145.776 Y154.289 E27.09589
G1 X145.215 Y154.314 E27.11363
G1 X144.621 Y154.324 E27.1324
G1 X78.348 Y154.325 E29.22644
G1 X77.553 Y154.315 E29.25156
G1 X76.651 Y154.263 E29.28011
G1 X75.471 Y154.071 E29.31788
G1 X75.041 Y153.975 E29.33181
G1 X74.169 Y153.739 E29.36035
G1 X73.321 Y153.428 E29.38889
G1 X72.288 Y152.924 E29.42521
G1 X72.007 Y152.767 E29.43538
G1 X71.239 Y152.292 E29.46391
G1 X70.516 Y151.751 E29.49244
G1 X69.843 Y151.149 E29.52097
G1 X69.227 Y150.489 E29.5495
G1 X68.671 Y149.777 E29.57804
G1 X68.061 Y148.808 E29.61422
G1 X67.918 Y148.55 E29.62354
G1 X67.515 Y147.741 E29.6521
G1 X67.186 Y146.9 E29.68064
G1 X66.932 Y146.034 E29.70915
G1 X66.756 Y145.148 E29.73769
G1 X66.659 Y144.25 E29.76623
G1 X66.64 Y143.772 E29.78135
G1 X66.629 Y143.101 E29.80255
G1 X66.629 Y76.915 E31.89384
G1 X66.639 Y76.246 E31.91498
G1 X66.693 Y75.344 E31.94353
G1 X66.826 Y74.451 E31.97206
G1 X67.037 Y73.573 E32.00059
G1 X67.325 Y72.717 E32.02913
G1 X67.688 Y71.89 E32.05767
G1 X68.066 Y71.184 E32.08297
G1 X68.539 Y70.415 E32.1115
G1 X69.078 Y69.69 E32.14004
G1 X69.679 Y69.016 E32.16857
M204 S2000
G1 F2100 E28.16857
;MESH:lid_revised.stl
G0 F6000 X76.754 Y76.034
G0 X77.729 Y76.507
G0 X78.71 Y142.725
M204 S500
;TYPE:WALL-INNER
G1 F2100 E32.16857
G1 F1200 X144.175 Y142.725 E34.23708
G1 X144.175 Y77.275 E36.30511
G1 X78.71 Y77.275 E38.37362
G1 X78.71 Y142.725 E40.44165
M204 S2000
G0 F6000 X78.31 Y143.125
M204 S500
G1 F1200 X144.575 Y143.125 E42.53543
G1 X144.575 Y76.875 E44.62874
G1 X78.31 Y76.875 E46.72253
G1 X78.31 Y143.125 E48.81584
M204 S2000
G0 F6000 X78.17 Y143.525
M204 S500
G1 F1200 X144.975 Y143.521 E50.92668
G1 X144.971 Y76.475 E53.04515
G1 X78.282 Y76.475 E55.15233
G1 X78.051 Y76.505 E55.15969
G1 X77.911 Y76.571 E55.16458
G1 X77.91 Y143.424 E57.27694
G1 X78.17 Y143.525 E57.28575
M204 S2000
G0 F6000 X78.031 Y143.925
M204 S500
;TYPE:WALL-OUTER
G1 F1200 X145.01 Y143.924 E59.4021
G1 X145.171 Y143.868 E59.40748
G1 X145.269 Y143.786 E59.41152
G1 X145.375 Y143.555 E59.41955
G1 X145.375 Y76.44 E61.54019
G1 X145.236 Y76.181 E61.54948
G1 X145.005 Y76.075 E61.55751
G1 X78.257 Y76.075 E63.66656
G1 X77.938 Y76.116 E63.67672
G1 X77.636 Y76.258 E63.68726
G1 X77.511 Y76.455 E63.69463
G1 X77.51 Y143.582 E65.81566
G1 X77.7 Y143.785 E65.82444
G1 X78.031 Y143.925 E65.8358
M204 S2000
G0 F6000 X78.169 Y143.219
G0 X78.81 Y142.365
G0 X79.07 Y142.365
M204 S500
;TYPE:SKIN
G1 F1200 X79.07 Y77.635 E67.88108
G1 X143.815 Y77.635 E69.92683
G1 X143.815 Y142.365 E71.97212
G1 X79.07 Y142.365 E74.01787
M204 S2000
G0 F6000 X79.373 Y142.164
M204 S500
G1 F1200 X79.269 Y142.06 E74.02252
M204 S2000
G0 F6000 X79.269 Y141.494
M204 S500
G1 F1200 X79.939 Y142.164 E74.05246
M204 S2000
G0 F6000 X80.504 Y142.164
M204 S500
G1 F1200 X79.269 Y140.929 E74.10765
M204 S2000
G0 F6000 X79.269 Y140.363
M204 S500
G1 F1200 X81.07 Y142.164 E74.18812
M204 S2000
G0 F6000 X81.636 Y142.164
M204 S500
G1 F1200 X79.269 Y139.797 E74.29389
M204 S2000
G0 F6000 X79.269 Y139.232
M204 S500
G1 F1200 X82.201 Y142.164 E74.42491
M204 S2000
G0 F6000 X82.767 Y142.164
M204 S500
G1 F1200 X79.269 Y138.666 E74.58122
M204 S2000
G0 F6000 X79.269 Y138.1
M204 S500
G1 F1200 X83.333 Y142.164 E74.76282
M204 S2000
G0 F6000 X83.898 Y142.164
M204 S500
G1 F1200 X79.269 Y137.535 E74.96967
M204 S2000
G0 F6000 X79.269 Y136.969
M204 S500
G1 F1200 X84.464 Y142.164 E75.2018
M204 S2000
G0 F6000 X85.03 Y142.164
M204 S500
G1 F1200 X79.269 Y136.403 E75.45924
M204 S2000
G0 F6000 X79.269 Y135.838
M204 S500
G1 F1200 X85.595 Y142.164 E75.74191
M204 S2000
G0 F6000 X86.161 Y142.164
M204 S500
G1 F1200 X79.269 Y135.272 E76.04988
M204 S2000
G0 F6000 X79.269 Y134.706
M204 S500
G1 F1200 X86.727 Y142.164 E76.38314
M204 S2000
G0 F6000 X87.293 Y142.164
M204 S500
G1 F1200 X79.269 Y134.14 E76.7417
M204 S2000
G0 F6000 X79.269 Y133.575
M204 S500
G1 F1200 X87.858 Y142.164 E77.1255
M204 S2000
G0 F6000 X88.424 Y142.164
M204 S500
G1 F1200 X79.269 Y133.009 E77.53459
M204 S2000
G0 F6000 X79.269 Y132.443
M204 S500
G1 F1200 X88.99 Y142.164 E77.96897
M204 S2000
G0 F6000 X89.555 Y142.164
M204 S500
G1 F1200 X79.269 Y131.878 E78.4286
M204 S2000
G0 F6000 X79.269 Y131.312
M204 S500
G1 F1200 X90.121 Y142.164 E78.91353
M204 S2000
G0 F6000 X90.687 Y142.164
M204 S500
G1 F1200 X79.269 Y130.746 E79.42374
M204 S2000
G0 F6000 X79.269 Y130.181
M204 S500
G1 F1200 X91.252 Y142.164 E79.9592
M204 S2000
G0 F6000 X91.818 Y142.164
M204 S500
G1 F1200 X79.269 Y129.615 E80.51996
M204 S2000
G0 F6000 X79.269 Y129.049
M204 S500
G1 F1200 X92.384 Y142.164 E81.106
M204 S2000
G0 F6000 X92.949 Y142.164
M204 S500
G1 F1200 X79.269 Y128.484 E81.71729
M204 S2000
G0 F6000 X79.269 Y127.918
M204 S500
G1 F1200 X93.515 Y142.164 E82.35388
M204 S2000
G0 F6000 X94.081 Y142.164
M204 S500
G1 F1200 X79.269 Y127.352 E83.01575
M204 S2000
G0 F6000 X79.269 Y126.787
M204 S500
G1 F1200 X94.646 Y142.164 E83.70287
M204 S2000
G0 F6000 X95.212 Y142.164
M204 S500
G1 F1200 X79.269 Y126.221 E84.41529
M204 S2000
G0 F6000 X79.269 Y125.655
M204 S500
G1 F1200 X95.778 Y142.164 E85.15299
M204 S2000
G0 F6000 X96.344 Y142.164
M204 S500
G1 F1200 X79.269 Y125.09 E85.91597
M204 S2000
G0 F6000 X79.269 Y124.524
M204 S500
G1 F1200 X96.909 Y142.164 E86.70421
M204 S2000
G0 F6000 X97.475 Y142.164
M204 S500
G1 F1200 X79.269 Y123.958 E87.51775
M204 S2000
G0 F6000 X79.269 Y123.392
M204 S500
G1 F1200 X98.041 Y142.164 E88.35658
M204 S2000
G0 F6000 X98.606 Y142.164
M204 S500
G1 F1200 X79.269 Y122.827 E89.22066
M204 S2000
G0 F6000 X79.269 Y122.261
M204 S500
G1 F1200 X99.172 Y142.164 E90.11002
M204 S2000
G0 F6000 X99.738 Y142.164
M204 S500
G1 F1200 X79.269 Y121.695 E91.02468
M204 S2000
G0 F6000 X79.269 Y121.13
M204 S500
G1 F1200 X100.303 Y142.164 E91.96459
M204 S2000
G0 F6000 X100.869 Y142.164
M204 S500
G1 F1200 X79.269 Y120.564 E92.92979
M204 S2000
G0 F6000 X79.269 Y119.998
M204 S500
G1 F1200 X101.435 Y142.164 E93.92028
M204 S2000
G0 F6000 X102 Y142.164
M204 S500
G1 F1200 X79.269 Y119.433 E94.93601
M204 S2000
G0 F6000 X79.269 Y118.867
M204 S500
G1 F1200 X102.566 Y142.164 E95.97704
M204 S2000
G0 F6000 X103.132 Y142.164
M204 S500
G1 F1200 X79.269 Y118.301 E97.04336
M204 S2000
G0 F6000 X79.269 Y117.736
M204 S500
G1 F1200 X103.697 Y142.164 E98.13493
M204 S2000
G0 F6000 X104.263 Y142.164
M204 S500
G1 F1200 X79.269 Y117.17 E99.25179
M204 S2000
G0 F6000 X79.269 Y116.604
M204 S500
G1 F1200 X104.829 Y142.164 E100.39394
M204 S2000
G0 F6000 X105.394 Y142.164
M204 S500
G1 F1200 X79.269 Y116.039 E101.56134
M204 S2000
G0 F6000 X79.269 Y115.473
M204 S500
G1 F1200 X105.96 Y142.164 E102.75403
M204 S2000
G0 F6000 X106.526 Y142.164
M204 S500
G1 F1200 X79.269 Y114.907 E103.97201
M204 S2000
G0 F6000 X79.269 Y114.341
M204 S500
G1 F1200 X107.092 Y142.164 E105.21528
M204 S2000
G0 F6000 X107.657 Y142.164
M204 S500
G1 F1200 X79.269 Y113.776 E106.4838
M204 S2000
G0 F6000 X79.269 Y113.21
M204 S500
G1 F1200 X108.223 Y142.164 E107.77761
M204 S2000
G0 F6000 X108.789 Y142.164
M204 S500
G1 F1200 X79.269 Y112.644 E109.09672
M204 S2000
G0 F6000 X79.269 Y112.079
M204 S500
G1 F1200 X109.354 Y142.164 E110.44107
M204 S2000
G0 F6000 X109.92 Y142.164
M204 S500
G1 F1200 X79.269 Y111.513 E111.81071
M204 S2000
G0 F6000 X79.269 Y110.947
M204 S500
G1 F1200 X110.486 Y142.164 E113.20564
M204 S2000
G0 F6000 X111.051 Y142.164
M204 S500
G1 F1200 X79.269 Y110.382 E114.62583
M204 S2000
G0 F6000 X79.269 Y109.816
M204 S500
G1 F1200 X111.617 Y142.164 E116.0713
M204 S2000
G0 F6000 X112.183 Y142.164
M204 S500
G1 F1200 X79.269 Y109.25 E117.54206
M204 S2000
G0 F6000 X79.269 Y108.685
M204 S500
G1 F1200 X112.748 Y142.164 E119.03808
M204 S2000
G0 F6000 X113.314 Y142.164
M204 S500
G1 F1200 X79.269 Y108.119 E120.55938
M204 S2000
G0 F6000 X79.269 Y107.553
M204 S500
G1 F1200 X113.88 Y142.164 E122.10598
M204 S2000
G0 F6000 X114.445 Y142.164
M204 S500
G1 F1200 X79.269 Y106.988 E123.67782
M204 S2000
G0 F6000 X79.269 Y106.422
M204 S500
G1 F1200 X115.011 Y142.164 E125.27495
M204 S2000
G0 F6000 X115.577 Y142.164
M204 S500
G1 F1200 X79.269 Y105.856 E126.89738
M204 S2000
G0 F6000 X79.269 Y105.291
M204 S500
G1 F1200 X116.142 Y142.164 E128.54505
M204 S2000
G0 F6000 X116.708 Y142.164
M204 S500
G1 F1200 X79.269 Y104.725 E130.21802
M204 S2000
G0 F6000 X79.269 Y104.159
M204 S500
