;FLAVOR:Marlin
;TIME:7006
;Filament used: 5.77291m
;Layer height: 0.2
;MINX:68.808
;MINY:68.808
PRINT_START_SET MESH_MIN=68.808,68.808
;MINZ:0.2
;MAXX:151.192
;MAXY:151.192
PRINT_START_SET MESH_MAX=151.192,151.192
;MAXZ:39
;POSTPROCESSED
;Generated with Cura_SteamEngine 5.4.0
M82 ;absolute extrusion mode
M190 S0
M109 S0
_PRINT_START_PHASE_INIT EXTRUDER=230 BED=85 NOZZLE_SIZE=0.4
; Insert custom gcode here.
_PRINT_START_PHASE_PREHEAT
; Insert custom gcode here.
_PRINT_START_PHASE_PROBING
; Insert custom gcode here.
_PRINT_START_PHASE_EXTRUDER
; Insert custom gcode here.
_PRINT_START_PHASE_PURGE

; This is the place to put slicer purge lines if you haven't set a non-zero
; variable_start_purge_length to have START_PRINT automatically calculate and 
; perform the purge (e.g. if using a Mosaic Palette, which requires the slicer
; to generate the purge).
G92 E0
G92 E0
G1 F2100 E-4
;LAYER_COUNT:195
INIT_LAYER_GCODE LAYERS=195
PRINT_START_SET LAYERS=195
;BEFORE_LAYER_CHANGE
;LAYER:0
BEFORE_LAYER_CHANGE LAYER=0
AFTER_LAYER_CHANGE
M107
M204 S2000
G0 F6000 X80.604 Y81.146 Z0.2
M204 S500
;TYPE:SKIRT
G1 F2100 E0
G1 F900 X81.871 Y79.908 E0.05597
G1 X82.413 Y79.411 E0.07921
G1 X83.343 Y78.596 E0.11828
G1 X83.934 Y78.106 E0.14254
G1 X84.853 Y77.374 E0.17966
G1 X85.453 Y76.923 E0.20338
G1 X86.215 Y76.368 E0.23316
G1 X86.583 Y76.113 E0.24731
G1 X87.824 Y75.288 E0.2944
G1 X88.252 Y75.018 E0.31039
G1 X89.73 Y74.141 E0.36469
G1 X90.402 Y73.771 E0.38893
G1 X91.478 Y73.207 E0.42731
G1 X92.107 Y72.898 E0.44946
G1 X93.021 Y72.469 E0.48136
G1 X93.432 Y72.288 E0.49555
G1 X94.759 Y71.733 E0.541
G1 X95.585 Y71.413 E0.56899
G1 X96.941 Y70.932 E0.61445
G1 X97.645 Y70.706 E0.63781
G1 X98.769 Y70.368 E0.6749
G1 X99.533 Y70.161 E0.69991
G1 X100.674 Y69.876 E0.73707
G1 X101.424 Y69.71 E0.76134
G1 X102.806 Y69.441 E0.80583
G1 X104.223 Y69.216 E0.85116
G1 X104.716 Y69.148 E0.86689
G1 X106.149 Y68.988 E0.91245
G1 X106.655 Y68.946 E0.92849
G1 X108.487 Y68.835 E0.98648
G1 X109.224 Y68.816 E1.00978
G1 X110.131 Y68.808 E1.03844
G1 X111.174 Y68.825 E1.0714
G1 X112.374 Y68.876 E1.10935
G1 X113.146 Y68.93 E1.1338
G1 X114.5 Y69.055 E1.17676
G1 X116.241 Y69.282 E1.23224
G1 X116.973 Y69.404 E1.25569
G1 X118.378 Y69.67 E1.30087
G1 X119.715 Y69.969 E1.34416
G1 X120.662 Y70.211 E1.37504
G1 X121.961 Y70.582 E1.41773
G1 X122.716 Y70.82 E1.44274
G1 X123.881 Y71.217 E1.48163
G1 X124.537 Y71.461 E1.50375
G1 X125.667 Y71.904 E1.5421
G1 X126.352 Y72.193 E1.56559
G1 X127.519 Y72.719 E1.60604
G1 X128.129 Y73.014 E1.62745
G1 X129.414 Y73.671 E1.67305
G1 X130.974 Y74.548 E1.72959
G1 X131.549 Y74.896 E1.75083
G1 X132.625 Y75.577 E1.79107
G1 X133.213 Y75.973 E1.81347
G1 X134.267 Y76.714 E1.85418
G1 X134.833 Y77.137 E1.8765
G1 X135.791 Y77.881 E1.91483
G1 X136.331 Y78.324 E1.9369
G1 X137.31 Y79.161 E1.9776
G1 X137.827 Y79.631 E1.99967
G1 X138.854 Y80.604 E2.04437
G1 X140.092 Y81.871 E2.10035
G1 X140.589 Y82.413 E2.12358
G1 X141.404 Y83.343 E2.16265
G1 X141.894 Y83.934 E2.18691
G1 X142.626 Y84.853 E2.22403
G1 X143.079 Y85.456 E2.24787
G1 X143.884 Y86.578 E2.2915
G1 X144.71 Y87.821 E2.33865
G1 X144.986 Y88.258 E2.35499
G1 X145.865 Y89.738 E2.40938
G1 X146.226 Y90.397 E2.43312
G1 X146.793 Y91.478 E2.47169
G1 X147.1 Y92.103 E2.49369
G1 X147.529 Y93.016 E2.52556
G1 X147.713 Y93.434 E2.53999
G1 X148.266 Y94.758 E2.58533
G1 X148.449 Y95.225 E2.60118
G1 X149.066 Y96.936 E2.65865
G1 X149.295 Y97.647 E2.68225
G1 X149.633 Y98.773 E2.7194
G1 X149.84 Y99.534 E2.74432
G1 X150.061 Y100.415 E2.77302
G1 X150.284 Y101.405 E2.80508
G1 X150.478 Y102.358 E2.83581
G1 X150.556 Y102.793 E2.84978
G1 X150.783 Y104.217 E2.89534
G1 X150.852 Y104.715 E2.91122
G1 X151.012 Y106.147 E2.95675
G1 X151.054 Y106.654 E2.97283
G1 X151.165 Y108.486 E3.03082
G1 X151.184 Y109.224 E3.05415
G1 X151.192 Y110.132 E3.08284
G1 X151.175 Y111.174 E3.11577
G1 X151.124 Y112.377 E3.15381
G1 X151.07 Y113.145 E3.17814
G1 X150.945 Y114.499 E3.2211
G1 X150.719 Y116.234 E3.27639
G1 X150.596 Y116.974 E3.30009
G1 X150.328 Y118.39 E3.34562
G1 X150.027 Y119.726 E3.3889
G1 X149.738 Y120.847 E3.42548
G1 X149.423 Y121.946 E3.4616
G1 X149.178 Y122.721 E3.48728
G1 X148.877 Y123.615 E3.51709
G1 X148.539 Y124.537 E3.54812
G1 X148.097 Y125.667 E3.58645
G1 X147.79 Y126.39 E3.61127
G1 X147.277 Y127.525 E3.65063
G1 X147.089 Y127.92 E3.66445
G1 X146.406 Y129.272 E3.71231
G1 X146.095 Y129.846 E3.73294
G1 X145.599 Y130.725 E3.76483
G1 X145.375 Y131.104 E3.77874
G1 X144.609 Y132.338 E3.82463
G1 X144.328 Y132.765 E3.84078
G1 X143.491 Y133.979 E3.88738
G1 X142.862 Y134.834 E3.92092
G1 X142.027 Y135.905 E3.96383
G1 X141.097 Y137.014 E4.00956
G1 X140.374 Y137.822 E4.04382
G1 X139.488 Y138.764 E4.08468
G1 X138.98 Y139.273 E4.1074
G1 X138.14 Y140.082 E4.14425
G1 X137.587 Y140.59 E4.16798
G1 X136.649 Y141.411 E4.20736
G1 X136.066 Y141.894 E4.23129
G1 X135.147 Y142.626 E4.26841
G1 X134.547 Y143.077 E4.29213
G1 X133.785 Y143.632 E4.32191
G1 X133.417 Y143.887 E4.33606
G1 X132.176 Y144.712 E4.38314
G1 X131.748 Y144.982 E4.39913
G1 X130.27 Y145.859 E4.45344
G1 X129.598 Y146.229 E4.47768
G1 X128.522 Y146.793 E4.51606
G1 X127.893 Y147.102 E4.53821
G1 X126.979 Y147.531 E4.57011
G1 X126.569 Y147.712 E4.58427
G1 X125.244 Y148.267 E4.62966
G1 X124.775 Y148.449 E4.64556
G1 X123.059 Y149.068 E4.7032
G1 X122.355 Y149.294 E4.72656
G1 X121.227 Y149.633 E4.76377
G1 X120.463 Y149.84 E4.78879
G1 X119.319 Y150.125 E4.82604
G1 X118.58 Y150.288 E4.84995
G1 X117.207 Y150.556 E4.89415
G1 X115.783 Y150.783 E4.93971
G1 X115.284 Y150.852 E4.95563
G1 X113.851 Y151.012 E5.00119
G1 X113.345 Y151.054 E5.01723
G1 X111.513 Y151.165 E5.07523
G1 X110.776 Y151.184 E5.09852
G1 X109.869 Y151.192 E5.12718
G1 X108.826 Y151.175 E5.16014
G1 X107.625 Y151.124 E5.19812
G1 X106.856 Y151.07 E5.22248
G1 X105.499 Y150.945 E5.26554
G1 X103.766 Y150.719 E5.32076
G1 X103.023 Y150.596 E5.34456
G1 X101.613 Y150.328 E5.38991
G1 X100.276 Y150.027 E5.43321
G1 X99.153 Y149.737 E5.46986
G1 X98.039 Y149.418 E5.50647
G1 X97.283 Y149.179 E5.53152
G1 X96.388 Y148.878 E5.56136
G1 X95.463 Y148.539 E5.59249
G1 X94.327 Y148.095 E5.63103
G1 X93.852 Y147.895 E5.64731
G1 X92.355 Y147.22 E5.6992
G1 X91.038 Y146.567 E5.74565
G1 X90.591 Y146.332 E5.7616
G1 X89.328 Y145.628 E5.80729
G1 X88.892 Y145.371 E5.82328
G1 X87.358 Y144.413 E5.88043
G1 X86.796 Y144.033 E5.90186
G1 X85.974 Y143.459 E5.93354
G1 X85.624 Y143.204 E5.94722
G1 X84.197 Y142.11 E6.00404
G1 X83.661 Y141.669 E6.02597
G1 X82.704 Y140.85 E6.06577
G1 X82.173 Y140.369 E6.08841
G1 X81.146 Y139.396 E6.13311
G1 X79.918 Y138.14 E6.18861
G1 X79.403 Y137.579 E6.21268
G1 X78.596 Y136.658 E6.25137
G1 X78.107 Y136.068 E6.27558
G1 X77.371 Y135.143 E6.31293
G1 X76.923 Y134.547 E6.33649
G1 X76.368 Y133.785 E6.36628
G1 X76.113 Y133.417 E6.38042
G1 X75.288 Y132.176 E6.42751
G1 X75.018 Y131.748 E6.4435
G1 X74.141 Y130.27 E6.4978
G1 X73.775 Y129.609 E6.52168
G1 X73.327 Y128.76 E6.55201
G1 X72.897 Y127.889 E6.5827
G1 X72.468 Y126.974 E6.61463
G1 X72.289 Y126.567 E6.62868
G1 X71.599 Y124.906 E6.68551
G1 X71.413 Y124.415 E6.7021
G1 X70.932 Y123.059 E6.74756
G1 X70.706 Y122.355 E6.77092
G1 X70.368 Y121.231 E6.80801
G1 X70.161 Y120.467 E6.83302
G1 X69.876 Y119.326 E6.87018
G1 X69.709 Y118.571 E6.89461
G1 X69.444 Y117.207 E6.93852
G1 X69.217 Y115.782 E6.98411
G1 X69.148 Y115.284 E7
G1 X68.988 Y113.852 E7.04553
G1 X68.946 Y113.346 E7.06157
G1 X68.835 Y111.514 E7.11956
G1 X68.816 Y110.776 E7.14289
G1 X68.808 Y109.869 E7.17155
G1 X68.825 Y108.826 E7.20451
G1 X68.876 Y107.626 E7.24246
G1 X68.93 Y106.854 E7.26691
G1 X69.055 Y105.5 E7.30988
G1 X69.282 Y103.759 E7.36535
G1 X69.404 Y103.027 E7.3888
G1 X69.67 Y101.622 E7.43398
G1 X69.969 Y100.285 E7.47727
G1 X70.211 Y99.338 E7.50816
G1 X70.582 Y98.039 E7.55084
G1 X70.82 Y97.284 E7.57585
G1 X71.217 Y96.119 E7.61474
G1 X71.461 Y95.463 E7.63686
G1 X71.904 Y94.333 E7.67521
G1 X72.193 Y93.648 E7.6987
G1 X72.719 Y92.481 E7.73915
G1 X73.014 Y91.871 E7.76056
G1 X73.671 Y90.586 E7.80616
G1 X74.548 Y89.026 E7.8627
G1 X74.896 Y88.451 E7.88394
G1 X75.577 Y87.375 E7.92418
G1 X75.973 Y86.787 E7.94658
G1 X76.715 Y85.732 E7.98733
G1 X77.139 Y85.163 E8.00975
G1 X77.711 Y84.424 E8.03928
G1 X78.324 Y83.669 E8.07001
G1 X79.161 Y82.69 E8.11071
G1 X79.631 Y82.173 E8.13278
G1 X80.604 Y81.146 E8.17749
M204 S2000
G0 F6000 X80.884 Y81.432
M204 S500
G1 F900 X82.141 Y80.203 E8.23303
G1 X82.677 Y79.712 E8.256
G1 X83.598 Y78.904 E8.29471
G1 X84.183 Y78.419 E8.31872
G1 X85.094 Y77.694 E8.35551
G1 X85.689 Y77.246 E8.37904
G1 X86.442 Y76.697 E8.40849
G1 X86.805 Y76.446 E8.42243
G1 X88.038 Y75.626 E8.46922
G1 X88.456 Y75.362 E8.48484
G1 X89.923 Y74.491 E8.53875
G1 X90.588 Y74.125 E8.56274
G1 X91.655 Y73.566 E8.6008
G1 X92.277 Y73.26 E8.6227
G1 X93.182 Y72.835 E8.65429
G1 X93.586 Y72.657 E8.66824
G1 X94.903 Y72.106 E8.71335
G1 X95.719 Y71.79 E8.741
G1 X97.064 Y71.313 E8.78609
G1 X97.76 Y71.089 E8.80919
G1 X98.874 Y70.754 E8.84595
G1 X99.63 Y70.549 E8.8707
G1 X100.76 Y70.267 E8.9075
G1 X101.501 Y70.103 E8.93148
G1 X102.869 Y69.836 E8.97552
G1 X104.277 Y69.612 E9.02057
G1 X104.76 Y69.546 E9.03597
G1 X106.183 Y69.387 E9.08121
G1 X106.679 Y69.345 E9.09694
G1 X108.497 Y69.235 E9.15449
G1 X109.228 Y69.216 E9.17759
G1 X110.124 Y69.208 E9.20591
G1 X111.157 Y69.225 E9.23855
G1 X112.346 Y69.275 E9.27615
G1 X113.109 Y69.328 E9.30032
G1 X114.448 Y69.452 E9.34281
G1 X116.176 Y69.677 E9.39787
G1 X116.899 Y69.797 E9.42103
G1 X118.291 Y70.06 E9.46579
G1 X119.616 Y70.357 E9.50869
G1 X120.552 Y70.596 E9.53922
G1 X121.851 Y70.967 E9.5819
G1 X122.587 Y71.199 E9.60629
G1 X123.742 Y71.592 E9.64484
G1 X124.391 Y71.833 E9.66671
G1 X125.511 Y72.272 E9.70472
G1 X126.188 Y72.558 E9.72794
G1 X127.345 Y73.079 E9.76804
G1 X127.947 Y73.37 E9.78916
G1 X129.218 Y74.02 E9.83427
G1 X130.767 Y74.89 E9.89041
G1 X131.335 Y75.234 E9.91139
G1 X132.402 Y75.909 E9.95128
G1 X132.983 Y76.3 E9.97341
G1 X134.028 Y77.035 E10.01378
G1 X134.588 Y77.453 E10.03586
G1 X135.537 Y78.19 E10.07383
G1 X136.071 Y78.628 E10.09565
G1 X137.041 Y79.457 E10.13597
G1 X137.552 Y79.921 E10.15777
G1 X138.568 Y80.884 E10.20201
G1 X139.797 Y82.141 E10.25755
G1 X140.288 Y82.677 E10.28052
G1 X141.096 Y83.598 E10.31923
G1 X141.581 Y84.183 E10.34324
G1 X142.306 Y85.094 E10.38003
G1 X142.754 Y85.689 E10.40357
G1 X143.551 Y86.799 E10.44674
G1 X144.372 Y88.034 E10.4936
G1 X144.642 Y88.462 E10.50959
G1 X145.514 Y89.93 E10.56354
G1 X145.872 Y90.583 E10.58707
G1 X146.434 Y91.655 E10.62532
G1 X146.738 Y92.273 E10.64708
G1 X147.163 Y93.177 E10.67864
G1 X147.344 Y93.588 E10.69283
G1 X147.894 Y94.904 E10.7379
G1 X148.073 Y95.361 E10.75341
G1 X148.685 Y97.059 E10.81044
G1 X148.912 Y97.762 E10.83378
G1 X149.247 Y98.878 E10.8706
G1 X149.452 Y99.632 E10.89529
G1 X149.671 Y100.503 E10.92366
G1 X149.892 Y101.485 E10.95547
G1 X150.084 Y102.429 E10.98591
G1 X150.161 Y102.856 E10.99962
G1 X150.387 Y104.271 E11.04489
G1 X150.454 Y104.759 E11.06046
G1 X150.613 Y106.181 E11.10567
G1 X150.655 Y106.678 E11.12143
G1 X150.765 Y108.496 E11.17898
G1 X150.784 Y109.228 E11.20211
G1 X150.792 Y110.125 E11.23046
G1 X150.775 Y111.157 E11.26307
G1 X150.725 Y112.349 E11.30077
G1 X150.672 Y113.108 E11.32481
G1 X150.548 Y114.447 E11.3673
G1 X150.324 Y116.169 E11.42216
G1 X150.203 Y116.9 E11.44558
G1 X149.938 Y118.302 E11.49066
G1 X149.64 Y119.626 E11.53354
G1 X149.353 Y120.737 E11.5698
G1 X149.038 Y121.836 E11.60592
G1 X148.799 Y122.593 E11.631
G1 X148.501 Y123.478 E11.66051
G1 X148.167 Y124.391 E11.69123
G1 X147.729 Y125.51 E11.7292
G1 X147.425 Y126.225 E11.75375
G1 X146.916 Y127.353 E11.79285
G1 X146.732 Y127.74 E11.80639
G1 X146.054 Y129.082 E11.8539
G1 X145.747 Y129.649 E11.87427
G1 X145.255 Y130.521 E11.90591
G1 X145.035 Y130.893 E11.91956
G1 X144.275 Y132.118 E11.96511
G1 X143.999 Y132.538 E11.98099
G1 X143.169 Y133.742 E12.0272
G1 X142.547 Y134.588 E12.06038
G1 X141.72 Y135.648 E12.10286
G1 X140.799 Y136.747 E12.14816
G1 X140.083 Y137.548 E12.18211
G1 X139.205 Y138.481 E12.22259
G1 X138.702 Y138.985 E12.24509
G1 X137.87 Y139.787 E12.2816
G1 X137.323 Y140.289 E12.30506
G1 X136.394 Y141.103 E12.34409
G1 X135.817 Y141.581 E12.36777
G1 X134.906 Y142.306 E12.40455
G1 X134.311 Y142.754 E12.42809
G1 X133.558 Y143.303 E12.45753
G1 X133.195 Y143.554 E12.47148
G1 X131.962 Y144.374 E12.51827
G1 X131.544 Y144.638 E12.53389
G1 X130.077 Y145.509 E12.58779
G1 X129.412 Y145.875 E12.61178
G1 X128.345 Y146.434 E12.64984
G1 X127.723 Y146.74 E12.67174
G1 X126.818 Y147.165 E12.70333
G1 X126.414 Y147.343 E12.71728
G1 X125.099 Y147.894 E12.76233
G1 X124.639 Y148.073 E12.77793
G1 X122.936 Y148.687 E12.83513
G1 X122.24 Y148.911 E12.85823
G1 X121.122 Y149.247 E12.89512
G1 X120.366 Y149.452 E12.91987
G1 X119.233 Y149.734 E12.95676
G1 X118.503 Y149.895 E12.98038
G1 X117.144 Y150.161 E13.02414
G1 X115.729 Y150.387 E13.06941
G1 X115.24 Y150.454 E13.08501
G1 X113.817 Y150.613 E13.13025
G1 X113.321 Y150.655 E13.14598
G1 X111.503 Y150.765 E13.20353
G1 X110.772 Y150.784 E13.22663
G1 X109.876 Y150.792 E13.25495
G1 X108.843 Y150.775 E13.28759
G1 X107.653 Y150.725 E13.32522
G1 X106.893 Y150.672 E13.3493
G1 X105.551 Y150.548 E13.39188
G1 X103.831 Y150.324 E13.44669
G1 X103.098 Y150.203 E13.47016
G1 X101.701 Y149.938 E13.51509
G1 X100.376 Y149.64 E13.558
G1 X99.263 Y149.352 E13.59433
G1 X98.149 Y149.033 E13.63094
G1 X97.411 Y148.8 E13.65539
G1 X96.525 Y148.502 E13.68493
G1 X95.609 Y148.167 E13.71575
G1 X94.482 Y147.726 E13.75399
G1 X94.016 Y147.53 E13.76996
G1 X92.533 Y146.862 E13.82135
G1 X91.224 Y146.213 E13.86752
G1 X90.786 Y145.983 E13.88315
G1 X89.531 Y145.284 E13.92854
G1 X89.104 Y145.032 E13.94421
G1 X87.582 Y144.081 E14.00091
G1 X87.025 Y143.705 E14.02215
G1 X86.21 Y143.136 E14.05355
G1 X85.867 Y142.886 E14.06696
G1 X84.451 Y141.801 E14.12333
G1 X83.921 Y141.365 E14.14502
G1 X82.972 Y140.553 E14.18448
G1 X82.448 Y140.079 E14.20681
G1 X81.432 Y139.116 E14.25104
G1 X80.213 Y137.87 E14.30611
G1 X79.704 Y137.315 E14.32991
G1 X78.904 Y136.402 E14.36827
G1 X78.42 Y135.819 E14.39221
G1 X77.691 Y134.902 E14.42922
G1 X77.246 Y134.311 E14.4526
G1 X76.697 Y133.558 E14.48204
G1 X76.446 Y133.195 E14.49599
G1 X75.626 Y131.962 E14.54278
G1 X75.362 Y131.544 E14.5584
G1 X74.491 Y130.077 E14.6123
G1 X74.129 Y129.422 E14.63595
G1 X73.686 Y128.583 E14.66593
G1 X73.259 Y127.719 E14.69638
G1 X72.834 Y126.813 E14.728
G1 X72.658 Y126.414 E14.74178
G1 X71.973 Y124.764 E14.79823
G1 X71.79 Y124.281 E14.81455
G1 X71.313 Y122.936 E14.85964
G1 X71.089 Y122.24 E14.88274
G1 X70.754 Y121.126 E14.9195
G1 X70.549 Y120.37 E14.94425
G1 X70.267 Y119.24 E14.98105
G1 X70.102 Y118.495 E15.00516
G1 X69.839 Y117.144 E15.04865
G1 X69.613 Y115.728 E15.09396
G1 X69.546 Y115.24 E15.10952
G1 X69.387 Y113.818 E15.15473
G1 X69.345 Y113.322 E15.17046
G1 X69.235 Y111.504 E15.22801
G1 X69.216 Y110.772 E15.25115
G1 X69.208 Y109.876 E15.27946
G1 X69.225 Y108.843 E15.3121
G1 X69.275 Y107.654 E15.34971
G1 X69.328 Y106.891 E15.37387
G1 X69.452 Y105.552 E15.41636
G1 X69.677 Y103.824 E15.47142
G1 X69.797 Y103.101 E15.49458
G1 X70.06 Y101.709 E15.53934
G1 X70.357 Y100.384 E15.58225
G1 X70.596 Y99.448 E15.61277
G1 X70.967 Y98.149 E15.65546
G1 X71.199 Y97.413 E15.67984
G1 X71.592 Y96.258 E15.71839
G1 X71.833 Y95.609 E15.74026
G1 X72.272 Y94.489 E15.77827
G1 X72.558 Y93.812 E15.8015
G1 X73.079 Y92.655 E15.84159
G1 X73.37 Y92.053 E15.86272
G1 X74.02 Y90.782 E15.90782
G1 X74.89 Y89.233 E15.96396
G1 X75.234 Y88.665 E15.98494
G1 X75.909 Y87.598 E16.02483
G1 X76.3 Y87.017 E16.04696
G1 X77.036 Y85.971 E16.08737
G1 X77.455 Y85.408 E16.10955
G1 X78.021 Y84.676 E16.13879
G1 X78.628 Y83.929 E16.1692
G1 X79.457 Y82.959 E16.20952
G1 X79.921 Y82.448 E16.23133
G1 X80.884 Y81.432 E16.27556
M204 S2000
G0 F6000 X81.164 Y81.718
M204 S500
G1 F900 X82.411 Y80.498 E16.33068
G1 X82.941 Y80.013 E16.35338
G1 X83.853 Y79.212 E16.39173
G1 X84.432 Y78.732 E16.4155
G1 X85.335 Y78.013 E16.45197
G1 X85.924 Y77.569 E16.47528
G1 X86.67 Y77.026 E16.50443
G1 X87.026 Y76.779 E16.51812
G1 X88.252 Y75.964 E16.56464
G1 X88.66 Y75.706 E16.57989
G1 X90.116 Y74.841 E16.6334
G1 X90.774 Y74.479 E16.65713
G1 X91.832 Y73.925 E16.69487
G1 X92.447 Y73.622 E16.71653
G1 X93.344 Y73.201 E16.74784
