;FLAVOR:Marlin
;TIME:3256
;Filament used: 2.18008m
;Layer height: 0.2
;MINX:62.451
;MINY:41.019
PRINT_START_SET MESH_MIN=62.451,41.019
;MINZ:0.2
;MAXX:157.45
;MAXY:179
PRINT_START_SET MESH_MAX=157.45,179
;MAXZ:1.4
;TARGET_MACHINE.NAME:Creality Ender-3 S1 Pro
;POSTPROCESSED
;Generated with Cura_SteamEngine 5.5.0
M82 ;absolute extrusion mode
M190 S0
M109 S0
_PRINT_START_PHASE_INIT EXTRUDER=230 BED=85 NOZZLE_SIZE=0.4
; Insert custom gcode here.
_PRINT_START_PHASE_PREHEAT
; Insert custom gcode here.
_PRINT_START_PHASE_PROBING
; Insert custom gcode here.
_PRINT_START_PHASE_EXTRUDER
; Insert custom gcode here.
_PRINT_START_PHASE_PURGE

; This is the place to put slicer purge lines if you haven't set a non-zero
; variable_start_purge_length to have START_PRINT automatically calculate and
; perform the purge (e.g. if using a Mosaic Palette, which requires the slicer
; to generate the purge).
G92 E0
G92 E0
G1 F2100 E-4
;LAYER_COUNT:7
INIT_LAYER_GCODE LAYERS=7
PRINT_START_SET LAYERS=7
;BEFORE_LAYER_CHANGE
;LAYER:0
BEFORE_LAYER_CHANGE LAYER=0
AFTER_LAYER_CHANGE
M107
M204 S2000
G0 F6000 X65.914 Y64.455 Z0.2
M204 S500
;TYPE:SKIRT
G1 F2100 E0
G1 F900 X66.656 Y63.815 E0.03259
G1 X67.56 Y63.172 E0.06949
G1 X68.208 Y62.761 E0.09501
G1 X70.401 Y61.321 E0.18227
G1 X72.474 Y59.874 E0.26635
G1 X74.454 Y58.407 E0.34831
G1 X76.468 Y56.826 E0.43347
G1 X78.385 Y55.231 E0.51642
G1 X80.287 Y53.554 E0.60076
G1 X82.142 Y51.824 E0.68512
G1 X83.892 Y50.098 E0.76687
G1 X85.663 Y48.247 E0.85208
G1 X87.345 Y46.388 E0.93546
G1 X88.324 Y45.242 E0.98559
G1 X88.774 Y44.733 E1.00819
G1 X89.44 Y44.047 E1.03999
G1 X90.202 Y43.388 E1.0735
G1 X90.992 Y42.818 E1.1059
G1 X91.8 Y42.339 E1.13714
G1 X92.678 Y41.917 E1.16954
G1 X93.623 Y41.562 E1.20311
G1 X94.527 Y41.312 E1.23431
G1 X95.529 Y41.128 E1.26819
G1 X96.706 Y41.032 E1.30747
G1 X97.313 Y41.019 E1.32766
G1 X120.305 Y41.019 E2.09238
G1 X121.188 Y41.032 E2.12175
G1 X122.16 Y41.091 E2.15414
G1 X123.123 Y41.237 E2.18654
G1 X124.07 Y41.468 E2.21896
G1 X124.991 Y41.781 E2.25131
G1 X125.883 Y42.175 E2.28374
G1 X126.736 Y42.646 E2.31615
G1 X127.542 Y43.19 E2.3485
G1 X128.299 Y43.803 E2.38089
G1 X128.949 Y44.43 E2.41093
G1 X129.348 Y44.87 E2.43069
G1 X130.008 Y45.639 E2.46439
G1 X131.749 Y47.614 E2.55196
G1 X133.43 Y49.416 E2.63392
G1 X135.204 Y51.212 E2.71789
G1 X137.048 Y52.976 E2.80276
G1 X138.897 Y54.649 E2.8857
G1 X140.836 Y56.303 E2.97047
G1 X142.765 Y57.86 E3.05292
G1 X144.773 Y59.387 E3.13682
G1 X146.808 Y60.845 E3.22008
G1 X148.917 Y62.269 E3.30472
G1 X149.835 Y62.854 E3.34093
G1 X150.555 Y63.326 E3.36956
G1 X151.342 Y63.899 E3.40194
G1 X152.076 Y64.538 E3.43431
G1 X152.728 Y65.213 E3.46552
G1 X153.361 Y66 E3.49911
G1 X153.902 Y66.81 E3.53151
G1 X154.368 Y67.664 E3.56387
G1 X154.758 Y68.557 E3.59628
G1 X155.067 Y69.481 E3.62868
G1 X155.293 Y70.428 E3.66107
G1 X155.427 Y71.321 E3.6911
G1 X155.486 Y72.171 E3.71944
G1 X155.501 Y72.828 E3.7413
G1 X155.5 Y95.925 E4.50951
G1 X155.481 Y97.254 E4.55371
G1 X155.481 Y99.86 E4.64039
G1 X155.548 Y102.542 E4.72962
G1 X155.551 Y104.019 E4.77875
G1 X155.588 Y106.603 E4.8647
G1 X155.697 Y109.168 E4.95009
G1 X155.871 Y111.631 E5.03221
G1 X156.12 Y114.148 E5.11634
G1 X156.441 Y116.656 E5.20043
G1 X156.825 Y119.11 E5.28305
G1 X157.264 Y121.496 E5.36374
G1 X157.394 Y122.451 E5.39579
G1 X157.435 Y123.124 E5.41822
G1 X157.45 Y123.781 E5.44008
G1 X157.449 Y134.916 E5.81043
G1 X157.436 Y135.656 E5.83505
G1 X157.375 Y136.629 E5.86747
G1 X157.228 Y137.592 E5.89987
G1 X156.996 Y138.538 E5.93227
G1 X156.681 Y139.46 E5.96467
G1 X156.276 Y140.371 E5.99783
G1 X155.783 Y141.354 E6.03441
G1 X154.672 Y143.641 E6.11898
G1 X153.635 Y145.94 E6.20286
G1 X152.655 Y148.287 E6.28745
G1 X152.129 Y149.591 E6.33422
G1 X151.723 Y150.475 E6.36657
G1 X151.239 Y151.321 E6.39899
G1 X150.705 Y152.093 E6.43021
G1 X150.058 Y152.868 E6.46379
G1 X149.378 Y153.551 E6.49585
G1 X148.876 Y153.985 E6.51792
G1 X147.996 Y154.696 E6.55555
G1 X145.985 Y156.367 E6.64251
G1 X144.123 Y158.009 E6.72508
G1 X142.249 Y159.755 E6.81027
G1 X140.48 Y161.499 E6.89289
G1 X138.739 Y163.317 E6.97662
G1 X137.043 Y165.191 E7.06068
G1 X135.405 Y167.108 E7.14455
G1 X133.825 Y169.062 E7.22812
G1 X132.32 Y171.041 E7.31082
G1 X130.758 Y173.218 E7.39993
G1 X130.003 Y174.302 E7.44387
G1 X129.41 Y175.074 E7.47625
G1 X128.75 Y175.791 E7.50866
G1 X128.029 Y176.447 E7.54108
G1 X127.254 Y177.035 E7.57344
G1 X126.43 Y177.554 E7.60583
G1 X125.627 Y177.968 E7.63588
G1 X124.66 Y178.361 E7.67059
G1 X123.728 Y178.645 E7.703
G1 X122.777 Y178.845 E7.73532
G1 X121.88 Y178.955 E7.76538
G1 X121.295 Y178.987 E7.78487
G1 X120.671 Y179 E7.80563
G1 X97.551 Y178.999 E8.5746
G1 X96.815 Y178.987 E8.59908
G1 X95.843 Y178.928 E8.63147
G1 X94.88 Y178.782 E8.66387
G1 X93.932 Y178.551 E8.69632
G1 X93.076 Y178.263 E8.72636
G1 X92.12 Y177.844 E8.76107
G1 X91.267 Y177.373 E8.79348
G1 X90.46 Y176.828 E8.82587
G1 X89.705 Y176.215 E8.85822
G1 X89.006 Y175.537 E8.89061
G1 X88.371 Y174.803 E8.92289
G1 X87.896 Y174.152 E8.94969
G1 X86.866 Y172.629 E9.01084
G1 X85.353 Y170.483 E9.09818
G1 X83.852 Y168.477 E9.18151
G1 X82.289 Y166.504 E9.26522
G1 X80.695 Y164.608 E9.34761
G1 X79.003 Y162.706 E9.43228
G1 X77.28 Y160.873 E9.51595
G1 X75.495 Y159.082 E9.60005
G1 X73.686 Y157.367 E9.68296
G1 X71.803 Y155.68 E9.76705
G1 X69.862 Y154.036 E9.85165
G1 X67.886 Y152.456 E9.9358
G1 X66.819 Y151.634 E9.9806
G1 X66.077 Y151.004 E10.01297
G1 X65.393 Y150.311 E10.04536
G1 X64.774 Y149.56 E10.07773
G1 X64.222 Y148.756 E10.11017
G1 X63.745 Y147.907 E10.14256
G1 X63.345 Y147.019 E10.17495
G1 X63.023 Y146.099 E10.20737
G1 X62.785 Y145.155 E10.23975
G1 X62.632 Y144.194 E10.27211
G1 X62.564 Y143.243 E10.30382
G1 X62.551 Y142.619 E10.32458
G1 X62.552 Y128.5 E10.79418
G1 X62.565 Y127.639 E10.82282
G1 X62.641 Y124.957 E10.91206
G1 X62.641 Y122.446 E10.99558
G1 X62.569 Y119.919 E11.07966
G1 X62.474 Y118.076 E11.14104
G1 X62.452 Y117.219 E11.16955
G1 X62.453 Y103.095 E11.63932
G1 X62.494 Y100.753 E11.71723
G1 X62.496 Y98.194 E11.80234
G1 X62.451 Y96.129 E11.87104
G1 X62.452 Y73.001 E12.64028
G1 X62.464 Y72.264 E12.6648
G1 X62.523 Y71.292 E12.69718
G1 X62.669 Y70.329 E12.72958
G1 X62.9 Y69.382 E12.762
G1 X63.213 Y68.461 E12.79435
G1 X63.607 Y67.569 E12.82679
G1 X64.078 Y66.716 E12.8592
G1 X64.622 Y65.91 E12.89154
G1 X65.236 Y65.153 E12.92396
G1 X65.914 Y64.455 E12.95632
M204 S2000
G0 F6000 X66.176 Y64.757
M204 S500
G1 F900 X66.888 Y64.141 E12.98764
G1 X67.774 Y63.51 E13.02381
G1 X68.422 Y63.099 E13.04934
G1 X70.621 Y61.655 E13.13683
G1 X72.703 Y60.202 E13.22128
G1 X74.701 Y58.722 E13.30398
G1 X76.715 Y57.141 E13.38914
G1 X78.65 Y55.531 E13.47286
G1 X80.552 Y53.854 E13.5572
G1 X82.415 Y52.117 E13.64192
G1 X84.173 Y50.383 E13.72405
G1 X85.952 Y48.524 E13.80963
G1 X87.642 Y46.656 E13.89341
G1 X88.624 Y45.507 E13.94368
G1 X89.061 Y45.012 E13.96564
G1 X89.727 Y44.326 E13.99744
G1 X90.436 Y43.712 E14.02864
G1 X91.197 Y43.162 E14.05987
G1 X91.973 Y42.7 E14.08991
G1 X92.851 Y42.278 E14.12231
G1 X93.73 Y41.948 E14.15353
G1 X94.634 Y41.698 E14.18473
G1 X95.562 Y41.527 E14.21611
G1 X96.715 Y41.432 E14.25459
G1 X97.322 Y41.419 E14.27479
G1 X120.299 Y41.419 E15.039
G1 X121.164 Y41.431 E15.06778
G1 X122.101 Y41.487 E15.099
G1 X123.029 Y41.626 E15.13021
G1 X123.942 Y41.847 E15.16145
G1 X124.83 Y42.147 E15.19263
G1 X125.69 Y42.525 E15.22387
G1 X126.513 Y42.978 E15.25512
G1 X127.291 Y43.501 E15.2863
G1 X128.021 Y44.091 E15.31751
G1 X128.671 Y44.718 E15.34755
G1 X129.044 Y45.13 E15.36604
G1 X129.708 Y45.904 E15.39996
G1 X131.449 Y47.879 E15.48752
G1 X133.145 Y49.697 E15.57022
G1 X134.927 Y51.501 E15.65456
G1 X136.771 Y53.265 E15.73943
G1 X138.637 Y54.953 E15.82312
G1 X140.576 Y56.607 E15.90789
G1 X142.523 Y58.178 E15.9911
G1 X144.54 Y59.712 E16.07538
G1 X146.584 Y61.177 E16.15902
G1 X148.702 Y62.607 E16.24402
G1 X149.616 Y63.188 E16.28004
G1 X150.32 Y63.65 E16.30805
G1 X151.08 Y64.201 E16.33927
G1 X151.788 Y64.816 E16.37046
G1 X152.44 Y65.491 E16.40168
G1 X153.029 Y66.222 E16.4329
G1 X153.551 Y67.002 E16.46412
G1 X154.002 Y67.825 E16.49533
G1 X154.379 Y68.684 E16.52653
G1 X154.678 Y69.574 E16.55776
G1 X154.897 Y70.487 E16.58899
G1 X155.031 Y71.38 E16.61902
G1 X155.086 Y72.18 E16.64569
G1 X155.101 Y72.828 E16.66725
G1 X155.1 Y95.919 E17.43526
G1 X155.081 Y97.248 E17.47947
G1 X155.081 Y99.86 E17.56634
G1 X155.148 Y102.543 E17.65561
G1 X155.151 Y104.025 E17.7049
G1 X155.188 Y106.62 E17.79122
G1 X155.297 Y109.185 E17.87661
G1 X155.473 Y111.67 E17.95947
G1 X155.723 Y114.199 E18.04399
G1 X156.044 Y116.707 E18.12809
G1 X156.432 Y119.182 E18.21141
G1 X156.868 Y121.55 E18.2915
G1 X156.995 Y122.475 E18.32255
G1 X157.035 Y123.133 E18.34447
G1 X157.05 Y123.781 E18.36603
G1 X157.049 Y134.909 E18.73615
G1 X157.037 Y135.632 E18.7602
G1 X156.98 Y136.569 E18.79142
G1 X156.839 Y137.497 E18.82264
G1 X156.617 Y138.409 E18.85386
G1 X156.315 Y139.298 E18.88509
G1 X155.91 Y140.209 E18.91825
G1 X155.423 Y141.179 E18.95435
G1 X154.312 Y143.466 E19.03892
G1 X153.27 Y145.775 E19.12317
G1 X152.286 Y148.133 E19.20815
G1 X151.765 Y149.425 E19.25449
G1 X151.375 Y150.277 E19.28565
G1 X150.91 Y151.093 E19.31689
G1 X150.376 Y151.865 E19.34811
G1 X149.775 Y152.586 E19.37933
G1 X149.116 Y153.248 E19.4104
G1 X148.614 Y153.682 E19.43247
G1 X147.74 Y154.388 E19.46984
G1 X145.729 Y156.06 E19.55683
G1 X143.85 Y157.716 E19.64013
G1 X141.976 Y159.462 E19.72532
G1 X140.199 Y161.214 E19.80832
G1 X138.45 Y163.04 E19.89241
G1 X136.746 Y164.923 E19.97688
G1 X135.101 Y166.848 E20.0611
G1 X133.514 Y168.811 E20.14506
G1 X131.995 Y170.808 E20.22851
G1 X130.433 Y172.985 E20.31763
G1 X129.686 Y174.059 E20.36114
G1 X129.115 Y174.804 E20.39236
G1 X128.48 Y175.496 E20.4236
G1 X127.787 Y176.129 E20.45481
G1 X127.041 Y176.697 E20.486
G1 X126.247 Y177.198 E20.51722
G1 X125.444 Y177.612 E20.54727
G1 X124.543 Y177.979 E20.57963
G1 X123.645 Y178.254 E20.61087
G1 X122.728 Y178.448 E20.64204
G1 X121.831 Y178.558 E20.6721
G1 X121.287 Y178.587 E20.69022
G1 X120.671 Y178.6 E20.71071
G1 X97.557 Y178.599 E21.47949
G1 X96.839 Y178.588 E21.50337
G1 X95.902 Y178.532 E21.53459
G1 X94.974 Y178.393 E21.5658
G1 X94.06 Y178.172 E21.59708
G1 X93.204 Y177.884 E21.62712
G1 X92.313 Y177.494 E21.65946
G1 X91.49 Y177.041 E21.69071
G1 X90.712 Y176.517 E21.72191
G1 X89.983 Y175.927 E21.7531
G1 X89.308 Y175.275 E21.78432
G1 X88.694 Y174.567 E21.81548
G1 X88.227 Y173.928 E21.84181
G1 X87.197 Y172.405 E21.90296
G1 X85.68 Y170.253 E21.99053
G1 X84.172 Y168.237 E22.07427
G1 X82.595 Y166.247 E22.15872
G1 X80.994 Y164.342 E22.24148
G1 X79.302 Y162.44 E22.32615
G1 X77.571 Y160.599 E22.4102
G1 X75.778 Y158.8 E22.49468
G1 X73.953 Y157.069 E22.57834
G1 X72.07 Y155.382 E22.66243
G1 X70.112 Y153.724 E22.74776
G1 X68.136 Y152.144 E22.83191
G1 X67.077 Y151.329 E22.87636
G1 X66.361 Y150.723 E22.90756
G1 X65.701 Y150.056 E22.93877
G1 X65.103 Y149.333 E22.96997
G1 X64.57 Y148.559 E23.00123
G1 X64.109 Y147.742 E23.03243
G1 X63.722 Y146.887 E23.06365
G1 X63.411 Y146.001 E23.09488
G1 X63.18 Y145.091 E23.1261
G1 X63.031 Y144.165 E23.1573
G1 X62.964 Y143.235 E23.18831
G1 X62.951 Y142.619 E23.2088
G1 X62.952 Y128.506 E23.6782
G1 X62.965 Y127.65 E23.70668
G1 X63.041 Y124.968 E23.79592
G1 X63.041 Y122.446 E23.8798
G1 X62.969 Y119.908 E23.96425
G1 X62.874 Y118.066 E24.02559
G1 X62.852 Y117.219 E24.05377
G1 X62.853 Y103.102 E24.52331
G1 X62.894 Y100.76 E24.60122
G1 X62.896 Y98.194 E24.68656
G1 X62.851 Y96.129 E24.75526
G1 X62.852 Y73.007 E25.5243
G1 X62.863 Y72.288 E25.54822
G1 X62.919 Y71.351 E25.57944
G1 X63.058 Y70.423 E25.61065
G1 X63.279 Y69.51 E25.64189
G1 X63.579 Y68.622 E25.67307
G1 X63.957 Y67.762 E25.70431
G1 X64.41 Y66.939 E25.73556
G1 X64.933 Y66.161 E25.76674
G1 X65.523 Y65.431 E25.79795
G1 X66.176 Y64.757 E25.82917
M204 S2000
G0 F6000 X66.438 Y65.059
M204 S500
G1 F900 X67.12 Y64.467 E25.8592
G1 X67.989 Y63.848 E25.89469
G1 X68.637 Y63.436 E25.92023
G1 X70.841 Y61.989 E26.00792
G1 X72.932 Y60.53 E26.09273
G1 X74.948 Y59.037 E26.17616
G1 X76.962 Y57.456 E26.26132
G1 X78.906 Y55.838 E26.34545
G1 X80.825 Y54.147 E26.43052
G1 X82.688 Y52.41 E26.51524
G1 X84.454 Y50.668 E26.59774
G1 X86.241 Y48.801 E26.6837
G1 X87.939 Y46.924 E26.76788
G1 X88.924 Y45.772 E26.81829
G1 X89.361 Y45.277 E26.84026
G1 X89.989 Y44.628 E26.87029
G1 X90.671 Y44.036 E26.90033
G1 X91.402 Y43.506 E26.93036
G1 X92.178 Y43.044 E26.9604
G1 X92.992 Y42.652 E26.99045
G1 X93.837 Y42.333 E27.02049
G1 X94.707 Y42.091 E27.05052
G1 X95.595 Y41.926 E27.08056
G1 X96.724 Y41.832 E27.11824
G1 X97.331 Y41.819 E27.13844
G1 X120.294 Y41.819 E27.90219
G1 X121.141 Y41.83 E27.93036
G1 X122.043 Y41.883 E27.96042
G1 X122.936 Y42.015 E27.99044
G1 X123.814 Y42.226 E28.02047
G1 X124.67 Y42.514 E28.05051
G1 X125.498 Y42.876 E28.08057
G1 X126.29 Y43.31 E28.11061
G1 X127.04 Y43.813 E28.14064
G1 X127.743 Y44.379 E28.17066
G1 X128.393 Y45.006 E28.2007
G1 X128.74 Y45.39 E28.21791
G1 X129.408 Y46.169 E28.25205
G1 X131.149 Y48.144 E28.33961
G1 X132.86 Y49.978 E28.42304
G1 X134.65 Y51.79 E28.50775
G1 X136.494 Y53.554 E28.59263
G1 X138.377 Y55.257 E28.67707
G1 X140.316 Y56.911 E28.76184
G1 X142.281 Y58.496 E28.8458
G1 X144.307 Y60.037 E28.93047
G1 X146.36 Y61.509 E29.01449
G1 X148.478 Y62.939 E29.09949
G1 X149.397 Y63.522 E29.13568
G1 X150.086 Y63.974 E29.16309
G1 X150.818 Y64.503 E29.19313
G1 X151.501 Y65.094 E29.22317
G1 X152.129 Y65.743 E29.25321
G1 X152.697 Y66.445 E29.28324
G1 X153.201 Y67.195 E29.3133
G1 X153.636 Y67.986 E29.34332
G1 X154 Y68.812 E29.37334
G1 X154.289 Y69.668 E29.40339
G1 X154.501 Y70.546 E29.43343
G1 X154.635 Y71.439 E29.46347
G1 X154.686 Y72.189 E29.48847
G1 X154.701 Y72.828 E29.50973
G1 X154.7 Y95.913 E30.27754
G1 X154.681 Y97.242 E30.32175
G1 X154.681 Y99.86 E30.40882
G1 X154.748 Y102.544 E30.49812
G1 X154.751 Y104.031 E30.54758
G1 X154.788 Y106.637 E30.63426
G1 X154.897 Y109.202 E30.71965
G1 X155.075 Y111.709 E30.80325
G1 X155.326 Y114.25 E30.88817
G1 X155.647 Y116.758 E30.97227
G1 X156.039 Y119.254 E31.0563
G1 X156.472 Y121.605 E31.13581
G1 X156.596 Y122.499 E31.16583
G1 X156.635 Y123.142 E31.18726
G1 X156.65 Y123.781 E31.20852
G1 X156.649 Y134.903 E31.57843
G1 X156.638 Y135.608 E31.60189
G1 X156.584 Y136.51 E31.63194
G1 X156.45 Y137.403 E31.66197
G1 X156.238 Y138.281 E31.69202
G1 X155.949 Y139.136 E31.72203
G1 X155.553 Y140.029 E31.75452
G1 X155.063 Y141.004 E31.79082
G1 X153.952 Y143.291 E31.87538
G1 X152.905 Y145.61 E31.96001
G1 X151.917 Y147.979 E32.04538
G1 X151.401 Y149.259 E32.09128
G1 X151.027 Y150.08 E32.12129
G1 X150.581 Y150.866 E32.15135
G1 X150.068 Y151.609 E32.18138
G1 X149.491 Y152.304 E32.21142
G1 X148.854 Y152.945 E32.24148
G1 X148.352 Y153.379 E32.26355
G1 X147.484 Y154.08 E32.30066
G1 X145.473 Y155.753 E32.38767
G1 X143.577 Y157.423 E32.4717
G1 X141.703 Y159.169 E32.55689
G1 X139.918 Y160.929 E32.64027
G1 X138.161 Y162.763 E32.72474
G1 X136.449 Y164.655 E32.80961
G1 X134.797 Y166.588 E32.89418
G1 X133.203 Y168.56 E32.97852
G1 X131.67 Y170.575 E33.06273
G1 X130.108 Y172.752 E33.15184
G1 X129.368 Y173.816 E33.19495
G1 X128.82 Y174.534 E33.22499
G1 X128.21 Y175.201 E33.25505
G1 X127.544 Y175.811 E33.28509
G1 X126.827 Y176.359 E33.31511
G1 X126.064 Y176.842 E33.34514
G1 X125.261 Y177.256 E33.37519
G1 X124.425 Y177.597 E33.40522
G1 X123.562 Y177.863 E33.43526
G1 X122.679 Y178.051 E33.46528
G1 X121.782 Y178.161 E33.49534
G1 X121.278 Y178.187 E33.51213
G1 X120.671 Y178.2 E33.53232
G1 X97.563 Y178.199 E34.3009
G1 X96.862 Y178.189 E34.32421
G1 X95.96 Y178.136 E34.35427
G1 X95.067 Y178.004 E34.38429
G1 X94.188 Y177.793 E34.41436
G1 X93.332 Y177.505 E34.44439
G1 X92.505 Y177.143 E34.47442
G1 X91.713 Y176.709 E34.50446
G1 X90.963 Y176.206 E34.53449
G1 X90.26 Y175.639 E34.56453
G1 X89.61 Y175.013 E34.59455
G1 X89.017 Y174.331 E34.62461
G1 X88.558 Y173.704 E34.65045
G1 X87.528 Y172.181 E34.7116
G1 X86.007 Y170.023 E34.79942
G1 X84.492 Y167.997 E34.88356
G1 X82.909 Y165.999 E34.96834
G1 X81.293 Y164.076 E35.05189
G1 X79.601 Y162.174 E35.13655
G1 X77.862 Y160.325 E35.22098
G1 X76.061 Y158.518 E35.30583
G1 X74.22 Y156.771 E35.39025
G1 X72.337 Y155.084 E35.47433
G1 X70.371 Y153.419 E35.56002
G1 X68.386 Y151.832 E35.64455
