;FLAVOR:Marlin
;TIME:4030
;Filament used: 2.7364m
;Layer height: 0.2
;MINX:56.868
;MINY:55.079
PRINT_START_SET MESH_MIN=56.868,55.079
;MINZ:0.2
;MAXX:163.187
;MAXY:164.92
PRINT_START_SET MESH_MAX=163.187,164.92
;MAXZ:5
;TARGET_MACHINE.NAME:Creality Ender-3 S1 Pro
;POSTPROCESSED
;Generated with Cura_SteamEngine 5.5.0
M82 ;absolute extrusion mode
M190 S0
M109 S0
_PRINT_START_PHASE_INIT EXTRUDER=230 BED=85 NOZZLE_SIZE=0.4
; Insert custom gcode here.
_PRINT_START_PHASE_PREHEAT
; Insert custom gcode here.
_PRINT_START_PHASE_PROBING
; Insert custom gcode here.
_PRINT_START_PHASE_EXTRUDER
; Insert custom gcode here.
_PRINT_START_PHASE_PURGE

; This is the place to put slicer purge lines if you haven't set a non-zero
; variable_start_purge_length to have START_PRINT automatically calculate and
; perform the purge (e.g. if using a Mosaic Palette, which requires the slicer
; to generate the purge).
G92 E0
G92 E0
G1 F2100 E-4
;LAYER_COUNT:25
INIT_LAYER_GCODE LAYERS=25
PRINT_START_SET LAYERS=25
;BEFORE_LAYER_CHANGE
;LAYER:0
BEFORE_LAYER_CHANGE LAYER=0
AFTER_LAYER_CHANGE
M107
M204 S2000
G0 F6000 X63.359 Y69.821 Z0.2
M204 S500
;TYPE:SKIRT
G1 F2100 E0
G1 F900 X64.072 Y69.171 E0.03049
G1 X64.855 Y68.519 E0.06268
G1 X65.475 Y68.042 E0.0874
G1 X66.261 Y67.496 E0.11764
G1 X67.023 Y67.015 E0.14611
G1 X67.832 Y66.552 E0.17556
G1 X68.636 Y66.139 E0.20412
G1 X69.488 Y65.745 E0.23378
G1 X70.297 Y65.414 E0.2614
G1 X70.748 Y65.247 E0.2766
G1 X71.599 Y64.961 E0.30496
G1 X72.066 Y64.821 E0.32037
G1 X72.864 Y64.607 E0.34647
G1 X75.166 Y64.041 E0.42138
G1 X77.637 Y63.364 E0.50233
G1 X79.986 Y62.643 E0.57997
G1 X82.417 Y61.824 E0.66102
G1 X84.746 Y60.965 E0.73946
G1 X87.089 Y60.024 E0.81924
G1 X89.395 Y59.021 E0.8987
G1 X90.649 Y58.434 E0.94245
G1 X90.851 Y58.35 E0.94936
G1 X92.023 Y57.8 E0.99026
G1 X92.515 Y57.584 E1.00724
G1 X93.913 Y57.021 E1.05486
G1 X94.933 Y56.651 E1.08915
G1 X95.542 Y56.446 E1.10945
G1 X96.051 Y56.297 E1.12621
G1 X97.1 Y56.014 E1.16054
G1 X98.354 Y55.724 E1.20121
G1 X99.548 Y55.498 E1.2396
G1 X101.038 Y55.283 E1.28717
G1 X101.72 Y55.205 E1.30886
G1 X102.205 Y55.168 E1.32423
G1 X103.306 Y55.107 E1.35907
G1 X104.749 Y55.079 E1.40468
G1 X105.569 Y55.091 E1.43059
G1 X106.692 Y55.154 E1.46613
G1 X107.215 Y55.201 E1.48272
G1 X108.699 Y55.38 E1.52995
G1 X109.532 Y55.509 E1.55658
G1 X109.976 Y55.589 E1.57084
G1 X111.175 Y55.828 E1.60947
G1 X111.611 Y55.924 E1.62357
G1 X146.671 Y64.473 E2.76383
G1 X147.621 Y64.719 E2.79484
G1 X148.54 Y64.987 E2.82508
G1 X149.422 Y65.287 E2.85452
G1 X150.251 Y65.611 E2.88264
G1 X150.691 Y65.799 E2.89776
G1 X151.343 Y66.103 E2.92049
G1 X151.779 Y66.327 E2.93598
G1 X152.594 Y66.769 E2.96527
G1 X153.399 Y67.251 E2.99492
G1 X154.126 Y67.732 E3.02247
G1 X154.863 Y68.265 E3.0512
G1 X155.629 Y68.871 E3.08207
G1 X156.203 Y69.359 E3.10587
G1 X156.567 Y69.691 E3.12144
G1 X156.994 Y70.106 E3.14025
G1 X157.5 Y70.635 E3.16338
G1 X158.138 Y71.347 E3.19359
G1 X158.721 Y72.054 E3.22255
G1 X159.226 Y72.725 E3.24908
G1 X159.766 Y73.515 E3.27932
G1 X160.241 Y74.277 E3.30769
G1 X160.685 Y75.061 E3.33616
G1 X161.106 Y75.884 E3.36537
G1 X161.405 Y76.524 E3.38769
G1 X161.551 Y76.863 E3.39935
G1 X161.801 Y77.498 E3.42091
G1 X162.169 Y78.556 E3.45631
G1 X162.377 Y79.225 E3.47844
G1 X162.613 Y80.123 E3.50778
G1 X162.796 Y80.969 E3.53513
G1 X162.952 Y81.873 E3.56412
G1 X163.085 Y82.984 E3.59947
G1 X163.147 Y83.683 E3.62164
G1 X163.186 Y84.592 E3.65039
G1 X163.187 Y85.412 E3.6763
G1 X163.15 Y86.296 E3.70426
G1 X163.04 Y87.467 E3.74142
G1 X162.948 Y88.165 E3.76367
G1 X162.793 Y89.06 E3.79237
G1 X162.375 Y90.982 E3.85452
G1 X161.855 Y93.545 E3.93715
G1 X161.42 Y96.051 E4.01752
G1 X161.063 Y98.516 E4.09622
G1 X160.775 Y101 E4.17523
G1 X160.552 Y103.539 E4.25576
G1 X160.409 Y106.006 E4.33384
G1 X160.332 Y108.54 E4.41395
G1 X160.325 Y111.059 E4.49354
G1 X160.391 Y113.593 E4.57364
G1 X160.528 Y116.093 E4.65275
G1 X160.734 Y118.584 E4.73172
G1 X161.013 Y121.085 E4.81124
G1 X161.364 Y123.609 E4.89176
G1 X161.772 Y126.025 E4.96918
G1 X162.378 Y129.044 E5.06647
G1 X162.796 Y130.967 E5.12865
G1 X162.952 Y131.875 E5.15776
G1 X163.085 Y132.984 E5.19305
G1 X163.147 Y133.683 E5.21523
G1 X163.186 Y134.592 E5.24398
G1 X163.187 Y135.412 E5.26989
G1 X163.15 Y136.296 E5.29784
G1 X163.04 Y137.469 E5.33507
G1 X162.948 Y138.168 E5.35735
G1 X162.792 Y139.062 E5.38602
G1 X162.607 Y139.908 E5.41338
G1 X162.37 Y140.802 E5.44261
G1 X162.164 Y141.461 E5.46442
G1 X161.744 Y142.655 E5.50442
G1 X161.439 Y143.407 E5.53006
G1 X161.094 Y144.14 E5.55565
G1 X160.671 Y144.965 E5.58495
G1 X160.231 Y145.741 E5.61314
G1 X159.76 Y146.496 E5.64125
G1 X159.236 Y147.261 E5.67055
G1 X158.715 Y147.953 E5.69792
G1 X158.104 Y148.692 E5.72822
G1 X157.398 Y149.475 E5.76153
G1 X156.851 Y150.037 E5.78631
G1 X156.536 Y150.338 E5.80008
G1 X156.01 Y150.812 E5.82245
G1 X155.593 Y151.158 E5.83957
G1 X154.745 Y151.826 E5.87368
G1 X154.06 Y152.322 E5.9004
G1 X153.397 Y152.747 E5.92529
G1 X152.453 Y153.311 E5.96003
G1 X151.728 Y153.706 E5.98612
G1 X150.947 Y154.083 E6.01352
G1 X150.518 Y154.275 E6.02837
G1 X149.666 Y154.619 E6.0574
G1 X149.015 Y154.853 E6.07926
G1 X148.512 Y155.012 E6.09593
G1 X146.976 Y155.448 E6.14638
G1 X111.952 Y163.994 E7.28551
G1 X111.125 Y164.18 E7.31229
G1 X109.982 Y164.409 E7.34912
G1 X108.715 Y164.615 E7.38968
G1 X108.273 Y164.675 E7.40378
G1 X107.445 Y164.769 E7.43011
G1 X106.939 Y164.814 E7.44616
G1 X105.639 Y164.899 E7.48732
G1 X104.824 Y164.92 E7.51308
G1 X103.511 Y164.905 E7.55457
G1 X102.671 Y164.872 E7.58114
G1 X101.613 Y164.786 E7.61468
G1 X101.072 Y164.725 E7.63188
G1 X99.936 Y164.566 E7.66812
G1 X98.757 Y164.36 E7.70594
G1 X97.497 Y164.084 E7.7467
G1 X97.071 Y163.979 E7.76056
G1 X96.065 Y163.708 E7.79348
G1 X95.47 Y163.531 E7.81309
G1 X94.978 Y163.366 E7.82949
G1 X93.922 Y162.984 E7.86497
G1 X93.484 Y162.815 E7.87981
G1 X92.33 Y162.329 E7.91937
G1 X89.613 Y161.078 E8.01388
G1 X87.266 Y160.053 E8.09481
G1 X84.907 Y159.1 E8.1752
G1 X82.58 Y158.238 E8.2536
G1 X80.199 Y157.43 E8.33305
G1 X77.763 Y156.68 E8.41359
G1 X75.346 Y156.01 E8.49284
G1 X72.436 Y155.28 E8.58763
G1 X71.901 Y155.131 E8.60518
G1 X71.024 Y154.852 E8.63426
G1 X70.169 Y154.538 E8.66304
G1 X69.3 Y154.173 E8.69282
G1 X68.494 Y153.792 E8.72099
G1 X67.642 Y153.345 E8.75139
G1 X66.912 Y152.92 E8.77808
G1 X66.082 Y152.387 E8.80925
G1 X65.729 Y152.143 E8.82281
G1 X65.168 Y151.73 E8.84482
G1 X64.732 Y151.383 E8.86243
G1 X64.019 Y150.784 E8.89185
G1 X63.334 Y150.156 E8.92122
G1 X62.679 Y149.499 E8.95053
G1 X62.041 Y148.802 E8.98039
G1 X61.379 Y148.009 E9.01303
G1 X60.873 Y147.351 E9.03925
G1 X60.352 Y146.602 E9.06808
G1 X59.855 Y145.814 E9.09752
G1 X59.397 Y145.013 E9.12667
G1 X58.988 Y144.217 E9.15495
G1 X58.59 Y143.357 E9.18489
G1 X58.256 Y142.541 E9.21275
G1 X58.09 Y142.092 E9.22788
G1 X57.806 Y141.246 E9.25607
G1 X57.665 Y140.777 E9.27155
G1 X57.441 Y139.926 E9.29935
G1 X57.338 Y139.473 E9.31403
G1 X57.193 Y138.74 E9.33764
G1 X57.11 Y138.217 E9.35437
G1 X56.991 Y137.316 E9.38309
G1 X56.907 Y136.349 E9.41376
G1 X56.868 Y135.198 E9.45015
G1 X56.869 Y134.382 E9.47593
G1 X56.901 Y133.588 E9.50104
G1 X56.981 Y132.746 E9.52777
G1 X57.115 Y131.737 E9.55993
G1 X57.256 Y130.92 E9.58612
G1 X57.595 Y129.325 E9.63765
G1 X57.878 Y128.049 E9.67894
G1 X58.351 Y125.587 E9.75816
G1 X58.763 Y123.06 E9.83906
G1 X59.093 Y120.609 E9.9172
G1 X59.361 Y118.069 E9.99791
G1 X59.556 Y115.55 E10.07774
G1 X59.676 Y113.056 E10.15663
G1 X59.728 Y110.537 E10.23624
G1 X59.708 Y107.99 E10.31672
G1 X59.618 Y105.526 E10.39463
G1 X59.452 Y102.956 E10.476
G1 X59.224 Y100.491 E10.55422
G1 X58.921 Y98.015 E10.63304
G1 X58.538 Y95.467 E10.71445
G1 X58.104 Y93.052 E10.79198
G1 X57.439 Y89.915 E10.89331
G1 X57.337 Y89.467 E10.90782
G1 X57.189 Y88.717 E10.93198
G1 X57.11 Y88.218 E10.94794
G1 X56.991 Y87.319 E10.9766
G1 X56.907 Y86.349 E11.00736
G1 X56.868 Y85.198 E11.04375
G1 X56.869 Y84.382 E11.06953
G1 X56.901 Y83.588 E11.09464
G1 X56.981 Y82.746 E11.12137
G1 X57.109 Y81.769 E11.1525
G1 X57.249 Y80.947 E11.17885
G1 X57.36 Y80.421 E11.19583
G1 X57.482 Y79.901 E11.21271
G1 X57.72 Y79.034 E11.24112
G1 X58 Y78.16 E11.27012
G1 X58.312 Y77.312 E11.29867
G1 X58.676 Y76.445 E11.32838
G1 X59.043 Y75.668 E11.35553
G1 X59.261 Y75.24 E11.37071
G1 X59.69 Y74.464 E11.39872
G1 X60.175 Y73.669 E11.42815
G1 X60.525 Y73.144 E11.44808
G1 X60.92 Y72.589 E11.46961
G1 X61.433 Y71.923 E11.49617
G1 X62.066 Y71.169 E11.52728
G1 X62.702 Y70.476 E11.557
G1 X63.359 Y69.821 E11.58631
M204 S2000
G0 F6000 X63.629 Y70.116
M204 S500
G1 F900 X64.328 Y69.478 E11.61622
G1 X65.099 Y68.836 E11.64792
G1 X65.719 Y68.359 E11.67263
G1 X66.474 Y67.834 E11.70169
G1 X67.222 Y67.362 E11.72964
G1 X68.015 Y66.908 E11.75851
G1 X68.804 Y66.502 E11.78655
G1 X69.64 Y66.115 E11.81565
G1 X70.436 Y65.789 E11.84283
G1 X70.875 Y65.626 E11.85763
G1 X71.714 Y65.344 E11.8856
G1 X72.17 Y65.207 E11.90064
G1 X72.959 Y64.995 E11.92646
G1 X75.272 Y64.427 E12.00171
G1 X77.743 Y63.749 E12.08267
G1 X80.114 Y63.022 E12.16103
G1 X82.545 Y62.203 E12.24209
G1 X84.895 Y61.336 E12.32123
G1 X87.249 Y60.391 E12.40138
G1 X89.555 Y59.388 E12.48084
G1 X90.802 Y58.803 E12.52436
G1 X91.021 Y58.712 E12.53186
G1 X92.184 Y58.166 E12.57245
G1 X92.664 Y57.955 E12.58902
G1 X94.049 Y57.397 E12.6362
G1 X95.061 Y57.03 E12.67021
G1 X95.655 Y56.83 E12.69002
G1 X96.155 Y56.683 E12.70648
G1 X97.19 Y56.404 E12.74035
G1 X98.428 Y56.117 E12.78051
G1 X99.605 Y55.894 E12.81836
G1 X101.083 Y55.68 E12.86555
G1 X101.751 Y55.604 E12.88679
G1 X102.227 Y55.567 E12.90188
G1 X103.314 Y55.507 E12.93627
G1 X104.744 Y55.479 E12.98147
G1 X105.547 Y55.49 E13.00684
G1 X106.656 Y55.552 E13.04194
G1 X107.167 Y55.598 E13.05815
G1 X108.638 Y55.775 E13.10496
G1 X109.462 Y55.903 E13.13131
G1 X109.898 Y55.981 E13.14531
G1 X111.089 Y56.219 E13.18368
G1 X111.516 Y56.313 E13.1975
G1 X146.571 Y64.86 E14.33758
G1 X147.509 Y65.103 E14.3682
G1 X148.411 Y65.366 E14.39789
G1 X149.277 Y65.66 E14.42678
G1 X150.094 Y65.979 E14.4545
G1 X150.522 Y66.162 E14.4692
G1 X151.16 Y66.459 E14.49144
G1 X151.588 Y66.679 E14.50665
G1 X152.403 Y67.121 E14.53594
G1 X153.179 Y67.585 E14.56451
G1 X153.892 Y68.056 E14.59151
G1 X154.615 Y68.579 E14.61971
G1 X155.37 Y69.176 E14.65012
G1 X155.933 Y69.655 E14.67347
G1 X156.297 Y69.987 E14.68904
G1 X156.705 Y70.382 E14.70698
G1 X157.202 Y70.902 E14.72971
G1 X157.829 Y71.601 E14.75938
G1 X158.401 Y72.295 E14.7878
G1 X158.906 Y72.966 E14.81434
G1 X159.427 Y73.727 E14.84348
G1 X159.893 Y74.474 E14.87129
G1 X160.329 Y75.243 E14.89923
G1 X160.744 Y76.054 E14.92801
G1 X161.038 Y76.682 E14.94992
G1 X161.179 Y77.01 E14.9612
G1 X161.423 Y77.629 E14.98223
G1 X161.787 Y78.675 E15.01722
G1 X161.99 Y79.327 E15.0388
G1 X162.222 Y80.208 E15.06758
G1 X162.402 Y81.037 E15.09439
G1 X162.555 Y81.921 E15.12274
G1 X162.687 Y83.019 E15.15768
G1 X162.747 Y83.7 E15.17928
G1 X162.786 Y84.592 E15.20749
G1 X162.787 Y85.395 E15.23286
G1 X162.75 Y86.279 E15.26082
G1 X162.643 Y87.415 E15.29687
G1 X162.554 Y88.097 E15.31861
G1 X162.402 Y88.975 E15.34676
G1 X161.984 Y90.897 E15.40891
G1 X161.463 Y93.465 E15.4917
G1 X161.026 Y95.983 E15.57245
G1 X160.667 Y98.459 E15.65151
G1 X160.378 Y100.954 E15.73087
G1 X160.154 Y103.504 E15.81175
G1 X160.009 Y105.994 E15.89056
G1 X159.932 Y108.528 E15.97067
G1 X159.925 Y111.058 E16.05061
G1 X159.991 Y113.603 E16.13105
G1 X160.129 Y116.126 E16.21089
G1 X160.336 Y118.628 E16.29021
G1 X160.615 Y121.129 E16.36973
G1 X160.97 Y123.676 E16.45098
G1 X161.38 Y126.104 E16.52879
G1 X161.987 Y129.129 E16.62628
G1 X162.402 Y131.035 E16.68791
G1 X162.555 Y131.923 E16.71638
G1 X162.687 Y133.019 E16.75126
G1 X162.747 Y133.7 E16.77286
G1 X162.786 Y134.592 E16.80108
G1 X162.787 Y135.395 E16.82645
G1 X162.75 Y136.279 E16.8544
G1 X162.643 Y137.417 E16.89052
G1 X162.554 Y138.099 E16.91225
G1 X162.401 Y138.977 E16.94041
G1 X162.22 Y139.806 E16.96722
G1 X161.988 Y140.683 E16.99589
G1 X161.787 Y141.328 E17.01723
G1 X161.373 Y142.505 E17.05666
G1 X161.077 Y143.237 E17.08161
G1 X160.738 Y143.958 E17.10678
G1 X160.323 Y144.768 E17.13554
G1 X159.892 Y145.529 E17.16317
G1 X159.43 Y146.27 E17.19076
G1 X158.916 Y147.02 E17.21949
G1 X158.395 Y147.712 E17.24686
G1 X157.807 Y148.424 E17.27604
G1 X157.111 Y149.196 E17.30888
G1 X156.574 Y149.748 E17.33321
G1 X156.268 Y150.041 E17.3466
G1 X155.755 Y150.504 E17.36844
G1 X155.345 Y150.844 E17.38527
G1 X154.51 Y151.502 E17.41886
G1 X153.844 Y151.985 E17.44485
G1 X153.192 Y152.404 E17.46934
G1 X152.262 Y152.96 E17.50358
G1 X151.554 Y153.346 E17.52906
G1 X150.784 Y153.718 E17.55608
G1 X150.368 Y153.904 E17.57048
G1 X149.531 Y154.243 E17.59901
G1 X148.894 Y154.472 E17.6204
G1 X148.401 Y154.628 E17.63674
G1 X147.309 Y154.944 E17.67266
G1 X146.881 Y155.059 E17.68666
G1 X111.864 Y163.604 E18.82556
G1 X111.046 Y163.788 E18.85205
G1 X109.918 Y164.014 E18.8884
G1 X108.661 Y164.219 E18.92865
G1 X108.228 Y164.278 E18.94245
G1 X107.41 Y164.371 E18.96847
G1 X106.913 Y164.415 E18.98423
G1 X105.629 Y164.499 E19.02489
G1 X104.829 Y164.52 E19.05018
G1 X103.527 Y164.505 E19.09132
G1 X102.703 Y164.473 E19.11737
G1 X101.658 Y164.389 E19.1505
G1 X101.127 Y164.329 E19.16738
G1 X100.005 Y164.172 E19.20318
G1 X98.842 Y163.969 E19.24049
G1 X97.593 Y163.696 E19.28088
G1 X97.175 Y163.593 E19.29448
G1 X96.179 Y163.325 E19.32707
G1 X95.597 Y163.152 E19.34626
G1 X95.114 Y162.99 E19.36236
G1 X94.066 Y162.611 E19.39757
G1 X93.639 Y162.446 E19.41203
G1 X92.497 Y161.966 E19.45117
G1 X89.773 Y160.711 E19.54594
G1 X87.426 Y159.686 E19.62686
G1 X85.057 Y158.729 E19.70759
G1 X82.709 Y157.859 E19.78671
G1 X80.328 Y157.051 E19.86616
G1 X77.881 Y156.298 E19.94706
G1 X75.443 Y155.622 E20.027
G1 X72.543 Y154.895 E20.12146
G1 X72.022 Y154.75 E20.13855
G1 X71.162 Y154.477 E20.16706
G1 X70.324 Y154.169 E20.19527
G1 X69.471 Y153.811 E20.2245
G1 X68.68 Y153.438 E20.25213
G1 X67.843 Y152.999 E20.282
G1 X67.128 Y152.583 E20.30813
G1 X66.309 Y152.058 E20.33887
G1 X65.966 Y151.821 E20.35205
G1 X65.417 Y151.417 E20.37358
G1 X64.989 Y151.077 E20.39086
G1 X64.289 Y150.489 E20.41974
G1 X63.617 Y149.873 E20.44855
G1 X62.974 Y149.229 E20.4773
G1 X62.348 Y148.546 E20.50657
G1 X61.696 Y147.765 E20.53872
G1 X61.19 Y147.107 E20.56495
G1 X60.69 Y146.388 E20.59262
G1 X60.202 Y145.615 E20.6215
G1 X59.753 Y144.83 E20.65008
G1 X59.351 Y144.049 E20.67783
G1 X58.96 Y143.205 E20.70722
G1 X58.631 Y142.402 E20.73464
G1 X58.469 Y141.965 E20.74937
G1 X58.189 Y141.131 E20.77717
G1 X58.052 Y140.675 E20.79221
G1 X57.831 Y139.837 E20.8196
G1 X57.73 Y139.395 E20.83392
G1 X57.588 Y138.678 E20.85702
G1 X57.507 Y138.165 E20.87343
G1 X57.388 Y137.264 E20.90214
G1 X57.307 Y136.335 E20.93161
G1 X57.268 Y135.198 E20.96756
G1 X57.269 Y134.398 E20.99283
G1 X57.301 Y133.604 E21.01794
G1 X57.378 Y132.798 E21.04352
G1 X57.509 Y131.805 E21.07517
G1 X57.647 Y131.003 E21.10089
G1 X57.985 Y129.412 E21.15228
G1 X58.271 Y128.124 E21.19397
G1 X58.744 Y125.662 E21.27318
G1 X59.158 Y123.124 E21.35444
G1 X59.491 Y120.651 E21.43328
G1 X59.759 Y118.111 E21.51398
G1 X59.955 Y115.581 E21.59416
G1 X60.076 Y113.075 E21.67344
G1 X60.128 Y110.545 E21.75339
G1 X60.108 Y107.987 E21.83422
G1 X60.018 Y105.511 E21.91251
G1 X59.851 Y102.93 E21.99423
G1 X59.622 Y100.454 E22.0728
G1 X59.317 Y97.956 E22.15232
G1 X58.934 Y95.408 E22.23373
G1 X58.498 Y92.981 E22.31164
G1 X57.83 Y89.832 E22.41336
G1 X57.729 Y89.39 E22.42768
G1 X57.584 Y88.655 E22.45135
G1 X57.507 Y88.166 E22.467
G1 X57.388 Y87.267 E22.49565
G1 X57.307 Y86.335 E22.52521
G1 X57.268 Y85.198 E22.56116
G1 X57.269 Y84.398 E22.58643
G1 X57.301 Y83.604 E22.61154
G1 X57.378 Y82.798 E22.63713
G1 X57.506 Y81.821 E22.66826
G1 X57.641 Y81.029 E22.69365
G1 X57.749 Y80.513 E22.7103
G1 X57.868 Y80.007 E22.72673
G1 X58.101 Y79.156 E22.75461
G1 X58.375 Y78.298 E22.78307
G1 X58.681 Y77.467 E22.81105
G1 X59.038 Y76.616 E22.84021
G1 X59.4 Y75.849 E22.867
G1 X59.611 Y75.434 E22.88171
G1 X60.04 Y74.658 E22.90973
G1 X60.508 Y73.891 E22.93812
G1 X60.851 Y73.376 E22.95767
G1 X61.237 Y72.833 E22.97872
G1 X61.74 Y72.18 E23.00477
G1 X62.361 Y71.439 E23.03532
G1 X62.985 Y70.759 E23.06448
G1 X63.629 Y70.116 E23.09323
M204 S2000
G0 F6000 X63.899 Y70.411
M204 S500
