;FLAVOR:Marlin
;TIME:6521
;Filament used: 3.8684m
;Layer height: 0.2
;MINX:84
;MINY:85.3
PRINT_START_SET MESH_MIN=84,85.3
;MINZ:0.2
;MAXX:134.345
;MAXY:134.699
PRINT_START_SET MESH_MAX=134.345,134.699
;MAXZ:34
;TARGET_MACHINE.NAME:Creality Ender-3 S1 Pro
;POSTPROCESSED
;Generated with Cura_SteamEngine 5.5.0
M82 ;absolute extrusion mode
M190 S0
M109 S0
_PRINT_START_PHASE_INIT EXTRUDER=230 BED=85 NOZZLE_SIZE=0.4
; Insert custom gcode here.
_PRINT_START_PHASE_PREHEAT
; Insert custom gcode here.
_PRINT_START_PHASE_PROBING
; Insert custom gcode here.
_PRINT_START_PHASE_EXTRUDER
; Insert custom gcode here.
_PRINT_START_PHASE_PURGE

; This is the place to put slicer purge lines if you haven't set a non-zero
; variable_start_purge_length to have START_PRINT automatically calculate and
; perform the purge (e.g. if using a Mosaic Palette, which requires the slicer
; to generate the purge).
G92 E0
G92 E0
G1 F2100 E-4
;LAYER_COUNT:170
INIT_LAYER_GCODE LAYERS=170
PRINT_START_SET LAYERS=170
;BEFORE_LAYER_CHANGE
;LAYER:0
BEFORE_LAYER_CHANGE LAYER=0
AFTER_LAYER_CHANGE
M107
M204 S2000
G0 F6000 X87.453 Y88.984 Z0.2
M204 S500
;TYPE:SKIRT
G1 F2100 E0
G1 F900 X88.19 Y88.347 E0.0324
G1 X88.979 Y87.779 E0.06473
G1 X89.816 Y87.281 E0.09713
G1 X90.694 Y86.86 E0.12951
G1 X91.607 Y86.518 E0.16194
G1 X92.56 Y86.254 E0.19483
G1 X93.86 Y86.038 E0.23866
G1 X96.655 Y85.757 E0.33209
G1 X98.956 Y85.464 E0.40924
G1 X99.737 Y85.392 E0.43533
G1 X101.001 Y85.332 E0.47742
G1 X102.899 Y85.3 E0.54055
G1 X104.446 Y85.302 E0.59201
G1 X105.188 Y85.314 E0.61669
G1 X106.093 Y85.365 E0.64684
G1 X107.889 Y85.557 E0.70691
G1 X110.385 Y85.774 E0.79024
G1 X112.9 Y85.918 E0.87403
G1 X115.405 Y85.992 E0.95738
G1 X117.911 Y85.996 E1.04073
G1 X120.741 Y85.917 E1.1349
G1 X121.644 Y85.932 E1.16493
G1 X122.424 Y86.003 E1.19098
G1 X122.962 Y86.074 E1.20903
G1 X123.922 Y86.245 E1.24147
G1 X124.861 Y86.499 E1.27382
G1 X125.776 Y86.836 E1.30625
G1 X126.623 Y87.236 E1.33741
G1 X127.408 Y87.688 E1.36753
G1 X127.848 Y87.968 E1.38488
G1 X128.645 Y88.528 E1.41728
G1 X129.368 Y89.137 E1.44872
G1 X130.302 Y90.106 E1.49348
G1 X130.766 Y90.661 E1.51754
G1 X131.109 Y91.096 E1.53597
G1 X131.678 Y91.886 E1.56835
G1 X132.14 Y92.661 E1.59836
G1 X132.497 Y93.375 E1.62491
G1 X132.874 Y94.264 E1.65703
G1 X133.145 Y95.067 E1.68521
G1 X133.401 Y96.009 E1.71768
G1 X133.581 Y97.03 E1.75216
G1 X134.013 Y100.422 E1.86589
G1 X134.218 Y101.82 E1.91289
G1 X134.325 Y103.131 E1.95664
G1 X134.345 Y104.291 E1.99523
G1 X134.343 Y116.025 E2.3855
G1 X134.332 Y116.708 E2.40822
G1 X134.242 Y117.925 E2.44881
G1 X134.162 Y118.52 E2.46878
G1 X133.986 Y119.477 E2.50114
G1 X133.726 Y120.415 E2.53351
G1 X133.39 Y121.316 E2.5655
G1 X133.131 Y121.883 E2.58623
G1 X132.886 Y122.379 E2.60463
G1 X132.451 Y123.171 E2.63468
G1 X131.869 Y124.036 E2.66936
G1 X131.325 Y124.712 E2.69822
G1 X130.953 Y125.135 E2.71695
G1 X130.303 Y125.813 E2.74819
G1 X129.555 Y126.467 E2.78124
G1 X129.126 Y126.792 E2.79914
G1 X128.565 Y127.195 E2.82212
G1 X127.75 Y127.726 E2.85447
G1 X126.954 Y128.152 E2.8845
G1 X125.977 Y128.565 E2.91978
G1 X124.724 Y128.945 E2.96333
G1 X122.289 Y129.516 E3.04651
G1 X119.875 Y130.15 E3.12952
G1 X117.426 Y130.868 E3.21441
G1 X115.043 Y131.64 E3.29772
G1 X112.673 Y132.483 E3.38139
G1 X108.991 Y133.934 E3.51302
G1 X108.069 Y134.248 E3.54541
G1 X107.124 Y134.479 E3.57777
G1 X106.164 Y134.626 E3.61007
G1 X105.305 Y134.686 E3.63871
G1 X104.687 Y134.699 E3.65927
G1 X102.692 Y134.698 E3.72562
G1 X100.887 Y134.666 E3.78567
G1 X99.847 Y134.619 E3.82029
G1 X99.083 Y134.552 E3.8458
G1 X96.069 Y134.182 E3.9468
G1 X93.894 Y133.967 E4.01949
G1 X92.965 Y133.831 E4.05072
G1 X91.985 Y133.599 E4.08422
G1 X91.059 Y133.29 E4.11668
G1 X90.2 Y132.916 E4.14785
G1 X89.314 Y132.433 E4.18141
G1 X88.503 Y131.894 E4.2138
G1 X87.797 Y131.33 E4.24385
G1 X87.042 Y130.607 E4.27862
G1 X86.403 Y129.873 E4.31099
G1 X85.83 Y129.084 E4.34342
G1 X85.331 Y128.249 E4.37577
G1 X84.906 Y127.372 E4.40819
G1 X84.561 Y126.461 E4.44059
G1 X84.298 Y125.523 E4.47299
G1 X84.117 Y124.555 E4.50574
G1 X84.016 Y123.376 E4.5451
G1 X84 Y122.665 E4.56875
G1 X84.001 Y112.218 E4.91622
G1 X84.011 Y111.509 E4.93981
G1 X84.011 Y108.847 E5.02834
G1 X84 Y108.014 E5.05605
G1 X84.001 Y97.522 E5.40502
G1 X84.012 Y96.798 E5.4291
G1 X84.07 Y95.825 E5.46152
G1 X84.215 Y94.862 E5.49391
G1 X84.435 Y93.949 E5.52515
G1 X84.756 Y92.993 E5.55869
G1 X85.149 Y92.102 E5.59108
G1 X85.6 Y91.28 E5.62226
G1 X86.161 Y90.441 E5.65583
G1 X86.727 Y89.737 E5.68587
G1 X87.453 Y88.984 E5.72066
M204 S2000
G0 F6000 X87.715 Y89.286
M204 S500
G1 F900 X88.424 Y88.671 E5.75188
G1 X89.184 Y88.122 E5.78306
G1 X89.99 Y87.641 E5.81428
G1 X90.835 Y87.234 E5.84548
G1 X91.714 Y86.903 E5.87672
G1 X92.626 Y86.649 E5.90821
G1 X93.926 Y86.433 E5.95204
G1 X96.706 Y86.154 E6.04496
G1 X98.993 Y85.862 E6.12165
G1 X99.756 Y85.792 E6.14713
G1 X101.008 Y85.732 E6.18882
G1 X102.898 Y85.7 E6.25169
G1 X104.44 Y85.702 E6.30298
G1 X105.165 Y85.713 E6.3271
G1 X106.051 Y85.763 E6.35661
G1 X107.847 Y85.954 E6.41668
G1 X110.36 Y86.173 E6.50058
G1 X112.888 Y86.318 E6.5848
G1 X115.393 Y86.392 E6.66815
G1 X117.921 Y86.396 E6.75224
G1 X120.734 Y86.317 E6.84583
G1 X121.637 Y86.332 E6.87587
G1 X122.372 Y86.4 E6.90042
G1 X122.893 Y86.468 E6.9179
G1 X123.818 Y86.631 E6.94914
G1 X124.723 Y86.875 E6.98031
G1 X125.605 Y87.198 E7.01155
G1 X126.452 Y87.598 E7.04271
G1 X127.194 Y88.026 E7.0712
G1 X127.619 Y88.296 E7.08795
G1 X128.387 Y88.834 E7.11913
G1 X129.11 Y89.443 E7.15057
G1 X129.995 Y90.363 E7.19303
G1 X130.452 Y90.909 E7.21672
G1 X130.785 Y91.33 E7.23457
G1 X131.334 Y92.091 E7.26578
G1 X131.796 Y92.866 E7.29579
G1 X132.129 Y93.532 E7.32055
G1 X132.495 Y94.392 E7.35164
G1 X132.759 Y95.173 E7.37906
G1 X133.007 Y96.079 E7.4103
G1 X133.184 Y97.081 E7.44415
G1 X133.617 Y100.48 E7.55811
G1 X133.819 Y101.853 E7.60427
G1 X133.926 Y103.164 E7.64802
G1 X133.945 Y104.291 E7.68551
G1 X133.943 Y116.019 E8.07558
G1 X133.933 Y116.678 E8.0975
G1 X133.843 Y117.895 E8.13809
G1 X133.769 Y118.448 E8.15665
G1 X133.6 Y119.371 E8.18786
G1 X133.351 Y120.276 E8.21908
G1 X133.026 Y121.15 E8.25009
G1 X132.772 Y121.706 E8.27042
G1 X132.535 Y122.186 E8.28823
G1 X132.1 Y122.978 E8.31828
G1 X131.557 Y123.785 E8.35063
G1 X131.024 Y124.448 E8.37892
G1 X130.664 Y124.858 E8.39707
G1 X130.014 Y125.536 E8.42831
G1 X129.313 Y126.148 E8.45926
G1 X128.893 Y126.467 E8.4768
G1 X128.346 Y126.86 E8.49921
G1 X127.561 Y127.373 E8.5304
G1 X126.765 Y127.799 E8.56042
G1 X125.861 Y128.182 E8.59308
G1 X124.608 Y128.562 E8.63663
G1 X122.187 Y129.129 E8.71933
G1 X119.762 Y129.766 E8.80272
G1 X117.303 Y130.487 E8.88795
G1 X114.92 Y131.259 E8.97126
G1 X112.539 Y132.106 E9.05532
G1 X108.861 Y133.556 E9.18681
G1 X107.973 Y133.86 E9.21803
G1 X107.063 Y134.084 E9.2492
G1 X106.136 Y134.227 E9.2804
G1 X105.296 Y134.286 E9.30841
G1 X104.687 Y134.299 E9.32867
G1 X102.699 Y134.298 E9.39479
G1 X100.905 Y134.266 E9.45446
G1 X99.882 Y134.22 E9.48852
G1 X99.132 Y134.155 E9.51356
G1 X96.118 Y133.785 E9.61456
G1 X93.952 Y133.571 E9.68695
G1 X93.023 Y133.435 E9.71818
G1 X92.111 Y133.219 E9.74935
G1 X91.219 Y132.923 E9.78061
G1 X90.36 Y132.549 E9.81177
G1 X89.535 Y132.1 E9.84301
G1 X88.753 Y131.581 E9.87423
G1 X88.047 Y131.017 E9.90428
G1 X87.343 Y130.344 E9.93668
G1 X86.726 Y129.637 E9.96789
G1 X86.173 Y128.878 E9.99912
G1 X85.691 Y128.074 E10.0303
G1 X85.28 Y127.23 E10.06152
G1 X84.946 Y126.352 E10.09277
G1 X84.691 Y125.449 E10.12398
G1 X84.516 Y124.521 E10.15539
G1 X84.415 Y123.342 E10.19474
G1 X84.4 Y122.665 E10.21727
G1 X84.401 Y112.224 E10.56453
G1 X84.411 Y111.515 E10.58812
G1 X84.411 Y108.847 E10.67686
G1 X84.4 Y108.014 E10.70456
G1 X84.401 Y97.528 E11.05333
G1 X84.411 Y96.821 E11.07685
G1 X84.466 Y95.884 E11.10807
G1 X84.604 Y94.956 E11.13927
G1 X84.824 Y94.043 E11.17051
G1 X85.122 Y93.154 E11.20169
G1 X85.5 Y92.294 E11.23294
G1 X85.951 Y91.472 E11.26412
G1 X86.473 Y90.692 E11.29534
G1 X87.039 Y89.988 E11.32538
G1 X87.715 Y89.286 E11.3578
M204 S2000
G0 F6000 X87.977 Y89.588
M204 S500
G1 F900 X88.659 Y88.995 E11.38786
G1 X89.39 Y88.465 E11.41789
G1 X90.164 Y88.001 E11.4479
G1 X90.977 Y87.608 E11.47794
G1 X91.822 Y87.288 E11.50799
G1 X92.692 Y87.044 E11.53804
G1 X93.992 Y86.828 E11.58187
G1 X96.757 Y86.551 E11.6743
G1 X99.029 Y86.26 E11.75048
G1 X99.775 Y86.192 E11.7754
G1 X101.015 Y86.132 E11.81669
G1 X102.897 Y86.1 E11.87929
G1 X104.434 Y86.102 E11.93041
G1 X105.142 Y86.112 E11.95396
G1 X106.011 Y86.161 E11.98291
G1 X107.121 Y86.273 E12.02002
G1 X107.812 Y86.353 E12.04315
G1 X110.325 Y86.571 E12.12705
G1 X112.876 Y86.718 E12.21204
G1 X115.381 Y86.792 E12.29539
G1 X117.931 Y86.796 E12.3802
G1 X120.727 Y86.717 E12.47324
G1 X121.63 Y86.732 E12.50327
G1 X122.321 Y86.797 E12.52636
G1 X122.824 Y86.862 E12.54323
G1 X123.714 Y87.017 E12.57328
G1 X124.586 Y87.251 E12.6033
G1 X125.435 Y87.56 E12.63335
G1 X126.252 Y87.944 E12.66338
G1 X126.98 Y88.364 E12.69133
G1 X127.39 Y88.624 E12.70748
G1 X128.13 Y89.141 E12.73751
G1 X128.822 Y89.721 E12.76754
G1 X129.688 Y90.62 E12.80905
G1 X130.139 Y91.158 E12.8324
G1 X130.461 Y91.564 E12.84964
G1 X130.99 Y92.296 E12.87968
G1 X131.452 Y93.071 E12.90969
G1 X131.761 Y93.689 E12.93267
G1 X132.116 Y94.52 E12.96272
G1 X132.373 Y95.279 E12.98937
G1 X132.613 Y96.149 E13.01939
G1 X132.787 Y97.132 E13.0526
G1 X133.221 Y100.538 E13.1668
G1 X133.42 Y101.886 E13.21212
G1 X133.527 Y103.197 E13.25586
G1 X133.545 Y104.291 E13.29226
G1 X133.543 Y116.013 E13.68213
G1 X133.534 Y116.648 E13.70325
G1 X133.444 Y117.865 E13.74384
G1 X133.375 Y118.377 E13.76103
G1 X133.214 Y119.266 E13.79107
G1 X132.976 Y120.137 E13.82111
G1 X132.662 Y120.984 E13.85115
G1 X132.413 Y121.529 E13.87108
G1 X132.184 Y121.993 E13.88829
G1 X131.749 Y122.785 E13.91834
G1 X131.245 Y123.534 E13.94837
G1 X130.712 Y124.197 E13.97666
G1 X130.375 Y124.582 E13.99368
G1 X129.751 Y125.235 E14.02372
G1 X129.071 Y125.829 E14.05375
G1 X128.659 Y126.142 E14.07096
G1 X128.127 Y126.525 E14.09277
G1 X127.372 Y127.02 E14.12279
G1 X126.576 Y127.446 E14.15282
G1 X125.745 Y127.799 E14.18285
G1 X124.492 Y128.179 E14.2264
G1 X122.085 Y128.742 E14.30862
G1 X119.649 Y129.382 E14.39239
G1 X117.18 Y130.106 E14.47797
G1 X114.797 Y130.878 E14.56128
G1 X112.405 Y131.729 E14.64572
G1 X108.731 Y133.178 E14.77708
G1 X107.877 Y133.472 E14.80712
G1 X107.001 Y133.689 E14.83714
G1 X106.108 Y133.828 E14.8672
G1 X105.287 Y133.886 E14.89457
G1 X104.687 Y133.899 E14.91453
G1 X102.706 Y133.898 E14.98042
G1 X100.923 Y133.866 E15.03973
G1 X99.916 Y133.821 E15.07326
G1 X99.181 Y133.758 E15.0978
G1 X96.167 Y133.388 E15.19879
G1 X94.009 Y133.175 E15.27092
G1 X93.115 Y133.046 E15.30096
G1 X92.236 Y132.839 E15.331
G1 X91.378 Y132.556 E15.36105
G1 X90.55 Y132.197 E15.39106
G1 X89.756 Y131.767 E15.42109
G1 X89.003 Y131.268 E15.45114
G1 X88.297 Y130.704 E15.48119
G1 X87.644 Y130.08 E15.51123
G1 X87.049 Y129.401 E15.54126
G1 X86.516 Y128.672 E15.5713
G1 X86.05 Y127.898 E15.60135
G1 X85.654 Y127.087 E15.63137
G1 X85.331 Y126.243 E15.66142
G1 X85.084 Y125.374 E15.69147
G1 X84.915 Y124.487 E15.7215
G1 X84.814 Y123.308 E15.76086
G1 X84.8 Y122.665 E15.78225
G1 X84.801 Y112.23 E16.12932
G1 X84.811 Y111.521 E16.1529
G1 X84.811 Y108.847 E16.24184
G1 X84.8 Y108.014 E16.26955
G1 X84.801 Y97.533 E16.61815
G1 X84.81 Y96.844 E16.64107
G1 X84.862 Y95.942 E16.67112
G1 X84.993 Y95.049 E16.70114
G1 X85.203 Y94.17 E16.7312
G1 X85.489 Y93.314 E16.76121
G1 X85.851 Y92.486 E16.79127
G1 X86.284 Y91.694 E16.82129
G1 X86.785 Y90.943 E16.85132
G1 X87.351 Y90.239 E16.88136
G1 X87.977 Y89.588 E16.9114
M204 S2000
G1 F2100 E12.9114
G0 F6000 X95.2 Y97.167
M204 S500
G1 F2100 E16.9114
G1 F900 X98.561 Y97.148 E17.02319
G1 X98.581 Y97.147 E17.02386
G1 X99.086 Y97.093 E17.04075
G1 X99.101 Y97.091 E17.04125
G1 X99.569 Y97.005 E17.05708
G1 X99.591 Y96.999 E17.05784
G1 X99.987 Y96.878 E17.07161
G1 X100.008 Y96.871 E17.07235
G1 X100.247 Y96.769 E17.08099
G1 X100.316 Y96.708 E17.08405
G1 X100.484 Y96.658 E17.08988
G1 X100.587 Y96.587 E17.09404
G1 X100.6 Y96.549 E17.09538
G1 X101.978 Y96.499 E17.14124
G1 X104.8 Y96.501 E17.2351
G1 X104.8 Y98.97 E17.31722
G1 X104.835 Y99.492 E17.33462
G1 X104.84 Y99.525 E17.33573
G1 X104.943 Y99.962 E17.35066
G1 X104.954 Y99.994 E17.35179
G1 X105.133 Y100.415 E17.367
G1 X105.151 Y100.449 E17.36828
G1 X105.384 Y100.794 E17.38213
G1 X105.411 Y100.826 E17.38352
G1 X105.763 Y101.165 E17.39978
G1 X105.791 Y101.188 E17.40098
G1 X106.127 Y101.411 E17.4144
G1 X106.158 Y101.427 E17.41556
G1 X106.51 Y101.581 E17.42833
G1 X106.537 Y101.591 E17.42929
G1 X106.842 Y101.675 E17.43981
G1 X106.862 Y101.679 E17.44049
G1 X107.157 Y101.728 E17.45044
G1 X107.175 Y101.73 E17.45104
G1 X107.746 Y101.774 E17.47009
G1 X107.763 Y101.775 E17.47066
G1 X108.092 Y101.772 E17.4816
G1 X108.116 Y101.77 E17.4824
G1 X108.57 Y101.711 E17.49763
G1 X108.586 Y101.708 E17.49817
G1 X108.882 Y101.644 E17.50824
G1 X108.9 Y101.64 E17.50885
G1 X109.25 Y101.529 E17.52107
G1 X109.278 Y101.518 E17.52207
G1 X109.638 Y101.342 E17.5354
G1 X109.661 Y101.329 E17.53627
G1 X109.973 Y101.122 E17.54873
G1 X109.995 Y101.104 E17.54967
G1 X110.29 Y100.841 E17.56282
G1 X110.308 Y100.823 E17.56366
G1 X110.55 Y100.543 E17.57597
G1 X110.565 Y100.523 E17.5768
G1 X110.779 Y100.202 E17.58964
G1 X110.788 Y100.188 E17.59019
G1 X110.987 Y99.83 E17.60381
G1 X111.01 Y99.708 E17.60794
G1 X110.976 Y99.658 E17.60995
G1 X111.772 Y98.609 E17.65375
G1 X111.805 Y98.542 E17.65624
G1 X111.808 Y98.532 E17.65658
G1 X112.231 Y98.03 E17.67842
G1 X112.802 Y97.774 E17.69923
G1 X113.7 Y97.652 E17.72937
G1 X113.771 Y97.655 E17.73173
G1 X114.031 Y97.61 E17.74051
G1 X114.116 Y97.645 E17.74357
G1 X114.47 Y97.677 E17.75539
G1 X114.487 Y97.689 E17.75608
G1 X114.556 Y97.698 E17.7584
G1 X114.977 Y97.678 E17.77241
G1 X115.022 Y97.69 E17.77396
G1 X115.369 Y97.663 E17.78554
G1 X115.457 Y97.689 E17.78859
G1 X117.546 Y97.685 E17.85807
G1 X117.599 Y97.668 E17.85992
G1 X118.212 Y97.675 E17.88031
G1 X118.233 Y97.674 E17.88101
G1 X118.761 Y97.623 E17.89866
G1 X118.774 Y97.621 E17.89909
G1 X119.217 Y97.55 E17.91402
G1 X119.232 Y97.547 E17.91452
G1 X120.129 Y97.33 E17.94522
G1 X120.14 Y97.328 E17.94559
G1 X120.77 Y97.139 E17.96747
G1 X121.07 Y97.104 E17.97751
G1 X121.467 Y97.164 E17.99087
G1 X121.796 Y97.38 E18.00396
G1 X122.306 Y98.004 E18.03076
G1 X122.41 Y98.221 E18.03877
G1 X122.48 Y98.452 E18.04679
G1 X122.599 Y99.387 E18.07814
G1 X122.601 Y99.783 E18.09131
G1 X122.528 Y100.468 E18.11423
G1 X122.527 Y100.484 E18.11476
G1 X122.514 Y100.992 E18.13166
G1 X122.515 Y101.021 E18.13263
G1 X122.574 Y101.509 E18.14898
G1 X122.577 Y101.526 E18.14955
G1 X122.632 Y101.786 E18.15839
G1 X122.636 Y101.802 E18.15894
G1 X122.747 Y102.178 E18.17198
G1 X122.751 Y102.191 E18.17243
G1 X122.929 Y102.671 E18.18946
G1 X122.934 Y102.681 E18.18983
G1 X123.063 Y102.978 E18.2006
G1 X123.145 Y103.438 E18.21614
G1 X123.144 Y106.404 E18.31479
G1 X123.098 Y106.489 E18.318
G1 X123.066 Y107.065 E18.33719
G1 X123.066 Y107.087 E18.33792
G1 X123.09 Y107.511 E18.35205
G1 X123.136 Y107.628 E18.35623
G1 X123.144 Y107.632 E18.35653
G1 X123.144 Y112.398 E18.51504
G1 X123.095 Y112.489 E18.51848
G1 X123.071 Y112.92 E18.53284
G1 X123.071 Y112.929 E18.53314
G1 X123.064 Y113.498 E18.55206
G1 X123.102 Y113.617 E18.55622
G1 X123.144 Y113.639 E18.5578
G1 X123.144 Y116.558 E18.65488
G1 X123.082 Y116.966 E18.66861
G1 X122.872 Y117.383 E18.68414
G1 X122.571 Y117.722 E18.69922
G1 X122.107 Y118.057 E18.71825
G1 X121.709 Y118.06 E18.73149
G1 X121.686 Y118.062 E18.73226
G1 X121.038 Y118.143 E18.75398
G1 X121.032 Y118.143 E18.75418
G1 X120.412 Y118.24 E18.77505
G1 X120.383 Y118.247 E18.77604
G1 X120.204 Y118.303 E18.78228
G1 X120.173 Y118.28 E18.78356
G1 X120.07 Y118.274 E18.78699
G1 X119.861 Y118.318 E18.7941
G1 X119.854 Y118.313 E18.79438
G1 X119.777 Y118.306 E18.79696
G1 X119.533 Y118.333 E18.80512
G1 X119.517 Y118.323 E18.80575
G1 X119.453 Y118.318 E18.80788
G1 X119.215 Y118.336 E18.81582
G1 X119.151 Y118.3 E18.81826
G1 X118.574 Y118.26 E18.8375
G1 X118.453 Y118.291 E18.84166
G1 X118.446 Y118.3 E18.84203
G1 X114.57 Y118.3 E18.97095
G1 X114.499 Y118.25 E18.97384
G1 X114.413 Y118.243 E18.97671
