;FLAVOR:Marlin
;TIME:3761
;Filament used: 1.66874m
;Layer height: 0.16
;MINX:88.753
;MINY:83.291
PRINT_START_SET MESH_MIN=88.753,83.291
;MINZ:0.2
;MAXX:131.318
;MAXY:136.764
PRINT_START_SET MESH_MAX=131.318,136.764
;MAXZ:14.6
;TARGET_MACHINE.NAME:Creality Ender-3 S1 Pro
;POSTPROCESSED
;Generated with Cura_SteamEngine 5.5.0
M82 ;absolute extrusion mode
M190 S0
M109 S0
_PRINT_START_PHASE_INIT EXTRUDER=230 BED=85 NOZZLE_SIZE=0.4
; Insert custom gcode here.
_PRINT_START_PHASE_PREHEAT
; Insert custom gcode here.
_PRINT_START_PHASE_PROBING
; Insert custom gcode here.
_PRINT_START_PHASE_EXTRUDER
; Insert custom gcode here.
_PRINT_START_PHASE_PURGE

; This is the place to put slicer purge lines if you haven't set a non-zero
; variable_start_purge_length to have START_PRINT automatically calculate and
; perform the purge (e.g. if using a Mosaic Palette, which requires the slicer
; to generate the purge).
G92 E0
G92 E0
G1 F2100 E-4
;LAYER_COUNT:81
INIT_LAYER_GCODE LAYERS=81
PRINT_START_SET LAYERS=81
;BEFORE_LAYER_CHANGE
;LAYER:0
BEFORE_LAYER_CHANGE LAYER=0
AFTER_LAYER_CHANGE
M107
M204 S2000
G0 F6000 X99.56 Y87.695 Z0.2
M204 S500
;TYPE:SKIRT
G1 F2100 E0
G1 F900 X100.11 Y87.125 E0.02503
G1 X101.412 Y86.008 E0.07923
G1 X102.019 Y85.57 E0.10288
G1 X103.337 Y84.775 E0.15152
G1 X104.377 Y84.273 E0.18801
G1 X105.723 Y83.764 E0.23348
G1 X107.074 Y83.362 E0.27801
G1 X108.621 Y83.308 E0.32692
G1 X108.888 Y83.329 E0.33539
G1 X109.129 Y83.308 E0.34303
G1 X111.067 Y83.291 E0.40427
G1 X111.552 Y83.339 E0.41967
G1 X112.048 Y83.333 E0.43534
G1 X113.359 Y83.477 E0.47701
G1 X115.036 Y84.011 E0.53262
G1 X115.502 Y84.197 E0.54848
G1 X116.762 Y84.806 E0.5927
G1 X117.788 Y85.414 E0.63038
G1 X118.742 Y86.1 E0.66751
G1 X119.815 Y87.018 E0.71213
G1 X120.167 Y87.384 E0.72817
G1 X120.733 Y87.506 E0.74647
G1 X122.961 Y88.601 E0.82491
G1 X124.672 Y90.014 E0.89502
G1 X126.063 Y91.814 E0.9669
G1 X127.167 Y94.271 E1.05201
G1 X127.405 Y97.053 E1.14024
G1 X127.352 Y98.871 E1.1977
G1 X127.316 Y99.076 E1.20428
G1 X127.759 Y100.147 E1.2409
G1 X127.809 Y100.508 E1.25242
G1 X128.768 Y101.687 E1.30044
G1 X129.123 Y102.203 E1.32023
G1 X129.913 Y103.57 E1.37011
G1 X130.143 Y104.046 E1.38682
G1 X130.693 Y105.432 E1.43393
G1 X131.074 Y106.636 E1.47384
G1 X131.239 Y108.375 E1.52903
G1 X131.209 Y108.663 E1.53818
G1 X131.241 Y108.963 E1.54771
G1 X131.25 Y110.956 E1.61069
G1 X131.318 Y111.333 E1.62279
G1 X131.071 Y113.45 E1.69014
G1 X130.407 Y115.335 E1.75328
G1 X130.019 Y116.214 E1.78364
G1 X129.17 Y117.701 E1.83775
G1 X128.251 Y118.978 E1.88746
G1 X127.458 Y119.871 E1.92519
G1 X127.243 Y120.072 E1.93449
G1 X127.428 Y122.279 E2.00447
G1 X127.328 Y124.257 E2.06705
G1 X126.901 Y126.607 E2.14252
G1 X125.636 Y128.77 E2.2217
G1 X124.589 Y130.161 E2.27671
G1 X122.406 Y131.717 E2.36141
G1 X120.552 Y132.525 E2.42531
G1 X120.216 Y132.609 E2.43626
G1 X119.426 Y133.355 E2.47059
G1 X118.362 Y134.214 E2.5138
G1 X117.846 Y134.569 E2.53359
G1 X116.479 Y135.359 E2.58348
G1 X116.017 Y135.583 E2.5997
G1 X114.513 Y136.179 E2.65082
G1 X113.266 Y136.57 E2.69211
G1 X111.595 Y136.654 E2.74497
G1 X111.451 Y136.647 E2.74953
G1 X111.13 Y136.683 E2.75974
G1 X109.081 Y136.698 E2.82448
G1 X108.704 Y136.764 E2.83657
G1 X106.606 Y136.514 E2.90333
G1 X104.649 Y135.827 E2.96887
G1 X103.871 Y135.483 E2.99575
G1 X102.276 Y134.572 E3.05379
G1 X101.164 Y133.772 E3.09707
G1 X100.211 Y132.933 E3.13719
G1 X98.906 Y131.501 E3.19841
G1 X98.282 Y130.65 E3.23175
G1 X97.84 Y129.949 E3.25793
G1 X97.102 Y128.543 E3.30811
G1 X96.796 Y127.818 E3.33297
G1 X96.283 Y126.145 E3.38826
G1 X96.242 Y125.952 E3.3945
G1 X96.008 Y125.799 E3.40333
G1 X93.95 Y123.593 E3.49866
G1 X92.708 Y121.196 E3.58396
G1 X92.205 Y119.267 E3.64695
G1 X91.924 Y118.948 E3.66038
G1 X91.255 Y118.044 E3.69592
G1 X90.466 Y116.75 E3.7438
G1 X89.902 Y115.591 E3.78453
G1 X89.502 Y114.549 E3.8198
G1 X89.199 Y113.526 E3.85351
G1 X88.931 Y112.248 E3.89477
G1 X88.805 Y111.234 E3.92705
G1 X88.753 Y109.579 E3.97937
G1 X88.777 Y109.075 E3.99532
G1 X88.973 Y107.516 E4.04496
G1 X89.173 Y106.556 E4.07595
G1 X89.437 Y105.648 E4.10583
G1 X89.882 Y104.456 E4.14603
G1 X90.298 Y103.562 E4.17719
G1 X90.891 Y102.509 E4.21537
G1 X91.373 Y101.781 E4.24296
G1 X92.069 Y100.877 E4.27901
G1 X92.591 Y100.291 E4.3038
G1 X93.137 Y99.74 E4.32831
G1 X94.119 Y98.875 E4.36966
G1 X94.681 Y98.452 E4.39189
G1 X95.847 Y97.7 E4.43573
G1 X95.817 Y97.124 E4.45395
G1 X95.859 Y96.196 E4.48331
G1 X96.07 Y94.671 E4.53195
G1 X96.251 Y93.83 E4.55913
G1 X96.438 Y93.154 E4.58129
G1 X96.767 Y92.206 E4.613
G1 X97.145 Y91.311 E4.6437
G1 X97.382 Y90.823 E4.66084
G1 X98.16 Y89.478 E4.70994
G1 X98.453 Y89.052 E4.72627
G1 X99.56 Y87.695 E4.78161
M204 S2000
G0 F6000 X99.848 Y87.973
M204 S500
G1 F900 X100.398 Y87.403 E4.80664
G1 X101.647 Y86.332 E4.85862
G1 X102.226 Y85.913 E4.8812
G1 X103.544 Y85.118 E4.92984
G1 X104.518 Y84.647 E4.96402
G1 X105.864 Y84.138 E5.00949
G1 X107.136 Y83.76 E5.05142
G1 X108.59 Y83.707 E5.09739
G1 X108.886 Y83.73 E5.10678
G1 X109.133 Y83.708 E5.11461
G1 X111.071 Y83.691 E5.17585
G1 X111.534 Y83.739 E5.19056
G1 X112.004 Y83.731 E5.20541
G1 X113.279 Y83.871 E5.24594
G1 X114.888 Y84.383 E5.29929
G1 X115.354 Y84.569 E5.31514
G1 X116.558 Y85.15 E5.35738
G1 X117.554 Y85.739 E5.39395
G1 X118.508 Y86.425 E5.43107
G1 X119.526 Y87.295 E5.47339
G1 X119.962 Y87.749 E5.49327
G1 X120.601 Y87.887 E5.51393
G1 X122.739 Y88.938 E5.58921
G1 X124.382 Y90.294 E5.65652
G1 X125.718 Y92.023 E5.72556
G1 X126.774 Y94.372 E5.80694
G1 X127.005 Y97.041 E5.89158
G1 X126.952 Y98.859 E5.94905
G1 X126.9 Y99.117 E5.95737
G1 X127.389 Y100.3 E5.99781
G1 X127.42 Y100.663 E6.00933
G1 X128.438 Y101.914 E6.06029
G1 X128.793 Y102.43 E6.08008
G1 X129.553 Y103.745 E6.12807
G1 X129.771 Y104.194 E6.14384
G1 X130.321 Y105.58 E6.19095
G1 X130.68 Y106.716 E6.2286
G1 X130.837 Y108.371 E6.28113
G1 X130.806 Y108.664 E6.29044
G1 X130.843 Y109.006 E6.30131
G1 X130.85 Y110.995 E6.36415
G1 X130.914 Y111.348 E6.37549
G1 X130.679 Y113.359 E6.43946
G1 X130.041 Y115.173 E6.50022
G1 X129.653 Y116.052 E6.53058
G1 X128.845 Y117.467 E6.58207
G1 X127.926 Y118.744 E6.63178
G1 X127.159 Y119.605 E6.66821
G1 X126.778 Y119.958 E6.68462
G1 X126.852 Y120.202 E6.69268
G1 X127.029 Y122.312 E6.75958
G1 X126.934 Y124.186 E6.81887
G1 X126.52 Y126.465 E6.89206
G1 X125.316 Y128.529 E6.96756
G1 X124.305 Y129.872 E7.02068
G1 X122.209 Y131.366 E7.10201
G1 X120.392 Y132.158 E7.16464
G1 X120.021 Y132.243 E7.17666
G1 X119.175 Y133.044 E7.21347
G1 X118.135 Y133.884 E7.25572
G1 X117.619 Y134.239 E7.27551
G1 X116.304 Y134.999 E7.3235
G1 X115.842 Y135.223 E7.33972
G1 X114.393 Y135.797 E7.38897
G1 X113.195 Y136.173 E7.42864
G1 X111.575 Y136.254 E7.47989
G1 X111.439 Y136.246 E7.4842
G1 X111.126 Y136.283 E7.49415
G1 X109.16 Y136.302 E7.55628
G1 X109.056 Y136.296 E7.55957
G1 X108.692 Y136.36 E7.57125
G1 X106.695 Y136.122 E7.63479
G1 X104.811 Y135.461 E7.69788
G1 X104.033 Y135.117 E7.72476
G1 X102.51 Y134.247 E7.78018
G1 X101.398 Y133.447 E7.82346
G1 X100.506 Y132.663 E7.86099
G1 X99.229 Y131.264 E7.92084
G1 X98.605 Y130.413 E7.95418
G1 X98.179 Y129.736 E7.97945
G1 X97.471 Y128.387 E8.02759
G1 X97.165 Y127.662 E8.05246
G1 X96.674 Y126.062 E8.10534
G1 X96.595 Y125.691 E8.11732
G1 X96.3 Y125.526 E8.128
G1 X94.28 Y123.361 E8.22156
G1 X93.084 Y121.052 E8.30373
G1 X92.618 Y119.265 E8.36208
G1 X92.594 Y119.102 E8.36729
G1 X92.246 Y118.71 E8.38385
G1 X91.577 Y117.806 E8.41938
G1 X90.825 Y116.574 E8.46499
G1 X90.275 Y115.448 E8.50459
G1 X89.886 Y114.435 E8.53887
G1 X89.583 Y113.412 E8.57258
G1 X89.328 Y112.198 E8.61178
G1 X89.205 Y111.221 E8.64289
G1 X89.153 Y109.598 E8.6942
G1 X89.177 Y109.094 E8.71015
G1 X89.365 Y107.598 E8.75779
G1 X89.565 Y106.638 E8.78877
G1 X89.812 Y105.788 E8.81674
G1 X90.245 Y104.625 E8.85595
G1 X90.661 Y103.731 E8.88711
G1 X91.225 Y102.73 E8.92341
G1 X91.707 Y102.002 E8.951
G1 X92.386 Y101.121 E8.98614
G1 X92.875 Y100.573 E9.00935
G1 X93.421 Y100.022 E9.03386
G1 X94.36 Y99.195 E9.0734
G1 X94.922 Y98.772 E9.09562
G1 X95.926 Y98.125 E9.13336
G1 X96.261 Y97.943 E9.14541
G1 X96.217 Y97.142 E9.17076
G1 X96.259 Y96.214 E9.20011
G1 X96.461 Y94.755 E9.24665
G1 X96.637 Y93.937 E9.27309
G1 X96.824 Y93.261 E9.29525
G1 X97.136 Y92.361 E9.32535
G1 X97.505 Y91.486 E9.35535
G1 X97.742 Y90.998 E9.37249
G1 X98.49 Y89.705 E9.41969
G1 X98.783 Y89.279 E9.43603
G1 X99.848 Y87.973 E9.48928
M204 S2000
G0 F6000 X100.136 Y88.251
M204 S500
G1 F900 X100.686 Y87.681 E9.5143
G1 X101.882 Y86.656 E9.56407
G1 X102.433 Y86.256 E9.58559
G1 X103.751 Y85.461 E9.63422
G1 X104.659 Y85.021 E9.6661
G1 X106.005 Y84.512 E9.71157
G1 X107.199 Y84.158 E9.75092
G1 X108.558 Y84.106 E9.79389
G1 X108.887 Y84.132 E9.80432
G1 X109.137 Y84.108 E9.81226
G1 X111.075 Y84.091 E9.8735
G1 X111.515 Y84.14 E9.88748
G1 X111.96 Y84.129 E9.90155
G1 X113.199 Y84.265 E9.94093
G1 X114.74 Y84.755 E9.99203
G1 X115.206 Y84.941 E10.00788
G1 X116.355 Y85.494 E10.04817
G1 X117.32 Y86.064 E10.08358
G1 X118.274 Y86.75 E10.12071
G1 X119.237 Y87.572 E10.16072
G1 X119.757 Y88.114 E10.18445
G1 X120.467 Y88.267 E10.2074
G1 X122.519 Y89.276 E10.27965
G1 X124.092 Y90.574 E10.34409
G1 X125.373 Y92.232 E10.41029
G1 X126.382 Y94.476 E10.48804
G1 X126.605 Y97.029 E10.56901
G1 X126.552 Y98.847 E10.62648
G1 X126.481 Y99.151 E10.63634
G1 X127.019 Y100.453 E10.68086
G1 X127.02 Y100.836 E10.69296
G1 X127.198 Y101.022 E10.70109
G1 X128.108 Y102.141 E10.74666
G1 X128.463 Y102.657 E10.76645
G1 X129.193 Y103.92 E10.81255
G1 X129.411 Y104.369 E10.82832
G1 X129.949 Y105.727 E10.87447
G1 X130.286 Y106.794 E10.90983
G1 X130.435 Y108.367 E10.95975
G1 X130.404 Y108.664 E10.96919
G1 X130.445 Y109.048 E10.98139
G1 X130.454 Y110.939 E11.04114
G1 X130.447 Y111.015 E11.04355
G1 X130.51 Y111.363 E11.05473
G1 X130.287 Y113.268 E11.11533
G1 X129.675 Y115.011 E11.1737
G1 X129.287 Y115.89 E11.20406
G1 X128.52 Y117.234 E11.25296
G1 X127.627 Y118.478 E11.30134
G1 X126.86 Y119.339 E11.33778
G1 X126.31 Y119.845 E11.36139
G1 X126.453 Y120.235 E11.37451
G1 X126.63 Y122.345 E11.44142
G1 X126.54 Y124.115 E11.49742
G1 X126.139 Y126.323 E11.56833
G1 X124.97 Y128.327 E11.64163
G1 X124.023 Y129.581 E11.69128
G1 X122.012 Y131.015 E11.76933
G1 X120.232 Y131.791 E11.83068
G1 X119.827 Y131.876 E11.84376
G1 X118.9 Y132.753 E11.88408
G1 X117.908 Y133.554 E11.92437
G1 X117.392 Y133.909 E11.94416
G1 X116.129 Y134.639 E11.99025
G1 X115.667 Y134.863 E12.00647
G1 X114.273 Y135.415 E12.05385
G1 X113.124 Y135.776 E12.0919
G1 X111.555 Y135.854 E12.14154
G1 X111.431 Y135.844 E12.14547
G1 X111.122 Y135.883 E12.15531
G1 X109.156 Y135.902 E12.21743
G1 X109.036 Y135.893 E12.22124
G1 X108.679 Y135.956 E12.23269
G1 X106.784 Y135.73 E12.29299
G1 X104.973 Y135.095 E12.35363
G1 X104.195 Y134.751 E12.38051
G1 X102.744 Y133.922 E12.43331
G1 X101.632 Y133.122 E12.47659
G1 X100.771 Y132.363 E12.51286
G1 X99.552 Y131.027 E12.57001
G1 X98.928 Y130.176 E12.60335
G1 X98.533 Y129.55 E12.62674
G1 X97.84 Y128.231 E12.67382
G1 X97.534 Y127.506 E12.69868
G1 X97.065 Y125.979 E12.74915
G1 X96.948 Y125.43 E12.76689
G1 X96.552 Y125.209 E12.78122
G1 X94.609 Y123.126 E12.87122
G1 X93.46 Y120.908 E12.95015
G1 X93.014 Y119.207 E13.00572
G1 X92.973 Y118.927 E13.01466
G1 X92.567 Y118.472 E13.03393
G1 X91.918 Y117.597 E13.06835
G1 X91.184 Y116.398 E13.11277
G1 X90.648 Y115.304 E13.15126
G1 X90.27 Y114.321 E13.18454
G1 X89.967 Y113.298 E13.21825
G1 X89.725 Y112.147 E13.25541
G1 X89.605 Y111.208 E13.28532
G1 X89.553 Y109.617 E13.33562
G1 X89.577 Y109.113 E13.35157
G1 X89.757 Y107.68 E13.3972
G1 X89.957 Y106.72 E13.42818
G1 X90.187 Y105.927 E13.45427
G1 X90.608 Y104.794 E13.49247
G1 X91.024 Y103.9 E13.52362
G1 X91.559 Y102.951 E13.55804
G1 X92.041 Y102.223 E13.58563
G1 X92.685 Y101.387 E13.61898
G1 X93.159 Y100.855 E13.64149
G1 X93.705 Y100.304 E13.666
G1 X94.601 Y99.515 E13.70372
G1 X95.163 Y99.092 E13.72595
G1 X96.117 Y98.477 E13.76181
G1 X96.674 Y98.175 E13.78183
G1 X96.617 Y97.16 E13.81395
G1 X96.659 Y96.232 E13.84331
G1 X96.852 Y94.839 E13.88774
G1 X97.023 Y94.044 E13.91344
G1 X97.21 Y93.368 E13.9356
G1 X97.514 Y92.492 E13.9649
G1 X97.865 Y91.661 E13.9934
G1 X98.102 Y91.173 E14.01054
G1 X98.82 Y89.932 E14.05584
G1 X99.113 Y89.506 E14.07218
G1 X100.136 Y88.251 E14.12334
M204 S2000
G0 F6000 X100.424 Y88.529
M204 S500
G1 F900 X100.974 Y87.959 E14.14837
G1 X102.117 Y86.98 E14.19592
G1 X102.668 Y86.58 E14.21743
G1 X103.926 Y85.821 E14.26386
G1 X104.801 Y85.395 E14.29461
G1 X106.119 Y84.896 E14.33914
G1 X107.266 Y84.556 E14.37694
G1 X108.526 Y84.505 E14.41678
G1 X108.891 Y84.534 E14.42835
G1 X109.141 Y84.508 E14.43629
G1 X111.079 Y84.491 E14.49753
G1 X111.501 Y84.541 E14.51096
G1 X111.916 Y84.527 E14.52408
G1 X113.119 Y84.659 E14.56232
G1 X114.592 Y85.127 E14.61115
G1 X115.058 Y85.313 E14.62701
G1 X116.181 Y85.854 E14.66639
G1 X117.087 Y86.389 E14.69964
G1 X118.015 Y87.055 E14.73573
G1 X118.948 Y87.849 E14.77444
G1 X119.552 Y88.479 E14.80202
G1 X120.333 Y88.647 E14.82726
G1 X122.299 Y89.614 E14.89649
G1 X123.802 Y90.854 E14.95805
G1 X125.028 Y92.441 E15.02142
G1 X125.99 Y94.58 E15.09553
G1 X126.205 Y97.017 E15.17283
G1 X126.153 Y98.794 E15.229
G1 X126.062 Y99.185 E15.24168
G1 X126.619 Y100.534 E15.2878
G1 X126.62 Y100.998 E15.30246
G1 X126.888 Y101.275 E15.31464
G1 X127.778 Y102.368 E15.35918
G1 X128.133 Y102.884 E15.37897
G1 X128.833 Y104.095 E15.42316
G1 X129.051 Y104.544 E15.43893
G1 X129.577 Y105.874 E15.48412
G1 X129.892 Y106.872 E15.51719
G1 X130.033 Y108.363 E15.56451
G1 X130.001 Y108.665 E15.57411
G1 X130.047 Y109.091 E15.58765
G1 X130.055 Y110.905 E15.64497
G1 X130.044 Y111.033 E15.64902
G1 X130.106 Y111.378 E15.6601
G1 X129.895 Y113.179 E15.7174
G1 X129.309 Y114.849 E15.77332
G1 X128.921 Y115.728 E15.80368
G1 X128.195 Y117.001 E15.84998
G1 X127.328 Y118.212 E15.89704
G1 X126.561 Y119.073 E15.93348
G1 X125.842 Y119.731 E15.96427
G1 X126.058 Y120.319 E15.98406
G1 X126.231 Y122.378 E16.04935
G1 X126.146 Y124.044 E16.10206
G1 X125.758 Y126.181 E16.17069
G1 X124.624 Y128.125 E16.2418
G1 X123.742 Y129.29 E16.28797
G1 X121.815 Y130.664 E16.36275
G1 X120.106 Y131.409 E16.42166
G1 X119.597 Y131.516 E16.43809
G1 X119.427 Y131.703 E16.44608
G1 X118.625 Y132.462 E16.48097
G1 X117.681 Y133.224 E16.5193
G1 X117.165 Y133.579 E16.53909
G1 X115.954 Y134.279 E16.58329
G1 X115.519 Y134.491 E16.59858
G1 X114.153 Y135.033 E16.64501
G1 X113.049 Y135.38 E16.68158
G1 X111.587 Y135.455 E16.72783
G1 X111.424 Y135.442 E16.733
G1 X111.118 Y135.483 E16.74276
G1 X109.152 Y135.502 E16.80488
G1 X109.016 Y135.49 E16.80919
G1 X108.666 Y135.552 E16.82042
G1 X106.878 Y135.339 E16.87732
G1 X105.135 Y134.729 E16.93567
G1 X104.357 Y134.385 E16.96255
G1 X102.978 Y133.597 E17.01273
G1 X101.866 Y132.797 E17.05601
G1 X101.066 Y132.093 E17.08969
G1 X99.875 Y130.79 E17.14546
G1 X99.251 Y129.939 E17.17881
G1 X98.872 Y129.337 E17.20129
G1 X98.209 Y128.075 E17.24633
G1 X97.903 Y127.35 E17.27119
G1 X97.448 Y125.862 E17.32036
G1 X97.302 Y125.17 E17.34271
G1 X96.801 Y124.89 E17.36084
G1 X94.939 Y122.894 E17.44709
G1 X93.836 Y120.765 E17.52285
G1 X93.41 Y119.149 E17.57566
G1 X93.352 Y118.75 E17.5884
G1 X92.888 Y118.233 E17.61035
G1 X92.259 Y117.388 E17.64363
G1 X91.543 Y116.222 E17.68687
G1 X91.021 Y115.16 E17.72426
G1 X90.654 Y114.207 E17.75652
G1 X90.351 Y113.184 E17.79024
G1 X90.122 Y112.095 E17.8254
G1 X90.005 Y111.195 E17.85407
G1 X89.953 Y109.636 E17.90336
G1 X89.977 Y109.132 E17.9193
G1 X90.149 Y107.762 E17.96293
G1 X90.349 Y106.802 E17.99392
G1 X90.562 Y106.066 E18.01813
G1 X90.971 Y104.963 E18.0553
G1 X91.387 Y104.069 E18.08645
G1 X91.893 Y103.172 E18.119
G1 X92.375 Y102.444 E18.14658
G1 X93.002 Y101.631 E18.17902
G1 X93.443 Y101.137 E18.19995
G1 X93.989 Y100.586 E18.22446
G1 X94.842 Y99.835 E18.26037
G1 X95.404 Y99.412 E18.28259
G1 X96.308 Y98.829 E18.31658
G1 X97.087 Y98.406 E18.34459
G1 X97.017 Y97.178 E18.38345
G1 X97.059 Y96.25 E18.41281
G1 X97.243 Y94.923 E18.45514
G1 X97.409 Y94.151 E18.48009
G1 X97.596 Y93.475 E18.50225
G1 X97.883 Y92.647 E18.52994
G1 X98.225 Y91.836 E18.55775
G1 X98.462 Y91.348 E18.57489
G1 X99.15 Y90.159 E18.6183
G1 X99.443 Y89.733 E18.63463
G1 X100.424 Y88.529 E18.6837
M204 S2000
G0 F6000 X100.712 Y88.807
