;FLAVOR:Marlin
;TIME:3972
;Filament used: 2.82648m
;Layer height: 0.2
;MINX:56.7
;MINY:75.5
PRINT_START_SET MESH_MIN=56.7,75.5
;MINZ:0.2
;MAXX:163.3
;MAXY:144.5
PRINT_START_SET MESH_MAX=163.3,144.5
;MAXZ:9.2
;TARGET_MACHINE.NAME:Creality Ender-3 S1 Pro
;POSTPROCESSED
;Generated with Cura_SteamEngine 5.5.0
M82 ;absolute extrusion mode
M190 S0
M109 S0
_PRINT_START_PHASE_INIT EXTRUDER=230 BED=85 NOZZLE_SIZE=0.4
; Insert custom gcode here.
_PRINT_START_PHASE_PREHEAT
; Insert custom gcode here.
_PRINT_START_PHASE_PROBING
; Insert custom gcode here.
_PRINT_START_PHASE_EXTRUDER
; Insert custom gcode here.
_PRINT_START_PHASE_PURGE

; This is the place to put slicer purge lines if you haven't set a non-zero
; variable_start_purge_length to have START_PRINT automatically calculate and
; perform the purge (e.g. if using a Mosaic Palette, which requires the slicer
; to generate the purge).
G92 E0
G92 E0
G1 F2100 E-4
;LAYER_COUNT:46
INIT_LAYER_GCODE LAYERS=46
PRINT_START_SET LAYERS=46
;BEFORE_LAYER_CHANGE
;LAYER:0
BEFORE_LAYER_CHANGE LAYER=0
AFTER_LAYER_CHANGE
M107
M204 S2000
G0 F6000 X62.408 Y78.236 Z0.2
M204 S500
;TYPE:SKIRT
G1 F2100 E0
G1 F900 X62.69 Y78.034 E0.01096
G1 X63.814 Y77.327 E0.05292
G1 X64.208 Y77.113 E0.06708
G1 X65.236 Y76.624 E0.10305
G1 X65.56 Y76.492 E0.11411
G1 X66.719 Y76.091 E0.15286
G1 X67.082 Y75.989 E0.16477
G1 X68.263 Y75.729 E0.20298
G1 X68.728 Y75.655 E0.21786
G1 X69.901 Y75.534 E0.25512
G1 X70.527 Y75.511 E0.27491
G1 X71.403 Y75.5 E0.3026
G1 X148.603 Y75.5 E2.74189
G1 X149.487 Y75.511 E2.76983
G1 X150.261 Y75.546 E2.79431
G1 X151.51 Y75.69 E2.83403
G1 X151.892 Y75.756 E2.84628
G1 X153.072 Y76.032 E2.88457
G1 X153.431 Y76.139 E2.89641
G1 X154.543 Y76.534 E2.9337
G1 X154.87 Y76.671 E2.9449
G1 X156.05 Y77.251 E2.98645
G1 X156.397 Y77.449 E2.99907
G1 X157.356 Y78.066 E3.0351
G1 X157.636 Y78.27 E3.04605
G1 X158.443 Y78.916 E3.07871
G1 X158.717 Y79.159 E3.09028
G1 X159.594 Y80.032 E3.12938
G1 X159.854 Y80.323 E3.14171
G1 X160.52 Y81.15 E3.17526
G1 X160.763 Y81.488 E3.18842
G1 X161.466 Y82.603 E3.23006
G1 X161.671 Y82.98 E3.24362
G1 X162.187 Y84.064 E3.28156
G1 X162.316 Y84.381 E3.29237
G1 X162.681 Y85.432 E3.32753
G1 X162.798 Y85.841 E3.34097
G1 X163.06 Y86.999 E3.37848
G1 X163.122 Y87.37 E3.39037
G1 X163.255 Y88.546 E3.42776
G1 X163.288 Y89.29 E3.45129
G1 X163.299 Y90.044 E3.47512
G1 X163.3 Y129.774 E4.73047
G1 X163.289 Y130.673 E4.75888
G1 X163.251 Y131.497 E4.78494
G1 X163.127 Y132.61 E4.82033
G1 X163.055 Y133.036 E4.83398
G1 X162.772 Y134.261 E4.87371
G1 X162.664 Y134.625 E4.8857
G1 X162.265 Y135.745 E4.92327
G1 X162.127 Y136.074 E4.93454
G1 X161.554 Y137.24 E4.9756
G1 X161.379 Y137.549 E4.98682
G1 X160.713 Y138.585 E5.02573
G1 X160.524 Y138.843 E5.03584
G1 X159.889 Y139.637 E5.06796
G1 X159.671 Y139.884 E5.07837
G1 X158.741 Y140.817 E5.11999
G1 X158.455 Y141.071 E5.13208
G1 X157.636 Y141.729 E5.16528
G1 X157.33 Y141.95 E5.1772
G1 X156.199 Y142.665 E5.21948
G1 X155.802 Y142.881 E5.23376
G1 X154.746 Y143.383 E5.27071
G1 X154.425 Y143.514 E5.28166
G1 X153.296 Y143.904 E5.3194
G1 X152.976 Y143.995 E5.32992
G1 X151.714 Y144.275 E5.37076
G1 X151.272 Y144.345 E5.3849
G1 X150.099 Y144.466 E5.42216
G1 X149.473 Y144.489 E5.44195
G1 X148.587 Y144.5 E5.46995
G1 X71.254 Y144.499 E7.91345
G1 X70.513 Y144.489 E7.93687
G1 X69.739 Y144.454 E7.96135
G1 X68.49 Y144.31 E8.00107
G1 X68.108 Y144.244 E8.01332
G1 X66.928 Y143.968 E8.05161
G1 X66.569 Y143.861 E8.06345
G1 X65.457 Y143.466 E8.10074
G1 X65.13 Y143.329 E8.11194
G1 X63.959 Y142.754 E8.15316
G1 X63.611 Y142.555 E8.16583
G1 X62.59 Y141.896 E8.20422
G1 X62.32 Y141.699 E8.21478
G1 X61.546 Y141.075 E8.2462
G1 X61.258 Y140.818 E8.2584
G1 X60.376 Y139.935 E8.29783
G1 X60.123 Y139.649 E8.30989
G1 X59.462 Y138.826 E8.34325
G1 X59.269 Y138.56 E8.35363
G1 X58.508 Y137.353 E8.39872
G1 X58.317 Y137.001 E8.41137
G1 X57.824 Y135.964 E8.44765
G1 X57.692 Y135.64 E8.45871
G1 X57.291 Y134.481 E8.49746
G1 X57.189 Y134.118 E8.50937
G1 X56.929 Y132.937 E8.54758
G1 X56.855 Y132.471 E8.56249
G1 X56.733 Y131.278 E8.60038
G1 X56.711 Y130.661 E8.61989
G1 X56.7 Y129.764 E8.64823
G1 X56.701 Y90.039 E9.90343
G1 X56.711 Y89.305 E9.92663
G1 X56.746 Y88.528 E9.9512
G1 X56.886 Y87.316 E9.98975
G1 X56.951 Y86.935 E10.00196
G1 X57.231 Y85.729 E10.04108
G1 X57.338 Y85.37 E10.05292
G1 X57.731 Y84.264 E10.09001
G1 X57.897 Y83.871 E10.10349
G1 X58.424 Y82.8 E10.1412
G1 X58.632 Y82.432 E10.15456
G1 X59.284 Y81.419 E10.19262
G1 X59.46 Y81.177 E10.20208
G1 X60.075 Y80.407 E10.23322
G1 X60.342 Y80.104 E10.24598
G1 X61.245 Y79.195 E10.28646
G1 X61.552 Y78.923 E10.29942
G1 X62.408 Y78.236 E10.3341
M204 S2000
G0 F6000 X62.642 Y78.561
M204 S500
G1 F900 X62.903 Y78.373 E10.34427
G1 X64.027 Y77.666 E10.38622
G1 X64.38 Y77.474 E10.39892
G1 X65.388 Y76.994 E10.4342
G1 X65.691 Y76.87 E10.44454
G1 X66.827 Y76.476 E10.48253
G1 X67.168 Y76.38 E10.49373
G1 X68.349 Y76.12 E10.53194
G1 X68.769 Y76.053 E10.54537
G1 X69.916 Y75.934 E10.58181
G1 X70.532 Y75.911 E10.60129
G1 X71.408 Y75.9 E10.62897
G1 X148.598 Y75.9 E13.06795
G1 X149.469 Y75.911 E13.09548
G1 X150.243 Y75.946 E13.11996
G1 X151.442 Y76.084 E13.15809
G1 X151.801 Y76.146 E13.1696
G1 X152.959 Y76.416 E13.20717
G1 X153.297 Y76.516 E13.21831
G1 X154.388 Y76.903 E13.25489
G1 X154.715 Y77.04 E13.26609
G1 X155.852 Y77.599 E13.30612
G1 X156.181 Y77.786 E13.31808
G1 X157.121 Y78.39 E13.35339
G1 X157.386 Y78.582 E13.36373
G1 X158.178 Y79.215 E13.39576
G1 X158.435 Y79.443 E13.40662
G1 X159.296 Y80.299 E13.44498
G1 X159.542 Y80.574 E13.45664
G1 X160.208 Y81.401 E13.49019
G1 X160.425 Y81.702 E13.50191
G1 X161.115 Y82.795 E13.54275
G1 X161.31 Y83.152 E13.55561
G1 X161.817 Y84.215 E13.59282
G1 X161.938 Y84.512 E13.60295
G1 X162.303 Y85.563 E13.63811
G1 X162.408 Y85.929 E13.65014
G1 X162.665 Y87.065 E13.68694
G1 X162.727 Y87.436 E13.69883
G1 X162.855 Y88.564 E13.7347
G1 X162.888 Y89.296 E13.75785
G1 X162.899 Y90.044 E13.78149
G1 X162.9 Y129.769 E15.03668
G1 X162.889 Y130.655 E15.06468
G1 X162.853 Y131.453 E15.08992
G1 X162.729 Y132.566 E15.1253
G1 X162.665 Y132.946 E15.13748
G1 X162.388 Y134.148 E15.17645
G1 X162.287 Y134.491 E15.18775
G1 X161.896 Y135.59 E15.22461
G1 X161.758 Y135.919 E15.23588
G1 X161.206 Y137.043 E15.27545
G1 X161.031 Y137.352 E15.28667
G1 X160.39 Y138.349 E15.32412
G1 X160.212 Y138.593 E15.33367
G1 X159.589 Y139.372 E15.36518
G1 X159.371 Y139.619 E15.37559
G1 X158.476 Y140.518 E15.41568
G1 X158.204 Y140.759 E15.42716
G1 X157.401 Y141.405 E15.45972
G1 X157.116 Y141.612 E15.47085
G1 X155.985 Y142.327 E15.51313
G1 X155.63 Y142.52 E15.5259
G1 X154.595 Y143.013 E15.56212
G1 X154.294 Y143.136 E15.5724
G1 X153.187 Y143.519 E15.60941
G1 X152.867 Y143.61 E15.61992
G1 X151.651 Y143.88 E15.65928
G1 X151.231 Y143.947 E15.67272
G1 X150.084 Y144.066 E15.70915
G1 X149.468 Y144.089 E15.72863
G1 X148.587 Y144.1 E15.75647
G1 X71.259 Y144.099 E18.19981
G1 X70.531 Y144.089 E18.22282
G1 X69.757 Y144.054 E18.2473
G1 X68.558 Y143.916 E18.28543
G1 X68.199 Y143.854 E18.29694
G1 X67.041 Y143.584 E18.33451
G1 X66.703 Y143.484 E18.34565
G1 X65.612 Y143.097 E18.38223
G1 X65.285 Y142.96 E18.39343
G1 X64.157 Y142.406 E18.43314
G1 X63.828 Y142.219 E18.4451
G1 X62.826 Y141.573 E18.48277
G1 X62.571 Y141.387 E18.49274
G1 X61.812 Y140.776 E18.52353
G1 X61.541 Y140.535 E18.53499
G1 X60.675 Y139.669 E18.57368
G1 X60.435 Y139.399 E18.5851
G1 X59.786 Y138.591 E18.61784
G1 X59.593 Y138.325 E18.62823
G1 X58.86 Y137.162 E18.67167
G1 X58.669 Y136.81 E18.68432
G1 X58.194 Y135.812 E18.71924
G1 X58.07 Y135.509 E18.72959
G1 X57.676 Y134.373 E18.76758
G1 X57.58 Y134.032 E18.77877
G1 X57.32 Y132.851 E18.81698
G1 X57.253 Y132.43 E18.83045
G1 X57.133 Y131.264 E18.86749
G1 X57.111 Y130.656 E18.88671
G1 X57.1 Y129.764 E18.9149
G1 X57.101 Y90.045 E20.16991
G1 X57.111 Y89.323 E20.19272
G1 X57.146 Y88.546 E20.2173
G1 X57.28 Y87.383 E20.25429
G1 X57.341 Y87.025 E20.26576
G1 X57.615 Y85.842 E20.30413
G1 X57.715 Y85.504 E20.31527
G1 X58.108 Y84.398 E20.35236
G1 X58.256 Y84.048 E20.36436
G1 X58.783 Y82.977 E20.40208
G1 X58.98 Y82.629 E20.41471
G1 X59.607 Y81.654 E20.45134
G1 X59.773 Y81.426 E20.46025
G1 X60.375 Y80.671 E20.49076
G1 X60.626 Y80.386 E20.50276
G1 X61.529 Y79.477 E20.54325
G1 X61.802 Y79.235 E20.55478
G1 X62.642 Y78.561 E20.58881
M204 S2000
G0 F6000 X62.876 Y78.886
M204 S500
G1 F900 X63.137 Y78.698 E20.59897
G1 X64.218 Y78.017 E20.63934
G1 X64.552 Y77.835 E20.65136
G1 X65.541 Y77.364 E20.68597
G1 X65.822 Y77.248 E20.69557
G1 X66.936 Y76.861 E20.73284
G1 X67.254 Y76.771 E20.74328
G1 X68.413 Y76.515 E20.78078
G1 X68.811 Y76.451 E20.79352
G1 X69.931 Y76.334 E20.8291
G1 X70.537 Y76.311 E20.84826
G1 X71.413 Y76.3 E20.87595
G1 X148.593 Y76.3 E23.31461
G1 X149.451 Y76.311 E23.34172
G1 X150.225 Y76.346 E23.36621
G1 X151.374 Y76.478 E23.40275
G1 X151.71 Y76.536 E23.41352
G1 X152.846 Y76.8 E23.45037
G1 X153.163 Y76.893 E23.46081
G1 X154.233 Y77.272 E23.49668
G1 X154.56 Y77.409 E23.50788
G1 X155.655 Y77.947 E23.54643
G1 X155.965 Y78.123 E23.55769
G1 X156.905 Y78.727 E23.593
G1 X157.136 Y78.894 E23.60201
G1 X157.913 Y79.515 E23.63343
G1 X158.153 Y79.727 E23.64355
G1 X158.998 Y80.566 E23.68118
G1 X159.23 Y80.825 E23.69216
G1 X159.896 Y81.652 E23.72572
G1 X160.087 Y81.916 E23.73601
G1 X160.764 Y82.987 E23.77605
G1 X160.949 Y83.324 E23.78819
G1 X161.447 Y84.367 E23.82471
G1 X161.56 Y84.643 E23.83414
G1 X161.925 Y85.694 E23.86929
G1 X162.018 Y86.018 E23.87994
G1 X162.271 Y87.132 E23.91604
G1 X162.33 Y87.481 E23.92722
G1 X162.455 Y88.582 E23.96223
G1 X162.488 Y89.302 E23.98501
G1 X162.499 Y90.044 E24.00845
G1 X162.5 Y129.764 E25.26349
G1 X162.489 Y130.637 E25.29108
G1 X162.455 Y131.409 E25.31549
G1 X162.331 Y132.522 E25.35088
G1 X162.275 Y132.856 E25.36158
G1 X162.004 Y134.036 E25.39984
G1 X161.91 Y134.357 E25.4104
G1 X161.527 Y135.435 E25.44655
G1 X161.389 Y135.764 E25.45783
G1 X160.858 Y136.846 E25.49591
G1 X160.683 Y137.155 E25.50713
G1 X160.066 Y138.114 E25.54316
G1 X159.9 Y138.343 E25.5521
G1 X159.289 Y139.107 E25.58301
G1 X159.071 Y139.354 E25.59342
G1 X158.21 Y140.219 E25.63198
G1 X157.953 Y140.448 E25.64286
G1 X157.166 Y141.082 E25.67479
G1 X156.902 Y141.274 E25.6851
G1 X155.793 Y141.976 E25.72658
G1 X155.458 Y142.159 E25.73864
G1 X154.443 Y142.643 E25.77417
G1 X154.163 Y142.758 E25.78373
G1 X153.078 Y143.134 E25.82001
G1 X152.758 Y143.225 E25.83053
G1 X151.587 Y143.485 E25.86843
G1 X151.189 Y143.549 E25.88117
G1 X150.069 Y143.666 E25.91675
G1 X149.463 Y143.689 E25.93591
G1 X148.587 Y143.7 E25.96359
G1 X71.265 Y143.699 E28.40674
G1 X70.549 Y143.689 E28.42937
G1 X69.775 Y143.654 E28.45385
G1 X68.626 Y143.522 E28.49039
G1 X68.29 Y143.464 E28.50117
G1 X67.154 Y143.2 E28.53802
G1 X66.837 Y143.107 E28.54846
G1 X65.767 Y142.728 E28.58432
G1 X65.44 Y142.591 E28.59553
G1 X64.354 Y142.058 E28.63375
G1 X64.045 Y141.883 E28.64497
G1 X63.062 Y141.25 E28.68191
G1 X62.822 Y141.075 E28.6913
G1 X62.063 Y140.464 E28.72209
G1 X61.824 Y140.252 E28.73218
G1 X60.974 Y139.403 E28.77014
G1 X60.747 Y139.148 E28.78093
G1 X60.11 Y138.356 E28.81304
G1 X59.917 Y138.09 E28.82343
G1 X59.211 Y136.971 E28.86523
G1 X59.03 Y136.638 E28.87721
G1 X58.564 Y135.659 E28.91147
G1 X58.448 Y135.378 E28.92107
G1 X58.061 Y134.264 E28.95834
G1 X57.971 Y133.946 E28.96878
G1 X57.715 Y132.787 E29.00628
G1 X57.651 Y132.389 E29.01902
G1 X57.533 Y131.249 E29.05523
G1 X57.511 Y130.651 E29.07414
G1 X57.5 Y129.764 E29.10217
G1 X57.501 Y90.051 E30.35699
G1 X57.511 Y89.341 E30.37942
G1 X57.546 Y88.564 E30.404
G1 X57.674 Y87.45 E30.43943
G1 X57.731 Y87.115 E30.45017
G1 X57.999 Y85.955 E30.48778
G1 X58.092 Y85.638 E30.49822
G1 X58.477 Y84.553 E30.5346
G1 X58.615 Y84.225 E30.54584
G1 X59.142 Y83.154 E30.58356
G1 X59.317 Y82.845 E30.59478
G1 X59.931 Y81.889 E30.63068
G1 X60.086 Y81.675 E30.63903
G1 X60.676 Y80.935 E30.66893
G1 X60.91 Y80.668 E30.68015
G1 X61.795 Y79.776 E30.71985
G1 X62.052 Y79.547 E30.73073
G1 X62.876 Y78.886 E30.76411
M204 S2000
G1 F2100 E26.76411
;MESH:housingback.stl
G0 F6000 X80.125 Y93.13
G0 X80.862 Y103.762
G0 X81.075 Y104.587
G0 X81.446 Y105.23
G0 X81.97 Y105.754
G0 X82.613 Y106.125
G0 X83.193 Y106.281
G0 X87.617 Y106.781
M204 S500
;TYPE:WALL-INNER
G1 F2100 E30.76411
G1 F1200 X87.014 Y106.897 E30.78351
G1 X83.607 Y106.898 E30.89116
G1 X83.275 Y106.874 E30.90168
G1 X82.603 Y106.742 E30.92332
G1 X82.005 Y106.447 E30.94439
G1 X81.627 Y106.197 E30.95871
G1 X81.297 Y105.913 E30.97247
G1 X81.003 Y105.578 E30.98655
G1 X80.748 Y105.191 E31.00119
G1 X80.452 Y104.594 E31.02225
G1 X80.307 Y103.815 E31.04728
G1 X80.3 Y93.179 E31.38335
G1 X80.456 Y92.399 E31.40849
G1 X80.75 Y91.805 E31.42943
G1 X81.003 Y91.422 E31.44393
G1 X81.292 Y91.092 E31.45779
G1 X81.627 Y90.799 E31.47185
G1 X81.999 Y90.553 E31.48595
G1 X82.433 Y90.338 E31.50125
G1 X82.783 Y90.219 E31.51293
G1 X83.38 Y90.101 E31.53216
G1 X86.793 Y90.102 E31.64
G1 X87.139 Y90.124 E31.65095
G1 X87.618 Y90.219 E31.66638
G1 X87.967 Y90.338 E31.67803
G1 X88.401 Y90.553 E31.69334
G1 X88.773 Y90.799 E31.70743
G1 X89.108 Y91.092 E31.72149
G1 X89.398 Y91.423 E31.7354
G1 X89.652 Y91.809 E31.75
G1 X89.948 Y92.407 E31.77108
G1 X90.093 Y93.191 E31.79627
G1 X90.099 Y103.803 E32.13158
G1 X89.981 Y104.419 E32.1514
G1 X89.912 Y104.666 E32.1595
G1 X89.633 Y105.22 E32.1791
G1 X89.385 Y105.593 E32.19325
G1 X89.085 Y105.926 E32.20742
G1 X88.749 Y106.215 E32.22142
G1 X88.397 Y106.446 E32.23472
G1 X87.901 Y106.693 E32.25223
G1 X87.617 Y106.781 E32.26163
M204 S2000
G0 F6000 X87.651 Y106.366
M204 S500
G1 F1200 X86.945 Y106.497 E32.28431
G1 X83.632 Y106.499 E32.389
G1 X83.319 Y106.479 E32.39891
G1 X82.734 Y106.362 E32.41776
G1 X82.257 Y106.129 E32.43453
G1 X81.869 Y105.879 E32.44911
G1 X81.624 Y105.666 E32.45937
G1 X81.32 Y105.335 E32.47357
G1 X81.071 Y104.942 E32.48827
G1 X80.837 Y104.468 E32.50498
G1 X80.701 Y103.78 E32.52713
G1 X80.704 Y93.228 E32.86055
G1 X80.836 Y92.534 E32.88287
G1 X81.071 Y92.057 E32.89967
G1 X81.323 Y91.661 E32.9145
G1 X81.624 Y91.333 E32.92857
G1 X81.867 Y91.119 E32.9388
G1 X82.151 Y90.932 E32.94954
G1 X82.61 Y90.696 E32.96585
G1 X82.861 Y90.611 E32.97422
G1 X83.419 Y90.501 E32.9922
G1 X86.768 Y90.501 E33.09801
G1 X87.152 Y90.534 E33.11019
G1 X87.54 Y90.612 E33.1227
G1 X87.79 Y90.696 E33.13103
G1 X88.249 Y90.932 E33.14734
G1 X88.541 Y91.124 E33.15838
G1 X88.867 Y91.424 E33.17238
G1 X89.083 Y91.669 E33.1827
G1 X89.329 Y92.058 E33.19724
G1 X89.566 Y92.538 E33.21416
G1 X89.695 Y93.228 E33.23634
G1 X89.7 Y103.778 E33.56969
G1 X89.56 Y104.474 E33.59212
G1 X89.29 Y105.014 E33.61119
G1 X89.065 Y105.349 E33.62395
G1 X88.808 Y105.637 E33.63614
G1 X88.55 Y105.864 E33.647
G1 X88.197 Y106.099 E33.6604
G1 X87.651 Y106.366 E33.6796
M204 S2000
G0 F6000 X87.535 Y105.982
M204 S500
G1 F1200 X86.919 Y106.098 E33.69941
G1 X83.658 Y106.099 E33.80245
G1 X83.371 Y106.08 E33.81154
G1 X82.861 Y105.98 E33.82796
G1 X82.403 Y105.753 E33.84411
G1 X82.112 Y105.561 E33.85512
G1 X81.888 Y105.366 E33.86451
G1 X81.616 Y105.055 E33.87756
G1 X81.43 Y104.764 E33.88848
G1 X81.224 Y104.338 E33.90343
G1 X81.103 Y103.737 E33.9228
G1 X81.102 Y93.265 E34.25368
G1 X81.223 Y92.664 E34.27305
G1 X81.467 Y92.171 E34.29044
G1 X81.666 Y91.879 E34.3016
G1 X81.888 Y91.634 E34.31205
G1 X82.145 Y91.415 E34.32272
G1 X82.371 Y91.266 E34.33127
G1 X82.857 Y91.02 E34.34848
G1 X83.457 Y90.901 E34.36781
G1 X86.742 Y90.9 E34.4716
G1 X86.995 Y90.916 E34.47961
G1 X87.54 Y91.019 E34.49714
G1 X88.029 Y91.266 E34.51445
G1 X88.255 Y91.415 E34.523
G1 X88.512 Y91.634 E34.53367
G1 X88.784 Y91.945 E34.54673
G1 X88.97 Y92.236 E34.55764
G1 X89.177 Y92.666 E34.57272
G1 X89.297 Y93.266 E34.59205
G1 X89.3 Y103.739 E34.92297
G1 X89.179 Y104.343 E34.94243
G1 X88.947 Y104.808 E34.95885
G1 X88.769 Y105.077 E34.96905
G1 X88.549 Y105.33 E34.97964
G1 X88.3 Y105.552 E34.99018
G1 X87.998 Y105.753 E35.00164
G1 X87.535 Y105.982 E35.01796
M204 S2000
G1 F2100 E31.01796
G0 F6000 X87.623 Y106.244
G0 X88.855 Y106.362
G0 X88.855 Y131.9
G0 X149.422 Y132.1
M204 S500
G1 F2100 E35.01796
G1 F1200 X149.844 Y132.002 E35.03165
G1 X150.146 Y131.855 E35.04226
G1 X150.429 Y131.629 E35.05371
G1 X150.655 Y131.346 E35.06515
G1 X150.802 Y131.044 E35.07576
G1 X150.9 Y130.622 E35.08945
