;FLAVOR:Marlin
;TIME:12987
;Filament used: 10.4624m
;Layer height: 0.2
;MINX:14.501
;MINY:61.75
PRINT_START_SET MESH_MIN=14.501,61.75
;MINZ:0.2
;MAXX:205.499
;MAXY:158.249
PRINT_START_SET MESH_MAX=205.499,158.249
;MAXZ:14.8
;TARGET_MACHINE.NAME:Creality Ender-3 S1 Pro
;POSTPROCESSED
;Generated with Cura_SteamEngine 5.5.0
M82 ;absolute extrusion mode
M190 S0
M109 S0
_PRINT_START_PHASE_INIT EXTRUDER=230 BED=85 NOZZLE_SIZE=0.4
; Insert custom gcode here.
_PRINT_START_PHASE_PREHEAT
; Insert custom gcode here.
_PRINT_START_PHASE_PROBING
; Insert custom gcode here.
_PRINT_START_PHASE_EXTRUDER
; Insert custom gcode here.
_PRINT_START_PHASE_PURGE

; This is the place to put slicer purge lines if you haven't set a non-zero
; variable_start_purge_length to have START_PRINT automatically calculate and
; perform the purge (e.g. if using a Mosaic Palette, which requires the slicer
; to generate the purge).
G92 E0
G92 E0
G1 F2100 E-4
;LAYER_COUNT:74
INIT_LAYER_GCODE LAYERS=74
PRINT_START_SET LAYERS=74
;BEFORE_LAYER_CHANGE
;LAYER:0
BEFORE_LAYER_CHANGE LAYER=0
AFTER_LAYER_CHANGE
M107
M204 S2000
G0 F6000 X25.272 Y62.649 Z0.2
M204 S500
;TYPE:SKIRT
G1 F2100 E0
G1 F900 X24.051 Y63.128 E0.04144
G1 X23.501 Y63.383 E0.0606
G1 X22.363 Y63.996 E0.10144
G1 X21.819 Y64.332 E0.12164
G1 X20.742 Y65.095 E0.16335
G1 X20.203 Y65.529 E0.18521
G1 X19.207 Y66.441 E0.22788
G1 X18.801 Y66.862 E0.24636
G1 X18.016 Y67.774 E0.28439
G1 X17.63 Y68.275 E0.30437
G1 X16.884 Y69.383 E0.34658
G1 X16.564 Y69.928 E0.36654
G1 X15.999 Y71.035 E0.40582
G1 X15.722 Y71.667 E0.42762
G1 X15.294 Y72.825 E0.46663
G1 X15.15 Y73.297 E0.48222
G1 X14.928 Y74.137 E0.50967
G1 X14.77 Y74.928 E0.53516
G1 X14.683 Y75.457 E0.5521
G1 X14.579 Y76.322 E0.57963
G1 X14.522 Y77.275 E0.60979
G1 X14.502 Y78.235 E0.64013
G1 X14.501 Y141.583 E2.64175
G1 X14.515 Y142.499 E2.67069
G1 X14.542 Y143.118 E2.69027
G1 X14.588 Y143.736 E2.70985
G1 X14.765 Y145.035 E2.75128
G1 X14.892 Y145.678 E2.77199
G1 X15.204 Y146.876 E2.8111
G1 X15.399 Y147.478 E2.8311
G1 X15.878 Y148.698 E2.87251
G1 X16.132 Y149.246 E2.89159
G1 X16.743 Y150.382 E2.93235
G1 X17.08 Y150.928 E2.95262
G1 X17.845 Y152.008 E2.99444
G1 X18.263 Y152.528 E3.01552
G1 X19.163 Y153.515 E3.05773
G1 X19.582 Y153.922 E3.07619
G1 X20.337 Y154.59 E3.10804
G1 X20.715 Y154.893 E3.12335
G1 X21.707 Y155.604 E3.16191
G1 X22.263 Y155.946 E3.18254
G1 X22.759 Y156.232 E3.20063
G1 X23.681 Y156.705 E3.23337
G1 X24.204 Y156.942 E3.25151
G1 X25.537 Y157.442 E3.2965
G1 X26.132 Y157.622 E3.31614
G1 X27.013 Y157.848 E3.34488
G1 X27.405 Y157.931 E3.35754
G1 X28.208 Y158.073 E3.3833
G1 X29.258 Y158.184 E3.41667
G1 X30.002 Y158.224 E3.44021
G1 X31.029 Y158.249 E3.47267
G1 X188.881 Y158.249 E8.46034
G1 X189.753 Y158.235 E8.48789
G1 X190.364 Y158.208 E8.50722
G1 X190.983 Y158.162 E8.52683
G1 X192.285 Y157.985 E8.56835
G1 X192.928 Y157.858 E8.58906
G1 X194.126 Y157.546 E8.62817
G1 X194.728 Y157.351 E8.64817
G1 X195.949 Y156.872 E8.68961
G1 X196.499 Y156.617 E8.70877
G1 X197.637 Y156.004 E8.74961
G1 X198.181 Y155.668 E8.76981
G1 X199.258 Y154.905 E8.81152
G1 X199.778 Y154.487 E8.8326
G1 X200.765 Y153.587 E8.8748
G1 X201.174 Y153.166 E8.89335
G1 X201.847 Y152.406 E8.92542
G1 X202.148 Y152.03 E8.94064
G1 X202.862 Y151.028 E8.97952
G1 X203.2 Y150.479 E8.99989
G1 X203.46 Y150.031 E9.01626
G1 X204.003 Y148.963 E9.05411
G1 X204.27 Y148.354 E9.07512
G1 X204.706 Y147.175 E9.11484
G1 X204.85 Y146.703 E9.13044
G1 X205.072 Y145.863 E9.15789
G1 X205.23 Y145.072 E9.18338
G1 X205.317 Y144.543 E9.20031
G1 X205.44 Y143.405 E9.23648
G1 X205.475 Y142.731 E9.25781
G1 X205.499 Y141.721 E9.28973
G1 X205.499 Y78.345 E11.29223
G1 X205.485 Y77.483 E11.31947
G1 X205.457 Y76.86 E11.33917
G1 X205.411 Y76.251 E11.35847
G1 X205.234 Y74.957 E11.39974
G1 X205.107 Y74.316 E11.42039
G1 X204.796 Y73.123 E11.45934
G1 X204.6 Y72.518 E11.47944
G1 X204.127 Y71.313 E11.52034
G1 X203.864 Y70.745 E11.54012
G1 X203.254 Y69.613 E11.58075
G1 X202.918 Y69.069 E11.60095
G1 X202.155 Y67.992 E11.64265
G1 X201.737 Y67.472 E11.66374
G1 X200.837 Y66.485 E11.70594
G1 X200.416 Y66.076 E11.72449
G1 X199.656 Y65.403 E11.75656
G1 X199.28 Y65.102 E11.77178
G1 X198.339 Y64.428 E11.80835
G1 X197.735 Y64.054 E11.8308
G1 X197.272 Y63.785 E11.84772
G1 X196.301 Y63.287 E11.8822
G1 X195.777 Y63.05 E11.90037
G1 X194.623 Y62.609 E11.93941
G1 X194.068 Y62.433 E11.9578
G1 X193.319 Y62.226 E11.98236
G1 X192.505 Y62.051 E12.00867
G1 X192.036 Y61.967 E12.02372
G1 X190.697 Y61.812 E12.06631
G1 X189.595 Y61.76 E12.10117
G1 X188.811 Y61.75 E12.12594
G1 X31.131 Y61.751 E17.10818
G1 X30.247 Y61.765 E17.13612
G1 X29.636 Y61.792 E17.15544
G1 X29.017 Y61.838 E17.17505
G1 X27.715 Y62.015 E17.21657
G1 X27.072 Y62.142 E17.23728
G1 X25.874 Y62.454 E17.2764
G1 X25.272 Y62.649 E17.29639
M204 S2000
G0 F6000 X25.396 Y63.029
M204 S500
G1 F900 X25.975 Y62.841 E17.31563
G1 X27.15 Y62.534 E17.354
G1 X27.769 Y62.411 E17.37394
G1 X29.047 Y62.237 E17.41469
G1 X29.654 Y62.192 E17.43393
G1 X30.253 Y62.165 E17.45287
G1 X31.131 Y62.151 E17.48062
G1 X188.806 Y62.15 E22.46269
G1 X189.576 Y62.16 E22.48703
G1 X190.678 Y62.212 E22.52188
G1 X191.966 Y62.361 E22.56285
G1 X192.421 Y62.442 E22.57746
G1 X193.213 Y62.612 E22.60305
G1 X193.947 Y62.814 E22.62711
G1 X194.48 Y62.983 E22.64477
G1 X195.613 Y63.415 E22.68309
G1 X196.119 Y63.643 E22.70062
G1 X197.071 Y64.131 E22.73443
G1 X197.525 Y64.394 E22.751
G1 X198.106 Y64.753 E22.77258
G1 X199.03 Y65.414 E22.80848
G1 X199.391 Y65.703 E22.82309
G1 X200.137 Y66.363 E22.85456
G1 X200.558 Y66.772 E22.87311
G1 X201.425 Y67.723 E22.91377
G1 X201.843 Y68.243 E22.93485
G1 X202.578 Y69.28 E22.97502
G1 X202.902 Y69.803 E22.99445
G1 X203.501 Y70.913 E23.03431
G1 X203.764 Y71.481 E23.05409
G1 X204.22 Y72.642 E23.0935
G1 X204.409 Y73.224 E23.11283
G1 X204.715 Y74.394 E23.15105
G1 X204.838 Y75.011 E23.17092
G1 X205.012 Y76.281 E23.21143
G1 X205.057 Y76.878 E23.23034
G1 X205.085 Y77.489 E23.24967
G1 X205.099 Y78.351 E23.27691
G1 X205.099 Y141.712 E25.27894
G1 X205.076 Y142.71 E25.31048
G1 X205.042 Y143.362 E25.33111
G1 X204.922 Y144.479 E25.36661
G1 X204.838 Y144.994 E25.38309
G1 X204.685 Y145.761 E25.40781
G1 X204.467 Y146.586 E25.43477
G1 X204.323 Y147.058 E25.45036
G1 X203.903 Y148.194 E25.48863
G1 X203.646 Y148.782 E25.50891
G1 X203.114 Y149.83 E25.54604
G1 X202.859 Y150.269 E25.56208
G1 X202.521 Y150.818 E25.58245
G1 X201.836 Y151.78 E25.61977
G1 X201.547 Y152.141 E25.63438
G1 X200.887 Y152.887 E25.66585
G1 X200.478 Y153.308 E25.6844
G1 X199.527 Y154.175 E25.72506
G1 X199.007 Y154.593 E25.74614
G1 X197.97 Y155.328 E25.7863
G1 X197.447 Y155.652 E25.80574
G1 X196.331 Y156.254 E25.84581
G1 X195.781 Y156.509 E25.86496
G1 X194.604 Y156.971 E25.90492
G1 X194.025 Y157.159 E25.92415
G1 X192.85 Y157.466 E25.96252
G1 X192.231 Y157.589 E25.98247
G1 X190.953 Y157.763 E26.02322
G1 X190.346 Y157.808 E26.04245
G1 X189.747 Y157.835 E26.0614
G1 X188.875 Y157.849 E26.08895
G1 X31.038 Y157.849 E31.07615
G1 X30.024 Y157.825 E31.1082
G1 X29.3 Y157.786 E31.13111
G1 X28.25 Y157.675 E31.16447
G1 X27.488 Y157.54 E31.18892
G1 X27.112 Y157.46 E31.20107
G1 X26.248 Y157.239 E31.22925
G1 X25.653 Y157.059 E31.24889
G1 X24.369 Y156.577 E31.29222
G1 X23.864 Y156.349 E31.30973
G1 X22.942 Y155.876 E31.34247
G1 X22.473 Y155.605 E31.35959
G1 X21.917 Y155.263 E31.38021
G1 X20.965 Y154.581 E31.41722
G1 X20.602 Y154.29 E31.43192
G1 X19.861 Y153.635 E31.46317
G1 X19.442 Y153.228 E31.48162
G1 X18.575 Y152.277 E31.52228
G1 X18.157 Y151.757 E31.54337
G1 X17.42 Y150.717 E31.58364
G1 X17.095 Y150.192 E31.60315
G1 X16.495 Y149.078 E31.64313
G1 X16.241 Y148.53 E31.66222
G1 X15.779 Y147.354 E31.70214
G1 X15.591 Y146.775 E31.72137
G1 X15.284 Y145.6 E31.75975
G1 X15.161 Y144.981 E31.77969
G1 X14.987 Y143.706 E31.82035
G1 X14.942 Y143.1 E31.83955
G1 X14.915 Y142.493 E31.85875
G1 X14.901 Y141.583 E31.8875
G1 X14.902 Y78.243 E33.88887
G1 X14.921 Y77.299 E33.9187
G1 X14.976 Y76.37 E33.9481
G1 X15.078 Y75.521 E33.97512
G1 X15.162 Y75.006 E33.99161
G1 X15.315 Y74.239 E34.01632
G1 X15.533 Y73.414 E34.04329
G1 X15.677 Y72.942 E34.05888
G1 X16.097 Y71.806 E34.09715
G1 X16.355 Y71.217 E34.11746
G1 X16.909 Y70.131 E34.15599
G1 X17.229 Y69.586 E34.17596
G1 X17.947 Y68.519 E34.21659
G1 X18.319 Y68.035 E34.23588
G1 X19.089 Y67.14 E34.27319
G1 X19.495 Y66.719 E34.29167
G1 X20.454 Y65.841 E34.33275
G1 X20.993 Y65.407 E34.35461
G1 X22.03 Y64.672 E34.39478
G1 X22.553 Y64.348 E34.41422
G1 X23.669 Y63.746 E34.45428
G1 X24.219 Y63.491 E34.47344
G1 X25.396 Y63.029 E34.51339
M204 S2000
G0 F6000 X25.52 Y63.409
M204 S500
G1 F900 X26.076 Y63.228 E34.53186
G1 X27.229 Y62.926 E34.56952
G1 X27.823 Y62.807 E34.58867
G1 X29.076 Y62.636 E34.62862
G1 X29.672 Y62.592 E34.64751
G1 X30.259 Y62.565 E34.66607
G1 X31.131 Y62.551 E34.69363
G1 X188.801 Y62.55 E39.67555
G1 X189.557 Y62.56 E39.69944
G1 X190.659 Y62.612 E39.7343
G1 X191.896 Y62.755 E39.77364
G1 X192.351 Y62.836 E39.78825
G1 X193.107 Y62.998 E39.81268
G1 X193.827 Y63.196 E39.83627
G1 X194.338 Y63.357 E39.8532
G1 X195.449 Y63.78 E39.89076
G1 X195.937 Y63.999 E39.90766
G1 X196.871 Y64.477 E39.94082
G1 X197.315 Y64.734 E39.95703
G1 X197.873 Y65.078 E39.97774
G1 X198.78 Y65.726 E40.01296
G1 X199.126 Y66.003 E40.02696
G1 X199.858 Y66.65 E40.05783
G1 X200.279 Y67.059 E40.07638
G1 X201.114 Y67.974 E40.11552
G1 X201.517 Y68.474 E40.13581
G1 X202.238 Y69.491 E40.1752
G1 X202.55 Y69.993 E40.19388
G1 X203.138 Y71.081 E40.23295
G1 X203.392 Y71.628 E40.25201
G1 X203.84 Y72.766 E40.29065
G1 X204.022 Y73.325 E40.30923
G1 X204.323 Y74.473 E40.34673
G1 X204.442 Y75.065 E40.36581
G1 X204.613 Y76.311 E40.40555
G1 X204.657 Y76.897 E40.42412
G1 X204.685 Y77.495 E40.44303
G1 X204.699 Y78.357 E40.47027
G1 X204.699 Y141.703 E42.47182
G1 X204.677 Y142.689 E42.50299
G1 X204.644 Y143.32 E42.52295
G1 X204.527 Y144.415 E42.55775
G1 X204.446 Y144.916 E42.57378
G1 X204.298 Y145.659 E42.59772
G1 X204.084 Y146.469 E42.62419
G1 X203.94 Y146.941 E42.63978
G1 X203.528 Y148.055 E42.67731
G1 X203.289 Y148.601 E42.69615
G1 X202.768 Y149.629 E42.73256
G1 X202.518 Y150.06 E42.7483
G1 X202.195 Y150.586 E42.76781
G1 X201.524 Y151.53 E42.8044
G1 X201.247 Y151.876 E42.81841
G1 X200.6 Y152.608 E42.84928
G1 X200.191 Y153.029 E42.86782
G1 X199.276 Y153.864 E42.90696
G1 X198.776 Y154.267 E42.92725
G1 X197.759 Y154.988 E42.96665
G1 X197.257 Y155.3 E42.98532
G1 X196.163 Y155.891 E43.02461
G1 X195.613 Y156.146 E43.04376
G1 X194.48 Y156.591 E43.08223
G1 X193.924 Y156.772 E43.1007
G1 X192.771 Y157.074 E43.13836
G1 X192.177 Y157.193 E43.1575
G1 X190.924 Y157.364 E43.19746
G1 X190.328 Y157.408 E43.21635
G1 X189.741 Y157.435 E43.23491
G1 X188.869 Y157.449 E43.26247
G1 X31.047 Y157.449 E48.24919
G1 X30.046 Y157.426 E48.28083
G1 X29.342 Y157.388 E48.3031
G1 X28.292 Y157.277 E48.33647
G1 X27.571 Y157.149 E48.3596
G1 X27.211 Y157.073 E48.37123
G1 X26.364 Y156.856 E48.39886
G1 X25.769 Y156.676 E48.4185
G1 X24.533 Y156.212 E48.46021
G1 X24.047 Y155.993 E48.47706
G1 X23.125 Y155.52 E48.5098
G1 X22.683 Y155.264 E48.52594
G1 X22.127 Y154.922 E48.54656
G1 X21.215 Y154.269 E48.58201
G1 X20.867 Y153.99 E48.5961
G1 X20.14 Y153.348 E48.62675
G1 X19.721 Y152.941 E48.6452
G1 X18.886 Y152.026 E48.68434
G1 X18.483 Y151.526 E48.70463
G1 X17.76 Y150.506 E48.74414
G1 X17.447 Y150.002 E48.76288
G1 X16.858 Y148.91 E48.80209
G1 X16.604 Y148.362 E48.82117
G1 X16.159 Y147.23 E48.85961
G1 X15.978 Y146.674 E48.87808
G1 X15.676 Y145.521 E48.91574
G1 X15.557 Y144.927 E48.93488
G1 X15.386 Y143.676 E48.97478
G1 X15.342 Y143.082 E48.9936
G1 X15.315 Y142.487 E49.01242
G1 X15.301 Y141.583 E49.04099
G1 X15.302 Y78.251 E51.04209
G1 X15.32 Y77.322 E51.07145
G1 X15.373 Y76.418 E51.10007
G1 X15.473 Y75.585 E51.12658
G1 X15.554 Y75.084 E51.14261
G1 X15.702 Y74.341 E51.16655
G1 X15.916 Y73.531 E51.19302
G1 X16.06 Y73.059 E51.20861
G1 X16.472 Y71.945 E51.24614
G1 X16.711 Y71.399 E51.26498
G1 X17.254 Y70.333 E51.30278
G1 X17.561 Y69.809 E51.32197
G1 X18.265 Y68.762 E51.36183
G1 X18.622 Y68.296 E51.38038
G1 X19.377 Y67.418 E51.41697
G1 X19.783 Y66.997 E51.43545
G1 X20.724 Y66.136 E51.47575
G1 X21.224 Y65.733 E51.49604
G1 X22.241 Y65.012 E51.53543
G1 X22.743 Y64.7 E51.55411
G1 X23.837 Y64.109 E51.5934
G1 X24.387 Y63.854 E51.61255
G1 X25.52 Y63.409 E51.65101
M204 S2000
G1 F2100 E47.65101
;MESH:plate_GCP_revised.stl
G0 F6000 X30.444 Y72.089
G0 X30.508 Y73.17
G0 X27.927 Y75.474
G0 X27.456 Y76.158
G0 X27.167 Y76.916
G0 X27.061 Y77.803
G0 X27.091 Y142.673
G0 X27.288 Y143.472
G0 X27.667 Y144.193
G0 X28.224 Y144.822
G0 X28.907 Y145.294
G0 X29.667 Y145.583
G0 X30.552 Y145.689
G0 X98.366 Y145.657
G0 X40.984 Y103.41
G0 X42.218 Y90.104
G0 X47.917 Y90.442
G0 X48.711 Y90.73
G0 X49.365 Y91.274
G0 X49.792 Y92.01
G0 X51.071 Y95.001
G0 X51.063 Y101.865
G0 X51.211 Y102.151
G0 X99.347 Y136.811
G0 X108.923 Y136.846
G0 X109.715 Y137.134
G0 X110.366 Y137.677
G0 X110.791 Y138.411
G0 X110.939 Y139.226
G0 X110.904 Y142.673
G0 X110.616 Y143.465
G0 X110.073 Y144.116
G0 X109.339 Y144.541
G0 X108.876 Y144.625
G0 X98.841 Y145.718
M204 S500
;TYPE:WALL-INNER
G1 F2100 E51.65101
G1 F757.1 X99.387 Y145.748 E51.6784
G1 F797.3 X108.501 Y145.75 E52.1118
G1 F765.6 X109.118 Y145.723 E52.14239
M204 S2000
G1 F2100 E48.14239
G0 F6000 X189.459 Y146.25
M204 S500
G1 F2100 E52.14239
G1 F1200 X189.992 Y146.217 E52.15926
G1 X190.454 Y146.133 E52.1741
G1 X190.915 Y145.989 E52.18936
G1 X191.362 Y145.788 E52.20485
G1 X191.765 Y145.543 E52.21975
G1 X192.149 Y145.244 E52.23513
G1 X192.494 Y144.899 E52.25054
G1 X192.785 Y144.525 E52.26552
G1 X193.041 Y144.105 E52.28106
G1 X193.238 Y143.671 E52.29612
G1 X193.379 Y143.219 E52.31108
G1 X193.466 Y142.746 E52.32628
G1 X193.5 Y142.216 E52.34306
G1 X193.5 Y77.791 E54.3787
G1 X193.467 Y77.258 E54.39558
G1 X193.382 Y76.793 E54.41051
G1 X193.238 Y76.336 E54.42565
G1 X193.038 Y75.888 E54.44115
G1 X192.791 Y75.482 E54.45617
G1 X192.494 Y75.101 E54.47143
G1 X192.149 Y74.756 E54.48685
G1 X191.775 Y74.465 E54.50182
G1 X191.355 Y74.209 E54.51736
G1 X190.921 Y74.012 E54.53242
G1 X190.469 Y73.871 E54.54738
G1 X189.996 Y73.784 E54.56258
G1 X189.466 Y73.751 E54.57936
G1 X30.541 Y73.75 E59.60093
G1 X30.008 Y73.783 E59.61781
G1 X29.546 Y73.867 E59.63264
G1 X29.085 Y74.011 E59.6479
G1 X28.638 Y74.212 E59.66339
G1 X28.235 Y74.457 E59.67829
G1 X27.851 Y74.756 E59.69367
G1 X27.506 Y75.101 E59.70909
G1 X27.216 Y75.473 E59.72399
G1 X26.959 Y75.895 E59.7396
G1 X26.762 Y76.33 E59.75469
G1 X26.621 Y76.781 E59.76962
G1 X26.534 Y77.254 E59.78482
G1 X26.5 Y77.784 E59.8016
G1 X26.5 Y142.21 E61.83728
G1 X26.533 Y142.742 E61.85412
G1 X26.617 Y143.204 E61.86895
G1 X26.763 Y143.671 E61.88441
G1 X26.959 Y144.107 E61.89952
G1 X27.204 Y144.513 E61.9145
G1 X27.506 Y144.899 E61.92999
G1 X27.851 Y145.244 E61.9454
G1 X28.225 Y145.535 E61.96038
G1 X28.645 Y145.791 E61.97592
G1 X29.077 Y145.986 E61.9909
G1 X29.532 Y146.129 E62.00597
G1 X30.004 Y146.216 E62.02113
G1 X30.534 Y146.25 E62.03791
G1 X189.459 Y146.25 E67.05948
M204 S2000
G0 F6000 X189.471 Y146.65
M204 S500
G1 F1200 X190.04 Y146.615 E67.0775
G1 X190.55 Y146.522 E67.09388
G1 X191.057 Y146.363 E67.11067
G1 X191.548 Y146.143 E67.12767
G1 X191.993 Y145.873 E67.14411
G1 X192.414 Y145.544 E67.161
G1 X192.794 Y145.164 E67.17798
G1 X193.115 Y144.753 E67.19445
G1 X193.395 Y144.292 E67.2115
G1 X193.613 Y143.813 E67.22813
G1 X193.768 Y143.315 E67.24461
G1 X193.864 Y142.795 E67.26131
G1 X193.9 Y142.229 E67.27923
G1 X193.9 Y77.779 E69.31567
G1 X193.865 Y77.21 E69.33368
G1 X193.771 Y76.697 E69.35016
G1 X193.613 Y76.194 E69.36682
G1 X193.393 Y75.702 E69.38385
G1 X193.121 Y75.254 E69.40041
G1 X192.794 Y74.836 E69.41718
G1 X192.414 Y74.456 E69.43416
G1 X192.003 Y74.135 E69.45064
G1 X191.542 Y73.855 E69.46768
G1 X191.063 Y73.637 E69.48431
G1 X190.565 Y73.482 E69.50079
G1 X190.045 Y73.386 E69.5175
G1 X189.479 Y73.351 E69.53541
G1 X30.529 Y73.35 E74.55778
G1 X29.96 Y73.385 E74.57579
G1 X29.45 Y73.478 E74.59217
G1 X28.943 Y73.637 E74.60896
G1 X28.452 Y73.857 E74.62596
G1 X28.007 Y74.127 E74.64241
G1 X27.586 Y74.456 E74.65929
G1 X27.206 Y74.836 E74.67627
G1 X26.886 Y75.245 E74.69268
G1 X26.605 Y75.707 E74.70976
G1 X26.387 Y76.187 E74.72642
