;FLAVOR:Marlin
;TIME:6808
;Filament used: 3.25029m
;Layer height: 0.16
;MINX:85.276
;MINY:85.275
PRINT_START_SET MESH_MIN=85.276,85.275
;MINZ:0.2
;MAXX:134.724
;MAXY:134.723
PRINT_START_SET MESH_MAX=134.724,134.723
;MAXZ:27.96
;TARGET_MACHINE.NAME:Creality Ender-3 S1 Pro
;POSTPROCESSED
;Generated with Cura_SteamEngine 5.5.0
M82 ;absolute extrusion mode
M190 S0
M109 S0
_PRINT_START_PHASE_INIT EXTRUDER=230 BED=85 NOZZLE_SIZE=0.4
; Insert custom gcode here.
_PRINT_START_PHASE_PREHEAT
; Insert custom gcode here.
_PRINT_START_PHASE_PROBING
; Insert custom gcode here.
_PRINT_START_PHASE_EXTRUDER
; Insert custom gcode here.
_PRINT_START_PHASE_PURGE

; This is the place to put slicer purge lines if you haven't set a non-zero
; variable_start_purge_length to have START_PRINT automatically calculate and
; perform the purge (e.g. if using a Mosaic Palette, which requires the slicer
; to generate the purge).
G92 E0
G92 E0
G1 F2100 E-4
;LAYER_COUNT:188
INIT_LAYER_GCODE LAYERS=188
PRINT_START_SET LAYERS=188
;BEFORE_LAYER_CHANGE
;LAYER:0
BEFORE_LAYER_CHANGE LAYER=0
AFTER_LAYER_CHANGE
M107
M204 S2000
G0 F6000 X92.255 Y92.782 Z0.2
M204 S500
;TYPE:SKIRT
G1 F2100 E0
G1 F900 X92.857 Y92.187 E0.02674
G1 X93.444 Y91.643 E0.05203
G1 X94.071 Y91.094 E0.07836
G1 X94.73 Y90.552 E0.10533
G1 X95.316 Y90.107 E0.12857
G1 X96.067 Y89.576 E0.15764
G1 X96.742 Y89.131 E0.18318
G1 X97.452 Y88.695 E0.20951
G1 X98.187 Y88.278 E0.23621
G1 X98.925 Y87.894 E0.2625
G1 X99.659 Y87.543 E0.2882
G1 X100.41 Y87.21 E0.31416
G1 X101.211 Y86.891 E0.3414
G1 X101.989 Y86.611 E0.36753
G1 X102.774 Y86.355 E0.39362
G1 X103.598 Y86.117 E0.42072
G1 X104.378 Y85.924 E0.44611
G1 X105.177 Y85.754 E0.47192
G1 X106.051 Y85.592 E0.50001
G1 X106.801 Y85.486 E0.52394
G1 X107.668 Y85.381 E0.55153
G1 X108.56 Y85.312 E0.5798
G1 X109.322 Y85.285 E0.6039
G1 X110.172 Y85.275 E0.63076
G1 X110.981 Y85.288 E0.65632
G1 X111.586 Y85.318 E0.67546
G1 X112.631 Y85.416 E0.70862
G1 X113.437 Y85.515 E0.73428
G1 X114.225 Y85.634 E0.75946
G1 X115.045 Y85.797 E0.78588
G1 X115.897 Y85.986 E0.81346
G1 X116.678 Y86.196 E0.83901
G1 X117.453 Y86.43 E0.86459
G1 X118.275 Y86.704 E0.89197
G1 X119.037 Y86.984 E0.91762
G1 X119.859 Y87.323 E0.94571
G1 X120.587 Y87.658 E0.97103
G1 X121.326 Y88.026 E0.99712
G1 X122.074 Y88.428 E1.02395
G1 X122.793 Y88.844 E1.0502
G1 X123.499 Y89.287 E1.07653
G1 X124.155 Y89.73 E1.10154
G1 X124.854 Y90.234 E1.12877
G1 X125.506 Y90.741 E1.15487
G1 X126.117 Y91.247 E1.17994
G1 X126.744 Y91.805 E1.20646
G1 X127.274 Y92.303 E1.22944
G1 X127.94 Y92.99 E1.25967
G1 X128.525 Y93.628 E1.28702
G1 X129.019 Y94.214 E1.31124
G1 X129.573 Y94.895 E1.33898
G1 X130.063 Y95.55 E1.36482
G1 X130.53 Y96.221 E1.39065
G1 X130.995 Y96.941 E1.41774
G1 X131.418 Y97.647 E1.44374
G1 X131.818 Y98.369 E1.46982
G1 X132.192 Y99.098 E1.49571
G1 X132.547 Y99.852 E1.52204
G1 X132.882 Y100.636 E1.54898
G1 X133.189 Y101.423 E1.57567
G1 X133.455 Y102.185 E1.60118
G1 X133.707 Y102.992 E1.62789
G1 X133.92 Y103.774 E1.6535
G1 X134.116 Y104.571 E1.67943
G1 X134.293 Y105.406 E1.7064
G1 X134.432 Y106.209 E1.73215
G1 X134.552 Y107.06 E1.75931
G1 X134.633 Y107.857 E1.78462
G1 X134.696 Y108.73 E1.81227
G1 X134.72 Y109.529 E1.83753
G1 X134.724 Y110.398 E1.86499
G1 X134.691 Y111.196 E1.89023
G1 X134.638 Y111.992 E1.91543
G1 X134.565 Y112.821 E1.94173
G1 X134.462 Y113.622 E1.96725
G1 X134.322 Y114.45 E1.99378
G1 X134.161 Y115.266 E2.02006
G1 X133.965 Y116.07 E2.04621
G1 X133.733 Y116.931 E2.07438
G1 X133.488 Y117.707 E2.1001
G1 X133.219 Y118.489 E2.12623
G1 X132.911 Y119.284 E2.15317
G1 X132.595 Y120.028 E2.17871
G1 X132.262 Y120.752 E2.20389
G1 X131.881 Y121.519 E2.23095
G1 X131.5 Y122.216 E2.25605
G1 X131.06 Y122.953 E2.28317
G1 X130.615 Y123.652 E2.30935
G1 X130.128 Y124.354 E2.33635
G1 X129.627 Y125.036 E2.36308
G1 X129.141 Y125.645 E2.3877
G1 X128.573 Y126.319 E2.41555
G1 X128.007 Y126.937 E2.44203
G1 X127.463 Y127.494 E2.46663
G1 X126.858 Y128.085 E2.49336
G1 X126.227 Y128.653 E2.52018
G1 X125.588 Y129.188 E2.54652
G1 X124.939 Y129.699 E2.57262
G1 X124.268 Y130.19 E2.59889
G1 X123.605 Y130.644 E2.62428
G1 X122.892 Y131.097 E2.65097
G1 X122.187 Y131.508 E2.67675
G1 X121.452 Y131.912 E2.70325
G1 X120.686 Y132.291 E2.73026
G1 X119.937 Y132.636 E2.75631
G1 X119.184 Y132.949 E2.78208
G1 X118.386 Y133.256 E2.8091
G1 X117.622 Y133.517 E2.83461
G1 X116.802 Y133.766 E2.86168
G1 X116.022 Y133.975 E2.8872
G1 X115.198 Y134.171 E2.91396
G1 X114.404 Y134.325 E2.93952
G1 X113.6 Y134.454 E2.96525
G1 X112.747 Y134.569 E2.99244
G1 X111.942 Y134.646 E3.01799
G1 X111.06 Y134.704 E3.04592
G1 X110.328 Y134.721 E3.06906
G1 X109.423 Y134.723 E3.09765
G1 X108.625 Y134.687 E3.12289
G1 X107.759 Y134.626 E3.15033
G1 X106.979 Y134.539 E3.17512
G1 X106.243 Y134.44 E3.19859
G1 X105.319 Y134.279 E3.22822
G1 X104.51 Y134.109 E3.25434
G1 X103.718 Y133.911 E3.28014
G1 X102.932 Y133.693 E3.30591
G1 X102.14 Y133.442 E3.33216
G1 X101.353 Y133.165 E3.35853
G1 X100.555 Y132.849 E3.38565
G1 X99.78 Y132.512 E3.41235
G1 X99.016 Y132.149 E3.43908
G1 X98.312 Y131.784 E3.46413
G1 X97.55 Y131.361 E3.49167
G1 X96.858 Y130.942 E3.51723
G1 X96.158 Y130.484 E3.54366
G1 X95.507 Y130.026 E3.56881
G1 X94.815 Y129.509 E3.59611
G1 X94.176 Y128.999 E3.62194
G1 X93.541 Y128.454 E3.64838
G1 X92.947 Y127.903 E3.67398
G1 X92.338 Y127.306 E3.70093
G1 X91.85 Y126.793 E3.7233
G1 X91.224 Y126.082 E3.75323
G1 X90.694 Y125.447 E3.77937
G1 X90.187 Y124.793 E3.80551
G1 X89.692 Y124.104 E3.83232
G1 X89.239 Y123.422 E3.85819
G1 X88.791 Y122.707 E3.88485
G1 X88.391 Y122.01 E3.91024
G1 X87.981 Y121.239 E3.93783
G1 X87.612 Y120.485 E3.96436
G1 X87.293 Y119.76 E3.98938
G1 X86.976 Y118.999 E4.01543
G1 X86.683 Y118.218 E4.04179
G1 X86.418 Y117.422 E4.0683
G1 X86.175 Y116.606 E4.0952
G1 X85.97 Y115.814 E4.12105
G1 X85.784 Y114.983 E4.14796
G1 X85.636 Y114.185 E4.1736
G1 X85.506 Y113.339 E4.20065
G1 X85.416 Y112.565 E4.22527
G1 X85.342 Y111.742 E4.25138
G1 X85.29 Y110.875 E4.27882
G1 X85.276 Y110.091 E4.3036
G1 X85.284 Y109.199 E4.33178
G1 X85.324 Y108.386 E4.3575
G1 X85.391 Y107.59 E4.38274
G1 X85.487 Y106.742 E4.40971
G1 X85.596 Y106.016 E4.4329
G1 X85.765 Y105.099 E4.46237
G1 X85.941 Y104.301 E4.48819
G1 X86.15 Y103.487 E4.51474
G1 X86.382 Y102.689 E4.541
G1 X86.62 Y101.953 E4.56544
G1 X86.929 Y101.111 E4.59378
G1 X87.233 Y100.365 E4.61923
G1 X87.564 Y99.614 E4.64517
G1 X87.931 Y98.851 E4.67192
G1 X88.306 Y98.139 E4.69735
G1 X88.737 Y97.382 E4.72487
G1 X89.164 Y96.689 E4.75059
G1 X89.633 Y95.986 E4.77729
G1 X90.112 Y95.315 E4.80334
G1 X90.614 Y94.655 E4.82954
G1 X91.142 Y94.012 E4.85583
G1 X91.688 Y93.39 E4.88198
G1 X92.255 Y92.782 E4.90825
M204 S2000
G0 F6000 X92.548 Y93.055
M204 S500
G1 F900 X93.129 Y92.48 E4.93408
G1 X93.707 Y91.944 E4.95899
G1 X94.325 Y91.403 E4.98494
G1 X94.972 Y90.871 E5.01141
G1 X95.558 Y90.426 E5.03465
G1 X96.287 Y89.91 E5.06288
G1 X96.951 Y89.472 E5.08801
G1 X97.65 Y89.043 E5.11392
G1 X98.372 Y88.633 E5.14016
G1 X99.098 Y88.255 E5.16602
G1 X99.821 Y87.909 E5.19135
G1 X100.572 Y87.576 E5.2173
G1 X101.346 Y87.267 E5.24364
G1 X102.113 Y86.991 E5.26939
G1 X102.885 Y86.739 E5.29505
G1 X103.694 Y86.505 E5.32166
G1 X104.461 Y86.315 E5.34663
G1 X105.25 Y86.147 E5.37212
G1 X106.107 Y85.988 E5.39966
G1 X106.849 Y85.883 E5.42334
G1 X107.699 Y85.78 E5.45039
G1 X108.574 Y85.712 E5.47812
G1 X109.327 Y85.685 E5.50193
G1 X110.165 Y85.675 E5.52841
G1 X110.961 Y85.688 E5.55357
G1 X111.566 Y85.718 E5.57271
G1 X112.582 Y85.813 E5.60495
G1 X113.377 Y85.911 E5.63026
G1 X114.165 Y86.03 E5.65544
G1 X114.958 Y86.188 E5.68099
G1 X115.81 Y86.377 E5.70856
G1 X116.563 Y86.579 E5.7332
G1 X117.327 Y86.809 E5.75841
G1 X118.137 Y87.079 E5.78539
G1 X118.885 Y87.354 E5.81057
G1 X119.692 Y87.686 E5.83814
G1 X120.409 Y88.016 E5.86308
G1 X121.137 Y88.378 E5.88877
G1 X121.874 Y88.774 E5.91521
G1 X122.581 Y89.183 E5.94101
G1 X123.275 Y89.618 E5.96689
G1 X123.921 Y90.055 E5.99154
G1 X124.609 Y90.55 E6.01832
G1 X125.251 Y91.049 E6.04401
G1 X125.851 Y91.546 E6.06863
G1 X126.47 Y92.097 E6.09481
G1 X127 Y92.595 E6.11779
G1 X127.645 Y93.261 E6.14709
G1 X128.219 Y93.886 E6.1739
G1 X128.709 Y94.466 E6.19789
G1 X129.253 Y95.135 E6.22514
G1 X129.735 Y95.779 E6.25055
G1 X130.194 Y96.438 E6.27593
G1 X130.652 Y97.147 E6.3026
G1 X131.068 Y97.841 E6.32816
G1 X131.462 Y98.552 E6.35385
G1 X131.83 Y99.268 E6.37928
G1 X132.179 Y100.009 E6.40517
G1 X132.509 Y100.781 E6.43169
G1 X132.811 Y101.555 E6.45795
G1 X133.073 Y102.305 E6.48305
G1 X133.321 Y103.097 E6.50927
G1 X133.532 Y103.869 E6.53456
G1 X133.725 Y104.654 E6.5601
G1 X133.899 Y105.474 E6.58659
G1 X134.036 Y106.265 E6.61195
G1 X134.154 Y107.101 E6.63863
G1 X134.234 Y107.886 E6.66356
G1 X134.296 Y108.742 E6.69068
G1 X134.32 Y109.531 E6.71562
G1 X134.324 Y110.382 E6.74251
G1 X134.292 Y111.17 E6.76743
G1 X134.24 Y111.957 E6.79235
G1 X134.168 Y112.77 E6.81814
G1 X134.068 Y113.555 E6.84314
G1 X133.93 Y114.372 E6.86932
G1 X133.772 Y115.172 E6.89509
G1 X133.579 Y115.966 E6.92091
G1 X133.351 Y116.811 E6.94856
G1 X133.11 Y117.577 E6.97394
G1 X132.846 Y118.345 E6.9996
G1 X132.543 Y119.128 E7.02613
G1 X132.232 Y119.861 E7.05128
G1 X131.904 Y120.574 E7.07608
G1 X131.53 Y121.327 E7.10265
G1 X131.156 Y122.011 E7.12728
G1 X130.723 Y122.738 E7.15402
G1 X130.286 Y123.424 E7.17972
G1 X129.806 Y124.117 E7.20635
G1 X129.314 Y124.786 E7.23259
G1 X128.828 Y125.395 E7.25721
G1 X128.278 Y126.049 E7.28421
G1 X127.721 Y126.658 E7.31029
G1 X127.184 Y127.208 E7.33458
G1 X126.59 Y127.788 E7.36081
G1 X125.97 Y128.346 E7.38717
G1 X125.34 Y128.874 E7.41314
G1 X124.703 Y129.376 E7.43877
G1 X124.042 Y129.86 E7.46465
G1 X123.391 Y130.306 E7.48959
G1 X122.69 Y130.751 E7.51582
G1 X121.994 Y131.157 E7.54128
G1 X121.259 Y131.561 E7.56778
G1 X120.519 Y131.928 E7.59388
G1 X119.783 Y132.267 E7.61949
G1 X119.04 Y132.576 E7.64491
G1 X118.257 Y132.877 E7.67142
G1 X117.505 Y133.134 E7.69653
G1 X116.698 Y133.38 E7.72318
G1 X115.929 Y133.586 E7.74834
G1 X115.122 Y133.778 E7.77455
G1 X114.34 Y133.93 E7.79972
G1 X113.547 Y134.058 E7.8251
G1 X112.709 Y134.171 E7.85182
G1 X111.916 Y134.247 E7.87699
G1 X111.051 Y134.304 E7.90438
G1 X110.327 Y134.321 E7.92727
G1 X109.441 Y134.323 E7.95526
G1 X108.653 Y134.288 E7.98018
G1 X107.803 Y134.228 E8.00711
G1 X107.032 Y134.143 E8.03162
G1 X106.311 Y134.046 E8.0546
G1 X105.401 Y133.888 E8.08379
G1 X104.607 Y133.721 E8.10942
G1 X103.825 Y133.526 E8.13489
G1 X103.053 Y133.312 E8.1602
G1 X102.273 Y133.065 E8.18605
G1 X101.5 Y132.793 E8.21195
G1 X100.714 Y132.482 E8.23866
G1 X99.952 Y132.151 E8.26491
G1 X99.2 Y131.794 E8.29121
G1 X98.506 Y131.434 E8.31591
G1 X97.757 Y131.019 E8.34297
G1 X97.077 Y130.608 E8.36807
G1 X96.388 Y130.156 E8.39411
G1 X95.746 Y129.706 E8.41888
G1 X95.065 Y129.197 E8.44575
G1 X94.437 Y128.695 E8.47115
G1 X93.802 Y128.15 E8.49759
G1 X93.227 Y127.617 E8.52236
G1 X92.628 Y127.03 E8.54886
G1 X92.14 Y126.517 E8.57124
G1 X91.531 Y125.825 E8.60036
G1 X91.01 Y125.202 E8.62602
G1 X90.512 Y124.56 E8.6517
G1 X90.025 Y123.882 E8.67807
G1 X89.578 Y123.21 E8.70358
G1 X89.138 Y122.508 E8.72975
G1 X88.744 Y121.822 E8.75475
G1 X88.34 Y121.063 E8.78192
G1 X87.978 Y120.323 E8.80795
G1 X87.662 Y119.607 E8.83268
G1 X87.351 Y118.858 E8.8583
G1 X87.058 Y118.077 E8.88466
G1 X86.801 Y117.308 E8.91028
G1 X86.562 Y116.506 E8.93672
G1 X86.36 Y115.726 E8.96218
G1 X86.177 Y114.91 E8.9886
G1 X86.031 Y114.124 E9.01386
G1 X85.903 Y113.293 E9.04043
G1 X85.814 Y112.529 E9.06473
G1 X85.741 Y111.718 E9.09046
G1 X85.69 Y110.868 E9.11737
G1 X85.676 Y110.094 E9.14183
G1 X85.683 Y109.219 E9.16948
G1 X85.723 Y108.42 E9.19475
G1 X85.79 Y107.624 E9.21999
G1 X85.883 Y106.801 E9.24616
G1 X85.992 Y106.075 E9.26936
G1 X86.156 Y105.185 E9.29796
G1 X86.328 Y104.401 E9.32332
G1 X86.534 Y103.599 E9.34948
G1 X86.763 Y102.812 E9.37538
G1 X87.001 Y102.076 E9.39982
G1 X87.3 Y101.262 E9.42722
G1 X87.599 Y100.526 E9.45232
G1 X87.924 Y99.787 E9.47783
G1 X88.285 Y99.037 E9.50413
G1 X88.653 Y98.337 E9.52912
G1 X89.078 Y97.592 E9.55622
G1 X89.505 Y96.899 E9.58194
G1 X89.959 Y96.218 E9.6078
G1 X90.43 Y95.557 E9.63345
G1 X90.923 Y94.909 E9.65917
G1 X91.443 Y94.276 E9.68506
G1 X91.981 Y93.663 E9.71083
G1 X92.548 Y93.055 E9.7371
M204 S2000
G0 F6000 X92.83 Y93.339
M204 S500
G1 F900 X93.401 Y92.773 E9.7625
G1 X93.97 Y92.245 E9.78703
G1 X94.579 Y91.712 E9.8126
G1 X95.214 Y91.19 E9.83857
G1 X95.8 Y90.745 E9.86182
G1 X96.507 Y90.244 E9.8892
G1 X97.161 Y89.813 E9.91395
G1 X97.847 Y89.391 E9.9394
G1 X98.557 Y88.988 E9.96519
G1 X99.271 Y88.616 E9.99063
G1 X99.983 Y88.275 E10.01558
G1 X100.734 Y87.942 E10.04153
G1 X101.482 Y87.643 E10.06699
G1 X102.237 Y87.371 E10.09234
G1 X102.996 Y87.123 E10.11757
G1 X103.79 Y86.893 E10.14369
G1 X104.544 Y86.706 E10.16824
G1 X105.323 Y86.54 E10.19341
G1 X106.163 Y86.384 E10.2204
G1 X106.897 Y86.28 E10.24383
G1 X107.73 Y86.179 E10.27034
G1 X108.589 Y86.112 E10.29756
G1 X109.332 Y86.085 E10.32105
G1 X110.158 Y86.075 E10.34716
G1 X110.941 Y86.088 E10.3719
G1 X111.546 Y86.118 E10.39104
G1 X112.533 Y86.21 E10.42236
G1 X113.317 Y86.307 E10.44732
G1 X114.105 Y86.426 E10.4725
G1 X114.871 Y86.579 E10.49718
G1 X115.723 Y86.768 E10.52476
G1 X116.448 Y86.962 E10.54847
G1 X117.201 Y87.188 E10.57331
G1 X117.999 Y87.454 E10.59989
G1 X118.733 Y87.724 E10.6246
G1 X119.525 Y88.05 E10.65167
G1 X120.231 Y88.374 E10.67621
G1 X120.948 Y88.73 E10.70151
G1 X121.674 Y89.12 E10.72755
G1 X122.369 Y89.522 E10.75291
G1 X123.051 Y89.949 E10.77834
G1 X123.688 Y90.38 E10.80264
G1 X124.364 Y90.866 E10.82895
G1 X124.996 Y91.357 E10.85423
G1 X125.585 Y91.845 E10.8784
G1 X126.196 Y92.389 E10.90425
G1 X126.726 Y92.887 E10.92723
G1 X127.35 Y93.532 E10.95559
G1 X127.924 Y94.157 E10.9824
G1 X128.399 Y94.719 E11.00565
G1 X128.933 Y95.375 E11.03238
G1 X129.407 Y96.008 E11.05737
G1 X129.858 Y96.655 E11.08229
G1 X130.309 Y97.353 E11.10854
G1 X130.718 Y98.035 E11.13367
G1 X131.106 Y98.735 E11.15896
G1 X131.468 Y99.439 E11.18397
G1 X131.811 Y100.166 E11.20937
G1 X132.136 Y100.926 E11.23549
G1 X132.433 Y101.687 E11.2613
G1 X132.691 Y102.425 E11.286
G1 X132.935 Y103.203 E11.31177
G1 X133.144 Y103.964 E11.3367
G1 X133.334 Y104.737 E11.36185
G1 X133.505 Y105.542 E11.38786
G1 X133.64 Y106.321 E11.41284
G1 X133.756 Y107.142 E11.43904
G1 X133.835 Y107.915 E11.46359
G1 X133.896 Y108.754 E11.49017
G1 X133.92 Y109.533 E11.51479
G1 X133.924 Y110.366 E11.54112
G1 X133.893 Y111.144 E11.56572
G1 X133.842 Y111.922 E11.59035
G1 X133.771 Y112.719 E11.61564
G1 X133.671 Y113.504 E11.64064
G1 X133.538 Y114.294 E11.66595
G1 X133.383 Y115.078 E11.6912
G1 X133.193 Y115.862 E11.71669
G1 X132.969 Y116.691 E11.74383
G1 X132.732 Y117.447 E11.76886
G1 X132.473 Y118.201 E11.79405
G1 X132.175 Y118.972 E11.82017
G1 X131.869 Y119.694 E11.84495
G1 X131.546 Y120.396 E11.86936
G1 X131.179 Y121.135 E11.89543
G1 X130.812 Y121.806 E11.9196
G1 X130.385 Y122.523 E11.94597
G1 X129.957 Y123.196 E11.97117
G1 X129.484 Y123.88 E11.99745
G1 X129.001 Y124.536 E12.02319
G1 X128.515 Y125.145 E12.0478
G1 X127.983 Y125.779 E12.07396
G1 X127.435 Y126.379 E12.09963
G1 X126.905 Y126.922 E12.12361
G1 X126.322 Y127.491 E12.14935
G1 X125.713 Y128.04 E12.17525
G1 X125.093 Y128.56 E12.20082
G1 X124.467 Y129.053 E12.226
G1 X123.816 Y129.53 E12.2515
G1 X123.176 Y129.968 E12.276
G1 X122.489 Y130.405 E12.30173
G1 X121.801 Y130.806 E12.32689
G1 X121.066 Y131.21 E12.35339
G1 X120.352 Y131.565 E12.37859
G1 X119.629 Y131.898 E12.40374
G1 X118.897 Y132.203 E12.4288
G1 X118.128 Y132.498 E12.45482
G1 X117.376 Y132.755 E12.47993
G1 X116.595 Y132.994 E12.50574
G1 X115.837 Y133.197 E12.53053
G1 X115.046 Y133.385 E12.55622
G1 X114.276 Y133.535 E12.58101
G1 X113.494 Y133.662 E12.60604
G1 X112.671 Y133.773 E12.63228
G1 X111.89 Y133.848 E12.65707
G1 X111.042 Y133.904 E12.68393
G1 X110.326 Y133.921 E12.70656
G1 X109.458 Y133.923 E12.73398
G1 X108.681 Y133.889 E12.75856
G1 X107.846 Y133.83 E12.78501
G1 X107.085 Y133.747 E12.80919
G1 X106.379 Y133.652 E12.8317
G1 X105.483 Y133.497 E12.86044
G1 X104.704 Y133.333 E12.88559
G1 X103.932 Y133.141 E12.91072
G1 X103.174 Y132.931 E12.93558
G1 X102.406 Y132.688 E12.96103
G1 X101.647 Y132.421 E12.98645
G1 X100.873 Y132.115 E13.01275
