;FLAVOR:Marlin
;TIME:2321
;Filament used: 0.98572m
;Layer height: 0.16
;MINX:78.251
;MINY:69.085
PRINT_START_SET MESH_MIN=78.251,69.085
;MINZ:0.2
;MAXX:141.748
;MAXY:150.915
PRINT_START_SET MESH_MAX=141.748,150.915
;MAXZ:1.4
;TARGET_MACHINE.NAME:Creality Ender-3 S1 Pro
;POSTPROCESSED
;Generated with Cura_SteamEngine 5.5.0
M82 ;absolute extrusion mode
M190 S0
M109 S0
_PRINT_START_PHASE_INIT EXTRUDER=215.0 BED=63 NOZZLE_SIZE=0.4
; Insert custom gcode here.
_PRINT_START_PHASE_PREHEAT
; Insert custom gcode here.
_PRINT_START_PHASE_PROBING
; Insert custom gcode here.
_PRINT_START_PHASE_EXTRUDER
; Insert custom gcode here.
_PRINT_START_PHASE_PURGE

; This is the place to put slicer purge lines if you haven't set a non-zero
; variable_start_purge_length to have START_PRINT automatically calculate and
; perform the purge (e.g. if using a Mosaic Palette, which requires the slicer
; to generate the purge).
G92 E0
G92 E0
G1 F2280 E-0.8
;LAYER_COUNT:8
INIT_LAYER_GCODE LAYERS=8
PRINT_START_SET LAYERS=8
;BEFORE_LAYER_CHANGE
;LAYER:0
BEFORE_LAYER_CHANGE LAYER=0
AFTER_LAYER_CHANGE
M107
M204 S2000
G0 F7500 X81.342 Y73.381 Z0.2
M204 S500
;TYPE:SKIRT
G1 F2280 E0
G1 F1500 X81.731 Y72.967 E0.01899
G1 X82.09 Y72.608 E0.03596
G1 X82.809 Y71.951 E0.06852
G1 X83.582 Y71.359 E0.10106
G1 X84.37 Y70.858 E0.13227
G1 X85.269 Y70.382 E0.16628
G1 X86.155 Y69.975 E0.19887
G1 X87.072 Y69.651 E0.23138
G1 X88 Y69.411 E0.26342
G1 X88.557 Y69.307 E0.28236
G1 X89.077 Y69.226 E0.29995
G1 X90.413 Y69.1 E0.34481
G1 X91.052 Y69.085 E0.36617
G1 X107.054 Y69.085 E0.90106
G1 X107.932 Y69.098 E0.93041
G1 X108.812 Y69.148 E0.95987
G1 X112.143 Y69.44 E1.07165
G1 X114.625 Y69.578 E1.15474
G1 X117.159 Y69.649 E1.23947
G1 X119.649 Y69.649 E1.32271
G1 X122.214 Y69.576 E1.40848
G1 X124.667 Y69.436 E1.49061
G1 X127.906 Y69.149 E1.5993
G1 X128.681 Y69.108 E1.62524
G1 X129.362 Y69.098 E1.64801
G1 X130.335 Y69.13 E1.68055
G1 X131.302 Y69.246 E1.7131
G1 X132.186 Y69.431 E1.74329
G1 X133.127 Y69.713 E1.77613
G1 X133.632 Y69.891 E1.79403
G1 X134.534 Y70.256 E1.82655
G1 X135.402 Y70.699 E1.85913
G1 X136.224 Y71.215 E1.89157
G1 X136.903 Y71.724 E1.91993
G1 X137.336 Y72.076 E1.93859
G1 X138.061 Y72.724 E1.97109
G1 X138.681 Y73.381 E2.00129
G1 X139.326 Y74.201 E2.03616
G1 X139.802 Y74.925 E2.06512
G1 X140.082 Y75.393 E2.08335
G1 X140.542 Y76.25 E2.11586
G1 X140.927 Y77.144 E2.1484
G1 X141.22 Y78.034 E2.17972
G1 X141.435 Y78.938 E2.21078
G1 X141.541 Y79.491 E2.2296
G1 X141.673 Y80.384 E2.25978
G1 X141.734 Y81.356 E2.29233
G1 X141.748 Y82.177 E2.31978
G1 X141.748 Y137.877 E4.18163
G1 X141.735 Y138.63 E4.2068
G1 X141.679 Y139.56 E4.23795
G1 X141.597 Y140.182 E4.25892
G1 X141.52 Y140.656 E4.27497
G1 X141.319 Y141.61 E4.30756
G1 X141.044 Y142.513 E4.33911
G1 X140.526 Y143.742 E4.38369
G1 X140.288 Y144.22 E4.40154
G1 X139.813 Y145.07 E4.43409
G1 X139.265 Y145.874 E4.46661
G1 X138.676 Y146.597 E4.49779
G1 X138.259 Y147.041 E4.51815
G1 X137.909 Y147.392 E4.53472
G1 X137.19 Y148.049 E4.56727
G1 X136.417 Y148.641 E4.59982
G1 X135.629 Y149.142 E4.63103
G1 X134.73 Y149.618 E4.66503
G1 X133.844 Y150.025 E4.69762
G1 X132.927 Y150.349 E4.73013
G1 X131.999 Y150.589 E4.76217
G1 X131.442 Y150.693 E4.78111
G1 X130.922 Y150.774 E4.7987
G1 X129.586 Y150.9 E4.84356
G1 X128.929 Y150.915 E4.86553
G1 X112.805 Y150.914 E5.4045
G1 X111.21 Y150.891 E5.45782
G1 X107.529 Y150.905 E5.58086
G1 X106.557 Y150.862 E5.61338
G1 X105.626 Y150.74 E5.64477
G1 X104.648 Y150.523 E5.67825
G1 X103.976 Y150.317 E5.70175
G1 X103.43 Y150.129 E5.72105
G1 X102.527 Y149.771 E5.75352
G1 X101.709 Y149.365 E5.78405
G1 X100.866 Y148.898 E5.81626
G1 X84.963 Y139.781 E6.429
G1 X84.409 Y139.453 E6.45052
G1 X83.653 Y138.959 E6.48071
G1 X83.066 Y138.51 E6.50541
G1 X82.629 Y138.151 E6.52431
G1 X81.904 Y137.498 E6.55693
G1 X81.288 Y136.837 E6.58713
G1 X80.65 Y136.018 E6.62183
G1 X80.219 Y135.361 E6.6481
G1 X79.936 Y134.892 E6.66641
G1 X79.471 Y134.036 E6.69897
G1 X79.11 Y133.209 E6.72913
G1 X78.78 Y132.22 E6.76398
G1 X78.579 Y131.387 E6.79263
G1 X78.465 Y130.811 E6.81225
G1 X78.33 Y129.918 E6.84244
G1 X78.266 Y128.906 E6.87634
G1 X78.251 Y128.011 E6.90626
G1 X78.251 Y82.123 E8.44013
G1 X78.264 Y81.37 E8.46531
G1 X78.322 Y80.412 E8.49739
G1 X78.395 Y79.863 E8.5159
G1 X78.47 Y79.388 E8.53197
G1 X78.668 Y78.435 E8.56451
G1 X78.954 Y77.487 E8.59761
G1 X79.484 Y76.231 E8.64318
G1 X79.725 Y75.753 E8.66107
G1 X80.202 Y74.903 E8.69365
G1 X80.753 Y74.099 E8.72623
G1 X81.342 Y73.381 E8.75727
M204 S2000
G0 F7500 X81.634 Y73.655
M204 S500
G1 F1500 X82.023 Y73.241 E8.77626
G1 X82.36 Y72.903 E8.79222
G1 X83.052 Y72.268 E8.82361
G1 X83.797 Y71.697 E8.85499
G1 X84.585 Y71.196 E8.8862
G1 X85.436 Y70.745 E8.91839
G1 X86.289 Y70.352 E8.94979
G1 X87.173 Y70.038 E8.98114
G1 X88.074 Y69.804 E9.01226
G1 X88.619 Y69.702 E9.03079
G1 X89.115 Y69.624 E9.04758
G1 X90.422 Y69.5 E9.09146
G1 X91.061 Y69.485 E9.11283
G1 X107.048 Y69.485 E9.64722
G1 X107.909 Y69.497 E9.676
G1 X108.773 Y69.546 E9.70493
G1 X109.422 Y69.609 E9.72672
G1 X112.109 Y69.838 E9.81686
G1 X114.614 Y69.978 E9.90073
G1 X117.148 Y70.049 E9.98546
G1 X119.66 Y70.049 E10.06943
G1 X122.225 Y69.976 E10.1552
G1 X124.692 Y69.835 E10.2378
G1 X127.927 Y69.548 E10.34636
G1 X128.687 Y69.508 E10.3718
G1 X129.35 Y69.498 E10.39396
G1 X130.288 Y69.527 E10.42533
G1 X131.22 Y69.638 E10.45671
G1 X132.104 Y69.823 E10.4869
G1 X132.994 Y70.09 E10.51796
G1 X133.483 Y70.262 E10.53528
G1 X134.353 Y70.612 E10.56663
G1 X135.19 Y71.038 E10.59802
G1 X135.984 Y71.535 E10.62933
G1 X136.651 Y72.035 E10.6572
G1 X137.07 Y72.375 E10.67523
G1 X137.77 Y72.999 E10.70658
G1 X138.39 Y73.656 E10.73678
G1 X138.992 Y74.421 E10.76932
G1 X139.459 Y75.131 E10.79772
G1 X139.73 Y75.583 E10.81534
G1 X140.175 Y76.408 E10.84667
G1 X140.547 Y77.27 E10.87805
G1 X140.831 Y78.127 E10.90823
G1 X141.042 Y79.014 E10.93871
G1 X141.145 Y79.549 E10.95692
G1 X141.277 Y80.442 E10.98709
G1 X141.334 Y81.363 E11.01794
G1 X141.348 Y82.184 E11.04539
G1 X141.348 Y137.87 E12.90677
G1 X141.336 Y138.606 E12.93138
G1 X141.282 Y139.508 E12.96158
G1 X141.202 Y140.118 E12.98214
G1 X141.128 Y140.574 E12.99759
G1 X140.936 Y141.494 E13.029
G1 X140.675 Y142.358 E13.05917
G1 X140.157 Y143.587 E13.10375
G1 X139.939 Y144.025 E13.12011
G1 X139.482 Y144.845 E13.15148
G1 X138.955 Y145.621 E13.18284
G1 X138.366 Y146.344 E13.21401
G1 X137.976 Y146.759 E13.23305
G1 X137.639 Y147.097 E13.249
G1 X136.947 Y147.732 E13.2804
G1 X136.202 Y148.303 E13.31177
G1 X135.414 Y148.804 E13.34298
G1 X134.563 Y149.255 E13.37518
G1 X133.71 Y149.648 E13.40657
G1 X132.826 Y149.962 E13.43793
G1 X131.925 Y150.196 E13.46905
G1 X131.38 Y150.298 E13.48758
G1 X130.884 Y150.376 E13.50436
G1 X129.577 Y150.5 E13.54825
G1 X128.929 Y150.515 E13.56991
G1 X112.811 Y150.514 E14.10868
G1 X111.214 Y150.491 E14.16207
G1 X107.546 Y150.505 E14.28468
G1 X106.609 Y150.465 E14.31603
G1 X105.678 Y150.343 E14.34741
G1 X104.765 Y150.14 E14.37868
G1 X104.106 Y149.939 E14.40171
G1 X103.577 Y149.757 E14.42041
G1 X102.705 Y149.413 E14.45174
G1 X101.903 Y149.015 E14.48167
G1 X101.065 Y148.551 E14.51369
G1 X85.167 Y139.437 E15.12623
G1 X84.628 Y139.118 E15.14717
G1 X83.872 Y138.624 E15.17735
G1 X83.32 Y138.201 E15.2006
G1 X82.896 Y137.853 E15.21893
G1 X82.197 Y137.225 E15.25034
G1 X81.581 Y136.564 E15.28055
G1 X80.984 Y135.799 E15.31298
G1 X80.561 Y135.154 E15.33877
G1 X80.287 Y134.701 E15.35646
G1 X79.838 Y133.876 E15.38786
G1 X79.477 Y133.049 E15.41802
G1 X79.169 Y132.126 E15.45055
G1 X78.968 Y131.293 E15.47919
G1 X78.861 Y130.751 E15.49766
G1 X78.726 Y129.858 E15.52785
G1 X78.666 Y128.899 E15.55996
G1 X78.651 Y128.004 E15.58989
G1 X78.651 Y82.13 E17.12329
G1 X78.663 Y81.394 E17.14789
G1 X78.719 Y80.464 E17.17904
G1 X78.79 Y79.925 E17.19721
G1 X78.862 Y79.469 E17.21264
G1 X79.051 Y78.55 E17.244
G1 X79.323 Y77.643 E17.27565
G1 X79.853 Y76.387 E17.32122
G1 X80.074 Y75.948 E17.33765
G1 X80.532 Y75.129 E17.36902
G1 X81.062 Y74.353 E17.40043
G1 X81.634 Y73.655 E17.43059
M204 S2000
G0 F7500 X81.943 Y73.909
M204 S500
G1 F1500 X82.307 Y73.523 E17.44833
G1 X82.631 Y73.197 E17.46369
G1 X83.296 Y72.585 E17.4939
G1 X84.012 Y72.034 E17.5241
G1 X84.773 Y71.549 E17.55427
G1 X85.604 Y71.108 E17.58571
G1 X86.424 Y70.729 E17.61591
G1 X87.274 Y70.425 E17.64608
G1 X88.148 Y70.197 E17.67628
G1 X88.682 Y70.097 E17.69444
G1 X89.153 Y70.022 E17.71038
G1 X90.431 Y69.9 E17.75329
G1 X91.07 Y69.885 E17.77466
G1 X107.043 Y69.885 E18.30858
G1 X107.886 Y69.896 E18.33676
G1 X108.734 Y69.944 E18.36515
G1 X109.388 Y70.008 E18.38711
G1 X112.075 Y70.236 E18.47725
G1 X114.603 Y70.378 E18.56189
G1 X117.137 Y70.449 E18.64663
G1 X119.671 Y70.449 E18.73133
G1 X122.236 Y70.376 E18.8171
G1 X124.717 Y70.234 E18.90017
G1 X127.948 Y69.947 E19.00859
G1 X128.693 Y69.908 E19.03353
G1 X129.338 Y69.898 E19.05509
G1 X130.241 Y69.924 E19.08529
G1 X131.138 Y70.03 E19.11548
G1 X132.022 Y70.215 E19.14567
G1 X132.862 Y70.468 E19.175
G1 X133.334 Y70.633 E19.19171
G1 X134.172 Y70.969 E19.22189
G1 X134.978 Y71.377 E19.25208
G1 X135.744 Y71.855 E19.28227
G1 X136.399 Y72.345 E19.30961
G1 X136.804 Y72.674 E19.32705
G1 X137.479 Y73.274 E19.35724
G1 X138.099 Y73.931 E19.38743
G1 X138.658 Y74.641 E19.41764
G1 X139.116 Y75.337 E19.44549
G1 X139.378 Y75.773 E19.46249
G1 X139.808 Y76.567 E19.49268
G1 X140.167 Y77.396 E19.52287
G1 X140.451 Y78.253 E19.55305
G1 X140.649 Y79.09 E19.5818
G1 X140.749 Y79.607 E19.5994
G1 X140.881 Y80.5 E19.62958
G1 X140.934 Y81.37 E19.65871
G1 X140.948 Y82.191 E19.68616
G1 X140.948 Y137.864 E21.54711
G1 X140.937 Y138.582 E21.57111
G1 X140.883 Y139.484 E21.60132
G1 X140.807 Y140.054 E21.62054
G1 X140.736 Y140.493 E21.6354
G1 X140.553 Y141.378 E21.66561
G1 X140.292 Y142.242 E21.69578
G1 X139.799 Y143.409 E21.73813
G1 X139.589 Y143.831 E21.75388
G1 X139.151 Y144.621 E21.78408
G1 X138.645 Y145.369 E21.81426
G1 X138.075 Y146.07 E21.84446
G1 X137.692 Y146.477 E21.86315
G1 X137.368 Y146.803 E21.87851
G1 X136.703 Y147.415 E21.90872
G1 X135.987 Y147.966 E21.93892
G1 X135.226 Y148.451 E21.96908
G1 X134.395 Y148.892 E22.00053
G1 X133.575 Y149.271 E22.03073
G1 X132.725 Y149.575 E22.0609
G1 X131.851 Y149.803 E22.09109
G1 X131.317 Y149.903 E22.10925
G1 X130.846 Y149.978 E22.12519
G1 X129.568 Y150.1 E22.16811
G1 X128.929 Y150.115 E22.18947
G1 X112.817 Y150.114 E22.72804
G1 X111.218 Y150.091 E22.78149
G1 X107.562 Y150.105 E22.9037
G1 X106.66 Y150.068 E22.93388
G1 X105.764 Y149.952 E22.96408
G1 X104.882 Y149.757 E22.99427
G1 X104.223 Y149.556 E23.0173
G1 X103.723 Y149.385 E23.03497
G1 X102.883 Y149.055 E23.06513
G1 X102.097 Y148.665 E23.09446
G1 X101.264 Y148.204 E23.12629
G1 X85.371 Y139.093 E23.73864
G1 X84.847 Y138.783 E23.75899
G1 X84.091 Y138.289 E23.78917
G1 X83.574 Y137.892 E23.81096
G1 X83.163 Y137.555 E23.82873
G1 X82.49 Y136.952 E23.85893
G1 X81.874 Y136.291 E23.88914
G1 X81.318 Y135.579 E23.91933
G1 X80.903 Y134.947 E23.94461
G1 X80.638 Y134.509 E23.96172
G1 X80.205 Y133.716 E23.99192
G1 X79.844 Y132.889 E24.02208
G1 X79.558 Y132.032 E24.05228
G1 X79.357 Y131.199 E24.08092
G1 X79.257 Y130.691 E24.09823
G1 X79.122 Y129.798 E24.12842
G1 X79.066 Y128.892 E24.15876
G1 X79.051 Y127.997 E24.18868
G1 X79.051 Y82.136 E25.72165
G1 X79.062 Y81.418 E25.74566
G1 X79.116 Y80.516 E25.77586
G1 X79.185 Y79.987 E25.79369
G1 X79.254 Y79.549 E25.80851
G1 X79.434 Y78.664 E25.8387
G1 X79.692 Y77.798 E25.86891
G1 X80.211 Y76.566 E25.91359
G1 X80.423 Y76.143 E25.92941
G1 X80.863 Y75.354 E25.95961
G1 X81.371 Y74.607 E25.9898
G1 X81.943 Y73.909 E26.01997
M204 S2000
G1 F2280 E25.21997
;MESH:OLED_Cover_LEFT.stl(1)
G0 F7500 X92.901 Y88.968
G0 X93.243 Y113.092
G0 X93.368 Y113.719
G0 X93.77 Y114.322
G0 X94.372 Y114.722
G0 X94.88 Y114.825
G0 X104.196 Y114.888
M204 S500
;TYPE:WALL-INNER
G1 F2280 E26.01997
G1 F1200 X103.6 Y115.01 E26.0403
G1 X94.975 Y115.01 E26.32861
G1 X94.381 Y114.888 E26.34888
G1 X94.15 Y114.768 E26.35758
G1 X93.715 Y114.481 E26.375
G1 X93.542 Y114.271 E26.38409
G1 X93.325 Y113.946 E26.39715
G1 X93.178 Y113.589 E26.41006
G1 X93.082 Y113.11 E26.42639
G1 X93.082 Y88.987 E27.23274
G1 X93.178 Y88.506 E27.24913
G1 X93.325 Y88.149 E27.26204
G1 X93.542 Y87.824 E27.2751
G1 X93.713 Y87.616 E27.2841
G1 X94.15 Y87.327 E27.30161
G1 X94.386 Y87.212 E27.31039
G1 X94.97 Y87.085 E27.33036
G1 X103.605 Y87.085 E27.619
G1 X104.175 Y87.208 E27.63849
G1 X104.426 Y87.327 E27.64778
G1 X104.753 Y87.543 E27.66088
G1 X105.034 Y87.824 E27.67416
G1 X105.25 Y88.149 E27.68721
G1 X105.398 Y88.506 E27.70012
G1 X105.494 Y88.986 E27.71649
G1 X105.494 Y113.11 E28.52287
G1 X105.398 Y113.589 E28.5392
G1 X105.25 Y113.946 E28.55211
G1 X105.034 Y114.271 E28.56516
G1 X104.753 Y114.552 E28.57844
G1 X104.426 Y114.768 E28.59154
G1 X104.196 Y114.888 E28.60021
M204 S2000
G0 F7500 X104.108 Y114.498
M204 S500
G1 F1200 X103.559 Y114.61 E28.61894
G1 X95.017 Y114.61 E28.90447
G1 X94.468 Y114.498 E28.9232
G1 X93.941 Y114.149 E28.94433
G1 X93.659 Y113.725 E28.96135
G1 X93.57 Y113.51 E28.96913
G1 X93.482 Y113.071 E28.98409
G1 X93.482 Y89.025 E29.78786
G1 X93.57 Y88.585 E29.80286
G1 X93.659 Y88.37 E29.81064
G1 X93.941 Y87.946 E29.82766
G1 X94.458 Y87.604 E29.84838
G1 X95.012 Y87.485 E29.86732
G1 X103.561 Y87.485 E30.15309
G1 X104.115 Y87.602 E30.17201
G1 X104.532 Y87.877 E30.18871
G1 X104.701 Y88.045 E30.19668
G1 X104.917 Y88.37 E30.20972
G1 X105.006 Y88.585 E30.2175
G1 X105.094 Y89.025 E30.2325
G1 X105.094 Y113.071 E31.03627
G1 X105.006 Y113.51 E31.05124
G1 X104.917 Y113.725 E31.05901
G1 X104.701 Y114.05 E31.07206
G1 X104.532 Y114.218 E31.08002
G1 X104.108 Y114.498 E31.09701
M204 S2000
G1 F2280 E30.29701
G0 F7500 X104.166 Y114.793
G0 X94.957 Y115.191
G0 X92.671 Y125.339
G0 X92.595 Y126.175
G0 X92.91 Y126.355
G0 X93.294 Y126.883
G0 X93.432 Y127.524
G0 X93.308 Y128.1
G0 X92.299 Y129.489
G0 X92.269 Y129.19
M204 S500
G1 F2280 E31.09701
G1 F1200 X91.806 Y129.24 E31.11257
G1 X91.554 Y129.214 E31.12104
G1 X90.985 Y129.027 E31.14106
G1 X90.522 Y128.609 E31.16191
G1 X90.42 Y128.472 E31.16762
G1 F1230.8 X90.185 Y127.924 E31.18705
G1 F1256.5 X90.18 Y127.121 E31.21269
G1 F1224.5 X90.399 Y126.619 E31.23063
G1 F1200 X90.545 Y126.417 E31.23896
G1 X90.893 Y126.104 E31.25461
G1 X91.108 Y125.98 E31.2629
G1 X91.554 Y125.834 E31.27859
G1 X91.806 Y125.808 E31.28706
G1 X92.396 Y125.872 E31.30689
G1 X93.024 Y126.237 E31.33117
G1 X93.449 Y126.826 E31.35545
G1 X93.59 Y127.523 E31.37922
G1 X93.447 Y128.23 E31.40333
G1 X93.095 Y128.713 E31.42331
G1 X92.91 Y128.879 E31.43162
G1 X92.504 Y129.113 E31.44728
G1 X92.269 Y129.19 E31.45555
M204 S2000
G0 F7500 X92.299 Y129.489
G0 X90.99 Y129.429
M204 S500
G1 F1367.5 X90.812 Y129.34 E31.46139
G1 F1333.3 X90.576 Y129.181 E31.46995
G1 F1253.3 X90.375 Y129.007 E31.47846
M204 S2000
G0 F7500 X105.367 Y137.74
G0 X107.853 Y139.016
G0 X107.905 Y139.313
M204 S500
G1 F1200 X108.198 Y139.205 E31.48889
G1 X108.431 Y139.009 E31.49907
G1 X108.585 Y138.743 E31.50935
G1 X108.65 Y138.378 E31.52174
G1 X108.65 Y136.679 E31.57853
G1 F1081.1 X108.606 Y136.177 E31.59723
G1 F977.6 X108.604 Y135.837 E31.61118
G1 F1076.2 X108.65 Y135.368 E31.62874
G1 F1200 X108.65 Y81.633 E33.42491
G1 X108.599 Y81.31 E33.43584
G1 X108.473 Y81.064 E33.44508
G1 X108.273 Y80.864 E33.45454
G1 X108.024 Y80.737 E33.46388
G1 X107.702 Y80.685 E33.47478
G1 X90.798 Y80.685 E34.03982
G1 X90.476 Y80.737 E34.05072
G1 X90.227 Y80.864 E34.06007
G1 X90.027 Y81.064 E34.06952
G1 X89.902 Y81.31 E34.07875
G1 X89.85 Y81.633 E34.08968
G1 F1206 X89.849 Y96.744 E34.59226
G1 F1215.2 X89.848 Y111.855 E35.09106
G1 F1227.6 X89.847 Y126.966 E35.5848
G1 F1293.8 X89.827 Y127.289 E35.59483
G1 F1348.3 X89.829 Y127.89 E35.61271
G1 F1263.2 X89.851 Y128.643 E35.63663
G1 F1200 X89.914 Y128.994 E35.64855
G1 X90.069 Y129.264 E35.65896
G1 X90.353 Y129.501 E35.67132
G1 X104.64 Y137.69 E36.22177
G1 F1069 X105.07 Y137.881 E36.23943
G1 F965.8 X105.392 Y138.066 E36.25485
G1 F1071.4 X105.776 Y138.341 E36.27253
G1 F1200 X107.259 Y139.192 E36.32969
G1 X107.596 Y139.314 E36.34167
G1 X107.905 Y139.313 E36.352
M204 S2000
G0 F7500 X107.833 Y138.913
M204 S500
G1 F1200 X107.994 Y138.853 E36.35774
G1 X108.12 Y138.748 E36.36322
G1 X108.203 Y138.605 E36.36875
G1 X108.25 Y138.344 E36.37761
