;FLAVOR:Marlin
;TIME:3961
;Filament used: 2.92145m
;Layer height: 0.2
;MINX:57.7
;MINY:76.351
PRINT_START_SET MESH_MIN=57.7,76.351
;MINZ:0.2
;MAXX:162.3
;MAXY:143.351
PRINT_START_SET MESH_MAX=162.3,143.351
;MAXZ:13.4
;TARGET_MACHINE.NAME:Creality Ender-3 S1 Pro
;POSTPROCESSED
;Generated with Cura_SteamEngine 5.5.0
M82 ;absolute extrusion mode
M190 S0
M109 S0
_PRINT_START_PHASE_INIT EXTRUDER=230 BED=85 NOZZLE_SIZE=0.4
; Insert custom gcode here.
_PRINT_START_PHASE_PREHEAT
; Insert custom gcode here.
_PRINT_START_PHASE_PROBING
; Insert custom gcode here.
_PRINT_START_PHASE_EXTRUDER
; Insert custom gcode here.
_PRINT_START_PHASE_PURGE

; This is the place to put slicer purge lines if you haven't set a non-zero
; variable_start_purge_length to have START_PRINT automatically calculate and
; perform the purge (e.g. if using a Mosaic Palette, which requires the slicer
; to generate the purge).
G92 E0
G92 E0
G1 F2100 E-4
;LAYER_COUNT:67
INIT_LAYER_GCODE LAYERS=67
PRINT_START_SET LAYERS=67
;BEFORE_LAYER_CHANGE
;LAYER:0
BEFORE_LAYER_CHANGE LAYER=0
AFTER_LAYER_CHANGE
M107
M204 S2000
G0 F6000 X62.318 Y79.433 Z0.2
M204 S500
;TYPE:SKIRT
G1 F2100 E0
G1 F900 X63.026 Y78.873 E0.02852
G1 X63.781 Y78.364 E0.05729
G1 X64.643 Y77.856 E0.08891
G1 X65.586 Y77.412 E0.12184
G1 X65.85 Y77.303 E0.13087
G1 X67.159 Y76.859 E0.17454
G1 X67.577 Y76.746 E0.18822
G1 X68.528 Y76.54 E0.21897
G1 X69.424 Y76.424 E0.24752
G1 X70.136 Y76.385 E0.27005
G1 X71.76 Y76.351 E0.32137
G1 X149.071 Y76.357 E2.76418
G1 X149.577 Y76.369 E2.78017
G1 X150.119 Y76.395 E2.79732
G1 X151.12 Y76.49 E2.82909
G1 X151.945 Y76.637 E2.85556
G1 X152.276 Y76.71 E2.86627
G1 X153.149 Y76.942 E2.89482
G1 X154.078 Y77.277 E2.92602
G1 X154.415 Y77.417 E2.93755
G1 X155.661 Y78.031 E2.98144
G1 X155.956 Y78.201 E2.9922
G1 X156.799 Y78.74 E3.02382
G1 X157.688 Y79.438 E3.05953
G1 X157.981 Y79.695 E3.07184
G1 X159.096 Y80.818 E3.12185
G1 X159.984 Y81.972 E3.16786
G1 X160.17 Y82.25 E3.17842
G1 X160.659 Y83.051 E3.20808
G1 X161.1 Y83.94 E3.23943
G1 X161.269 Y84.324 E3.25269
G1 X161.596 Y85.166 E3.28123
G1 X161.828 Y85.936 E3.30664
G1 X161.922 Y86.297 E3.31843
G1 X162.127 Y87.267 E3.34975
G1 X162.265 Y88.608 E3.39235
G1 X162.3 Y89.687 E3.42646
G1 X162.294 Y130.132 E4.70441
G1 X162.256 Y131.161 E4.73694
G1 X162.161 Y132.168 E4.7689
G1 X162.024 Y132.946 E4.79386
G1 X161.952 Y133.28 E4.80466
G1 X161.702 Y134.223 E4.83548
G1 X161.356 Y135.175 E4.86749
G1 X161.213 Y135.516 E4.87917
G1 X160.633 Y136.69 E4.92055
G1 X160.432 Y137.039 E4.93327
G1 X159.922 Y137.834 E4.96312
G1 X159.136 Y138.826 E5.00311
G1 X158.751 Y139.255 E5.02132
G1 X158.066 Y139.948 E5.05211
G1 X157.326 Y140.574 E5.08274
G1 X156.634 Y141.069 E5.10962
G1 X156.234 Y141.332 E5.12475
G1 X155.458 Y141.794 E5.15328
G1 X154.451 Y142.273 E5.18852
G1 X154.143 Y142.401 E5.19905
G1 X153.267 Y142.72 E5.22851
G1 X152.413 Y142.96 E5.25654
G1 X151.446 Y143.168 E5.28779
G1 X150.137 Y143.31 E5.3294
G1 X148.987 Y143.351 E5.36576
G1 X71.049 Y143.347 E7.82837
G1 X70.528 Y143.335 E7.84484
G1 X69.837 Y143.301 E7.8667
G1 X68.84 Y143.204 E7.89835
G1 X68.09 Y143.072 E7.92241
G1 X67.786 Y143.007 E7.93224
G1 X66.842 Y142.758 E7.96308
G1 X65.855 Y142.4 E7.99626
G1 X65.557 Y142.275 E8.00647
G1 X64.309 Y141.655 E8.0505
G1 X64.008 Y141.481 E8.06149
G1 X63.184 Y140.951 E8.09244
G1 X62.344 Y140.293 E8.12616
G1 X62.036 Y140.023 E8.1391
G1 X61.34 Y139.357 E8.16954
G1 X60.813 Y138.769 E8.19449
G1 X60.21 Y138.011 E8.22509
G1 X59.692 Y137.24 E8.25444
G1 X59.216 Y136.43 E8.28413
G1 X58.759 Y135.461 E8.31798
G1 X58.625 Y135.131 E8.32923
G1 X58.206 Y133.89 E8.37062
G1 X58.101 Y133.502 E8.38332
G1 X57.895 Y132.549 E8.41413
G1 X57.774 Y131.597 E8.44445
G1 X57.713 Y130.639 E8.47478
G1 X57.7 Y130.013 E8.49457
G1 X57.704 Y89.699 E9.76837
G1 X57.716 Y89.177 E9.78487
G1 X57.75 Y88.487 E9.8067
G1 X57.847 Y87.488 E9.83841
G1 X57.993 Y86.672 E9.86461
G1 X58.061 Y86.368 E9.87445
G1 X58.314 Y85.428 E9.90521
G1 X58.632 Y84.557 E9.9345
G1 X58.784 Y84.193 E9.94697
G1 X59.388 Y82.97 E9.99007
G1 X59.54 Y82.706 E9.99969
G1 X60.089 Y81.85 E10.03183
G1 X60.766 Y80.986 E10.06651
G1 X61.041 Y80.671 E10.07972
G1 X61.665 Y80.019 E10.10824
G1 X62.318 Y79.433 E10.13596
M204 S2000
G0 F6000 X62.566 Y79.747
M204 S500
G1 F900 X63.274 Y79.187 E10.16448
G1 X64.004 Y78.696 E10.19228
G1 X64.814 Y78.218 E10.222
G1 X65.739 Y77.782 E10.25431
G1 X66.003 Y77.673 E10.26333
G1 X67.287 Y77.238 E10.30617
G1 X67.662 Y77.137 E10.31844
G1 X68.579 Y76.937 E10.3481
G1 X69.475 Y76.821 E10.37664
G1 X70.144 Y76.785 E10.39781
G1 X71.76 Y76.751 E10.44888
G1 X149.061 Y76.757 E12.89137
G1 X149.558 Y76.769 E12.90708
G1 X150.1 Y76.795 E12.92423
G1 X151.05 Y76.884 E12.95438
G1 X151.859 Y77.028 E12.98034
G1 X152.173 Y77.097 E12.9905
G1 X153.046 Y77.329 E13.01904
G1 X153.925 Y77.646 E13.04857
G1 X154.238 Y77.776 E13.05927
G1 X155.461 Y78.378 E13.10235
G1 X155.756 Y78.548 E13.1131
G1 X156.552 Y79.055 E13.14292
G1 X157.424 Y79.739 E13.17794
G1 X157.717 Y79.996 E13.19026
G1 X158.779 Y81.062 E13.2378
G1 X159.652 Y82.195 E13.28299
G1 X159.829 Y82.459 E13.29304
G1 X160.301 Y83.229 E13.32157
G1 X160.734 Y84.101 E13.35234
G1 X160.896 Y84.469 E13.36504
G1 X161.223 Y85.311 E13.39358
G1 X161.441 Y86.037 E13.41753
G1 X161.531 Y86.381 E13.42877
G1 X161.729 Y87.308 E13.45872
G1 X161.865 Y88.621 E13.50043
G1 X161.9 Y89.687 E13.53413
G1 X161.894 Y130.117 E14.8116
G1 X161.856 Y131.146 E14.84414
G1 X161.767 Y132.099 E14.87438
G1 X161.633 Y132.862 E14.89886
G1 X161.565 Y133.178 E14.90907
G1 X161.326 Y134.087 E14.93877
G1 X160.987 Y135.021 E14.97017
G1 X160.854 Y135.339 E14.98106
G1 X160.274 Y136.513 E15.02243
G1 X160.095 Y136.823 E15.03374
G1 X159.585 Y137.618 E15.06359
G1 X158.823 Y138.577 E15.10229
G1 X158.466 Y138.974 E15.11916
G1 X157.807 Y139.643 E15.14883
G1 X157.093 Y140.249 E15.17842
G1 X156.414 Y140.735 E15.20481
G1 X156.029 Y140.988 E15.21936
G1 X155.253 Y141.45 E15.2479
G1 X154.297 Y141.904 E15.28134
G1 X154.006 Y142.025 E15.2913
G1 X153.158 Y142.335 E15.31982
G1 X152.328 Y142.569 E15.34707
G1 X151.403 Y142.77 E15.37698
G1 X150.094 Y142.912 E15.41858
G1 X148.987 Y142.951 E15.45358
G1 X71.058 Y142.947 E17.91592
G1 X70.548 Y142.935 E17.93204
G1 X69.857 Y142.901 E17.9539
G1 X68.909 Y142.81 E17.98399
G1 X68.173 Y142.681 E18.0076
G1 X67.887 Y142.62 E18.01684
G1 X66.978 Y142.382 E18.04653
G1 X66.01 Y142.031 E18.07906
G1 X65.712 Y141.906 E18.08927
G1 X64.509 Y141.309 E18.13171
G1 X64.224 Y141.144 E18.14211
G1 X63.431 Y140.636 E18.17187
G1 X62.591 Y139.978 E18.20559
G1 X62.312 Y139.734 E18.2173
G1 X61.638 Y139.09 E18.24675
G1 X61.126 Y138.52 E18.27096
G1 X60.542 Y137.788 E18.30055
G1 X60.037 Y137.037 E18.32914
G1 X59.578 Y136.259 E18.35769
G1 X59.121 Y135.29 E18.39154
G1 X59.004 Y135.003 E18.40133
G1 X58.585 Y133.762 E18.44272
G1 X58.492 Y133.417 E18.45401
G1 X58.292 Y132.499 E18.4837
G1 X58.171 Y131.547 E18.51402
G1 X58.113 Y130.631 E18.54302
G1 X58.1 Y130.013 E18.56255
G1 X58.104 Y89.708 E19.83607
G1 X58.116 Y89.197 E19.85222
G1 X58.15 Y88.507 E19.87405
G1 X58.241 Y87.558 E19.90417
G1 X58.384 Y86.758 E19.92985
G1 X58.447 Y86.472 E19.93911
G1 X58.69 Y85.565 E19.96878
G1 X59.001 Y84.711 E19.99749
G1 X59.143 Y84.37 E20.00916
G1 X59.735 Y83.17 E20.05144
G1 X59.887 Y82.906 E20.06107
G1 X60.404 Y82.097 E20.09141
G1 X61.081 Y81.233 E20.12609
G1 X61.33 Y80.948 E20.13805
G1 X61.954 Y80.296 E20.16656
G1 X62.566 Y79.747 E20.19254
M204 S2000
G0 F6000 X62.814 Y80.061
M204 S500
G1 F900 X63.522 Y79.501 E20.22106
G1 X64.208 Y79.04 E20.24718
G1 X64.985 Y78.58 E20.27571
G1 X65.892 Y78.152 E20.3074
G1 X66.156 Y78.043 E20.31642
G1 X67.415 Y77.617 E20.35842
G1 X67.748 Y77.528 E20.36931
G1 X68.63 Y77.334 E20.39784
G1 X69.526 Y77.218 E20.42639
G1 X70.152 Y77.185 E20.4462
G1 X71.76 Y77.151 E20.49702
G1 X149.051 Y77.157 E22.93919
G1 X149.539 Y77.169 E22.95462
G1 X150.081 Y77.195 E22.97176
G1 X150.98 Y77.278 E23.00029
G1 X151.773 Y77.419 E23.02574
G1 X152.07 Y77.484 E23.03534
G1 X152.943 Y77.716 E23.06389
G1 X153.773 Y78.016 E23.09177
G1 X154.062 Y78.135 E23.10165
G1 X155.262 Y78.725 E23.1439
G1 X155.542 Y78.886 E23.1541
G1 X156.305 Y79.37 E23.18265
G1 X157.177 Y80.054 E23.21767
G1 X157.434 Y80.279 E23.22847
G1 X158.462 Y81.306 E23.27438
G1 X159.32 Y82.419 E23.31878
G1 X159.488 Y82.668 E23.32827
G1 X159.96 Y83.438 E23.35681
G1 X160.368 Y84.262 E23.38586
G1 X160.523 Y84.614 E23.39802
G1 X160.85 Y85.456 E23.42656
G1 X161.054 Y86.138 E23.44905
G1 X161.14 Y86.466 E23.45976
G1 X161.331 Y87.349 E23.48831
G1 X161.465 Y88.634 E23.52913
G1 X161.5 Y89.687 E23.56242
G1 X161.494 Y130.102 E24.83942
G1 X161.456 Y131.131 E24.87196
G1 X161.373 Y132.03 E24.90048
G1 X161.242 Y132.778 E24.92448
G1 X161.178 Y133.077 E24.93414
G1 X160.95 Y133.951 E24.96268
G1 X160.618 Y134.867 E24.99346
G1 X160.495 Y135.162 E25.00356
G1 X159.915 Y136.336 E25.04494
G1 X159.758 Y136.608 E25.05486
G1 X159.272 Y137.369 E25.08339
G1 X158.51 Y138.328 E25.1221
G1 X158.181 Y138.694 E25.13765
G1 X157.548 Y139.338 E25.16618
G1 X156.86 Y139.924 E25.19473
G1 X156.194 Y140.401 E25.22062
G1 X155.824 Y140.644 E25.2346
G1 X155.048 Y141.106 E25.26314
G1 X154.143 Y141.535 E25.29479
G1 X153.869 Y141.649 E25.30416
G1 X153.021 Y141.959 E25.33269
G1 X152.242 Y142.178 E25.35826
G1 X151.36 Y142.372 E25.38679
G1 X150.051 Y142.514 E25.4284
G1 X148.987 Y142.551 E25.46204
G1 X71.068 Y142.547 E27.92405
G1 X70.568 Y142.535 E27.93986
G1 X69.877 Y142.501 E27.96172
G1 X68.978 Y142.416 E27.99025
G1 X68.256 Y142.29 E28.01341
G1 X67.988 Y142.233 E28.02207
G1 X67.114 Y142.006 E28.0506
G1 X66.165 Y141.662 E28.08249
G1 X65.867 Y141.537 E28.0927
G1 X64.709 Y140.963 E28.13354
G1 X64.439 Y140.807 E28.14339
G1 X63.678 Y140.321 E28.17192
G1 X62.838 Y139.663 E28.20564
G1 X62.588 Y139.445 E28.21612
G1 X61.935 Y138.822 E28.24464
G1 X61.438 Y138.27 E28.26811
G1 X60.874 Y137.565 E28.29663
G1 X60.382 Y136.834 E28.32448
G1 X59.923 Y136.056 E28.35302
G1 X59.491 Y135.138 E28.38507
G1 X59.383 Y134.875 E28.39406
G1 X58.964 Y133.634 E28.43545
G1 X58.883 Y133.331 E28.44536
G1 X58.689 Y132.449 E28.47389
G1 X58.568 Y131.497 E28.50421
G1 X58.513 Y130.622 E28.53191
G1 X58.5 Y130.013 E28.55116
G1 X58.504 Y89.718 E29.82437
G1 X58.516 Y89.217 E29.8402
G1 X58.55 Y88.527 E29.86203
G1 X58.635 Y87.628 E29.89056
G1 X58.775 Y86.844 E29.91573
G1 X58.834 Y86.575 E29.92443
G1 X59.066 Y85.702 E29.95297
G1 X59.377 Y84.848 E29.98169
G1 X59.502 Y84.547 E29.99199
G1 X60.082 Y83.37 E30.03345
G1 X60.234 Y83.106 E30.04307
G1 X60.719 Y82.344 E30.07161
G1 X61.396 Y81.48 E30.1063
G1 X61.619 Y81.225 E30.117
G1 X62.243 Y80.573 E30.14551
G1 X62.814 Y80.061 E30.16975
M204 S2000
G1 F2100 E26.16975
;MESH:housingfront_revised.stl
G0 F6000 X70.324 Y87.116
G0 X70.721 Y88.17
G0 X85.157 Y88.859
M204 S500
;TYPE:WALL-INNER
G1 F2100 E30.16975
G1 F788.2 X85.348 Y88.852 E30.17894
G1 F800 X134.498 Y88.852 E32.50844
G1 F746.5 X135.121 Y88.894 E32.54016
M204 S2000
G1 F2100 E28.54016
G0 F6000 X136.307 Y90.011
G0 X136.621 Y90.615
G0 X137.485 Y95.884
G0 X136.704 Y130.369
G0 X149.38 Y131.042
G0 X149.403 Y131.351
M204 S500
G1 F2100 E32.54016
G1 F1200 X149.609 Y131.298 E32.54688
G1 X149.903 Y131.143 E32.55738
G1 X150.158 Y130.878 E32.569
G1 X150.3 Y130.526 E32.58099
G1 X150.3 Y89.249 E33.88523
G1 X150.247 Y89.043 E33.89195
G1 X150.093 Y88.748 E33.90246
G1 X149.826 Y88.494 E33.91411
G1 X149.481 Y88.352 E33.92589
G1 X70.604 Y88.351 E36.41818
G1 X70.39 Y88.406 E36.42516
G1 X70.038 Y88.59 E36.43771
G1 X69.803 Y88.919 E36.45049
G1 X69.7 Y89.261 E36.46177
G1 X69.7 Y130.454 E37.76335
G1 X69.753 Y130.66 E37.77007
G1 X69.908 Y130.954 E37.78058
G1 X70.174 Y131.21 E37.79224
G1 X70.522 Y131.352 E37.80412
G1 X149.403 Y131.351 E40.29653
M204 S2000
G0 F6000 X149.38 Y131.042
G0 X136.243 Y130.551
M204 S500
G1 F1200 X149.302 Y130.551 E40.70916
G1 X149.464 Y130.46 E40.71503
G1 X149.5 Y130.352 E40.71863
G1 X149.5 Y89.35 E42.01417
G1 X149.429 Y89.202 E42.01936
G1 X149.302 Y89.152 E42.02367
G1 X136.232 Y89.152 E42.43664
G1 X136.602 Y89.512 E42.45296
G1 X136.869 Y89.872 E42.46712
G1 X137.073 Y90.266 E42.48114
G1 X137.191 Y90.581 E42.49177
G1 X137.26 Y90.865 E42.501
G1 X137.299 Y91.196 E42.51153
G1 X137.299 Y128.502 E43.69029
G1 X137.26 Y128.832 E43.70079
G1 X137.191 Y129.121 E43.71018
G1 X137.081 Y129.42 E43.72025
G1 X136.895 Y129.788 E43.73328
G1 X136.648 Y130.137 E43.74679
G1 X136.243 Y130.551 E43.76509
M204 S2000
G0 F6000 X134.843 Y130.843
M204 S500
G1 F932 X135.212 Y130.944 E43.78065
G1 F1167.9 X142.283 Y130.947 E44.01022
G1 F1191.1 X149.354 Y130.951 E44.23532
G1 F1200 X149.676 Y130.811 E44.24641
G1 X149.811 Y130.669 E44.2526
G1 X149.9 Y130.399 E44.26158
G1 X149.9 Y89.299 E45.56023
G1 X149.76 Y88.976 E45.57135
G1 X149.617 Y88.841 E45.57756
G1 X149.348 Y88.752 E45.58652
G1 X135.887 Y88.752 E46.01185
G1 F1159.4 X135.477 Y88.766 E46.02526
G1 F861.8 X135.121 Y88.894 E46.04191
G1 X135.394 Y89.116 E46.05739
G1 F1159.4 X135.755 Y89.312 E46.07082
G1 F1200 X136.004 Y89.489 E46.08047
G1 X136.323 Y89.799 E46.09453
G1 X136.514 Y90.056 E46.10465
G1 X136.773 Y90.558 E46.1225
G1 X136.899 Y91.068 E46.13909
G1 X136.899 Y128.627 E47.32585
G1 X136.775 Y129.137 E47.34244
G1 X136.538 Y129.609 E47.35912
G1 X136.361 Y129.858 E47.36878
G1 X136.053 Y130.174 E47.38272
G1 X135.798 Y130.363 E47.39275
G1 X135.402 Y130.569 E47.40685
G1 F1179.4 X135.178 Y130.661 E47.41464
G1 F932 X134.843 Y130.843 E47.43015
G1 F789.5 X134.652 Y130.851 E47.43933
G1 F800 X85.349 Y130.851 E49.77608
G1 F779.2 X85.086 Y130.835 E49.7889
M204 S2000
G0 F6000 X83.767 Y130.55
M204 S500
G1 F1200 X83.398 Y130.19 E49.80519
G1 X83.133 Y129.834 E49.81921
G1 X82.927 Y129.438 E49.83332
G1 X82.809 Y129.122 E49.84397
G1 X82.739 Y128.834 E49.85334
G1 X82.7 Y128.503 E49.86387
G1 X82.701 Y91.201 E51.04251
G1 X82.74 Y90.871 E51.05301
G1 X82.809 Y90.582 E51.06239
G1 X82.919 Y90.282 E51.07249
G1 X83.104 Y89.914 E51.0855
G1 X83.352 Y89.566 E51.09901
G1 X83.756 Y89.152 E51.11728
G1 X70.704 Y89.151 E51.52969
G1 X70.578 Y89.211 E51.5341
G1 X70.5 Y89.32 E51.53834
G1 X70.5 Y130.353 E52.83486
G1 X70.592 Y130.516 E52.84077
G1 X70.698 Y130.552 E52.84431
G1 X83.767 Y130.55 E53.25725
M204 S2000
G0 F6000 X85.086 Y130.835
M204 S500
G1 F880.7 X84.817 Y130.681 E53.2706
G1 F1118.9 X84.242 Y130.39 E53.29244
G1 F1200 X83.993 Y130.212 E53.30211
G1 X83.677 Y129.904 E53.31605
G1 X83.488 Y129.649 E53.32608
G1 X83.228 Y129.149 E53.34389
G1 X83.1 Y128.631 E53.36075
G1 X83.101 Y91.076 E54.54738
G1 X83.225 Y90.566 E54.56396
G1 X83.462 Y90.094 E54.58065
G1 X83.639 Y89.845 E54.5903
G1 X83.947 Y89.529 E54.60425
G1 X84.202 Y89.34 E54.61427
G1 X84.598 Y89.134 E54.62838
G1 F1179.4 X84.822 Y89.042 E54.63616
G1 F930.2 X85.157 Y88.859 E54.65172
G1 X84.788 Y88.759 E54.66731
G1 F1179.4 X84.505 Y88.751 E54.67641
G1 F1200 X70.654 Y88.751 E55.11406
G1 X70.321 Y88.893 E55.1255
G1 X70.156 Y89.113 E55.13419
G1 X70.1 Y89.307 E55.14057
G1 X70.1 Y130.404 E56.43912
G1 X70.24 Y130.727 E56.45024
G1 X70.383 Y130.863 E56.45647
G1 X70.652 Y130.952 E56.46543
G1 X84.521 Y130.951 E56.90365
G1 F1118.9 X84.789 Y130.923 E56.91278
G1 F880.7 X85.086 Y130.835 E56.92611
M204 S2000
G1 F2100 E52.92611
G0 F6000 X134.722 Y130.65
G0 X134.723 Y130.351
M204 S500
G1 F2100 E56.92611
G1 F1200 X85.277 Y130.351 E58.48847
G1 X84.851 Y130.248 E58.50231
G1 X84.341 Y129.991 E58.52036
G1 X83.887 Y129.549 E58.54038
G1 X83.603 Y129.002 E58.55985
G1 X83.5 Y128.579 E58.57361
G1 X83.501 Y91.125 E59.75705
G1 X83.603 Y90.703 E59.77077
G1 X83.86 Y90.193 E59.78881
G1 X84.301 Y89.739 E59.80881
G1 X84.845 Y89.457 E59.82817
G1 X85.277 Y89.352 E59.84222
G1 X134.551 Y89.352 E61.39914
G1 F1203 X135.127 Y89.445 E61.41753
G1 X135.66 Y89.713 E61.43633
G1 X136.113 Y90.153 E61.45623
G1 X136.397 Y90.701 E61.47569
G1 F1200 X136.499 Y91.12 E61.48931
G1 X136.499 Y128.578 E62.67288
G1 X136.397 Y129 E62.6866
G1 X136.14 Y129.51 E62.70464
G1 X135.697 Y129.965 E62.72471
G1 X135.157 Y130.246 E62.74394
G1 X134.723 Y130.351 E62.75805
M204 S2000
G0 F6000 X134.687 Y129.949
M204 S500
;TYPE:WALL-OUTER
G1 F1200 X85.349 Y129.951 E64.31699
G1 X85.012 Y129.875 E64.3279
G1 X84.574 Y129.66 E64.34332
G1 X84.212 Y129.308 E64.35927
G1 X83.975 Y128.839 E64.37588
G1 X83.905 Y128.551 E64.38524
