;FLAVOR:Marlin
;TIME:3098
;Filament used: 2.41082m
;Layer height: 0.2
;MINX:1.502
;MINY:96.185
PRINT_START_SET MESH_MIN=1.502,96.185
;MINZ:0.2
;MAXX:218.49
;MAXY:122.485
PRINT_START_SET MESH_MAX=218.49,122.485
;MAXZ:10.6
;TARGET_MACHINE.NAME:Creality Ender-3 S1 Pro
;POSTPROCESSED
;Generated with Cura_SteamEngine 5.5.0
M82 ;absolute extrusion mode
M190 S0
M109 S0
_PRINT_START_PHASE_INIT EXTRUDER=230 BED=85 NOZZLE_SIZE=0.4
; Insert custom gcode here.
_PRINT_START_PHASE_PREHEAT
; Insert custom gcode here.
_PRINT_START_PHASE_PROBING
; Insert custom gcode here.
_PRINT_START_PHASE_EXTRUDER
; Insert custom gcode here.
_PRINT_START_PHASE_PURGE

; This is the place to put slicer purge lines if you haven't set a non-zero
; variable_start_purge_length to have START_PRINT automatically calculate and
; perform the purge (e.g. if using a Mosaic Palette, which requires the slicer
; to generate the purge).
G92 E0
G92 E0
G1 F2100 E-4
;LAYER_COUNT:53
INIT_LAYER_GCODE LAYERS=53
PRINT_START_SET LAYERS=53
;BEFORE_LAYER_CHANGE
;LAYER:0
BEFORE_LAYER_CHANGE LAYER=0
AFTER_LAYER_CHANGE
M107
M204 S2000
G0 F6000 X13.621 Y96.327 Z0.2
M204 S500
;TYPE:SKIRT
G1 F2100 E0
G1 F900 X14.865 Y96.212 E0.03947
G1 X15.753 Y96.187 E0.06754
G1 X203.803 Y96.185 E6.00938
G1 X204.765 Y96.199 E6.03978
G1 X205.638 Y96.243 E6.0674
G1 X206.44 Y96.332 E6.0929
G1 X206.765 Y96.382 E6.10329
G1 X207.89 Y96.616 E6.1396
G1 X208.267 Y96.716 E6.15192
G1 X209.562 Y97.148 E6.19506
G1 X210.012 Y97.331 E6.21041
G1 X210.89 Y97.734 E6.24093
G1 X211.504 Y98.075 E6.26312
G1 X211.759 Y98.227 E6.2725
G1 X212.323 Y98.59 E6.29369
G1 X212.595 Y98.776 E6.30411
G1 X213.316 Y99.319 E6.33263
G1 X213.925 Y99.853 E6.35822
G1 X214.419 Y100.331 E6.37994
G1 X214.683 Y100.604 E6.39194
G1 X215.321 Y101.325 E6.42236
G1 X215.72 Y101.848 E6.44314
G1 X216.043 Y102.301 E6.46072
G1 X216.553 Y103.088 E6.49035
G1 X216.996 Y103.919 E6.52011
G1 X217.233 Y104.418 E6.53757
G1 X217.61 Y105.313 E6.56825
G1 X217.885 Y106.155 E6.59624
G1 X218.038 Y106.701 E6.61416
G1 X218.251 Y107.617 E6.64387
G1 X218.394 Y108.649 E6.67679
G1 X218.446 Y109.213 E6.69469
G1 X218.488 Y110.141 E6.72404
G1 X218.49 Y110.852 E6.7465
G1 X218.447 Y111.825 E6.77728
G1 X218.33 Y112.721 E6.80583
G1 X218.102 Y113.74 E6.83882
G1 X217.805 Y114.667 E6.86958
G1 X217.445 Y115.528 E6.89907
G1 X217.158 Y116.097 E6.9192
G1 X216.956 Y116.467 E6.93252
G1 X216.451 Y117.3 E6.9633
G1 X215.875 Y118.084 E6.99404
G1 X215.23 Y118.817 E7.02489
G1 X214.517 Y119.494 E7.05596
G1 X214.285 Y119.695 E7.06566
G1 X213.549 Y120.277 E7.09531
G1 X212.705 Y120.831 E7.12721
G1 X211.845 Y121.29 E7.15801
G1 X210.986 Y121.656 E7.18751
G1 X210.078 Y121.961 E7.21778
G1 X209.138 Y122.214 E7.24854
G1 X208.209 Y122.377 E7.27834
G1 X206.927 Y122.472 E7.31896
G1 X205.729 Y122.485 E7.35681
G1 X204.975 Y122.472 E7.38064
G1 X204.013 Y122.412 E7.41109
G1 X203.337 Y122.319 E7.43266
G1 X200.346 Y121.811 E7.52852
G1 X197.854 Y121.466 E7.60801
G1 X195.36 Y121.19 E7.68729
G1 X192.827 Y120.982 E7.7676
G1 X190.385 Y120.853 E7.84486
G1 X186.745 Y120.782 E7.9599
G1 X33.265 Y120.781 E12.80943
G1 X30.681 Y120.818 E12.89108
G1 X28.113 Y120.927 E12.9723
G1 X25.645 Y121.102 E13.05047
G1 X23.164 Y121.348 E13.12925
G1 X20.66 Y121.668 E13.20901
G1 X16.612 Y122.331 E13.33862
G1 X15.656 Y122.444 E13.36904
G1 X15.027 Y122.471 E13.38893
G1 X14.056 Y122.485 E13.41962
G1 X13.042 Y122.475 E13.45166
G1 X12.071 Y122.419 E13.48239
G1 X11.136 Y122.282 E13.51225
G1 X9.863 Y121.963 E13.55372
G1 X8.757 Y121.562 E13.59089
G1 X7.88 Y121.15 E13.6215
G1 X7.16 Y120.737 E13.64773
G1 X6.909 Y120.578 E13.65712
G1 X6.109 Y120.024 E13.68787
G1 X5.386 Y119.423 E13.71757
G1 X4.675 Y118.715 E13.74928
G1 X4.089 Y118.028 E13.77781
G1 X3.493 Y117.224 E13.80943
G1 X2.985 Y116.393 E13.84021
G1 X2.554 Y115.522 E13.87091
G1 X2.225 Y114.688 E13.89924
G1 X2.1 Y114.324 E13.9114
G1 X1.824 Y113.39 E13.94217
G1 X1.643 Y112.505 E13.97072
G1 X1.525 Y111.469 E14.00366
G1 X1.502 Y110.564 E14.03227
G1 X1.513 Y109.998 E14.05016
G1 X1.548 Y109.288 E14.07262
G1 X1.596 Y108.728 E14.09038
G1 X1.723 Y107.765 E14.12107
G1 X1.909 Y106.914 E14.14859
G1 X2.047 Y106.389 E14.16574
G1 X2.334 Y105.461 E14.19644
G1 X2.656 Y104.665 E14.22357
G1 X2.878 Y104.175 E14.24056
G1 X3.329 Y103.291 E14.27192
G1 X3.846 Y102.467 E14.30266
G1 X4.172 Y101.995 E14.32078
G1 X4.763 Y101.22 E14.35158
G1 X5.382 Y100.539 E14.38066
G1 X5.779 Y100.137 E14.39851
G1 X6.464 Y99.505 E14.42796
G1 X6.97 Y99.102 E14.4484
G1 X7.364 Y98.807 E14.46395
G1 X8.171 Y98.26 E14.49475
G1 X9.02 Y97.786 E14.52548
G1 X9.463 Y97.566 E14.54111
G1 X10.347 Y97.174 E14.57166
G1 X11.023 Y96.935 E14.59432
G1 X11.517 Y96.779 E14.61069
G1 X12.45 Y96.53 E14.6412
G1 X13.17 Y96.395 E14.66434
G1 X13.621 Y96.327 E14.67875
M204 S2000
G0 F6000 X13.681 Y96.723
M204 S500
G1 F900 X14.876 Y96.612 E14.71668
G1 X15.753 Y96.587 E14.7444
G1 X203.798 Y96.585 E20.68608
G1 X204.745 Y96.598 E20.71601
G1 X205.594 Y96.641 E20.74287
G1 X206.396 Y96.73 E20.76836
G1 X206.684 Y96.774 E20.77757
G1 X207.787 Y97.003 E20.81316
G1 X208.164 Y97.103 E20.82549
G1 X209.412 Y97.519 E20.86705
G1 X209.846 Y97.695 E20.88185
G1 X210.696 Y98.084 E20.91139
G1 X211.299 Y98.419 E20.93318
G1 X211.554 Y98.571 E20.94256
G1 X212.097 Y98.92 E20.96296
G1 X212.354 Y99.096 E20.9728
G1 X213.075 Y99.639 E21.00132
G1 X213.647 Y100.141 E21.02537
G1 X214.132 Y100.609 E21.04666
G1 X214.384 Y100.869 E21.0581
G1 X215.003 Y101.567 E21.08758
G1 X215.394 Y102.08 E21.10796
G1 X215.707 Y102.519 E21.125
G1 X216.217 Y103.306 E21.15463
G1 X216.635 Y104.091 E21.18273
G1 X216.865 Y104.574 E21.19963
G1 X217.23 Y105.437 E21.22924
G1 X217.5 Y106.263 E21.2567
G1 X217.648 Y106.792 E21.27406
G1 X217.861 Y107.708 E21.30377
G1 X217.996 Y108.686 E21.33497
G1 X218.046 Y109.231 E21.35226
G1 X218.088 Y110.142 E21.38107
G1 X218.09 Y110.835 E21.40297
G1 X218.05 Y111.773 E21.43264
G1 X217.933 Y112.669 E21.46119
G1 X217.721 Y113.619 E21.49194
G1 X217.436 Y114.513 E21.52159
G1 X217.076 Y115.374 E21.55108
G1 X216.807 Y115.906 E21.56992
G1 X216.614 Y116.26 E21.58266
G1 X216.128 Y117.064 E21.61234
G1 X215.574 Y117.82 E21.64196
G1 X214.954 Y118.527 E21.67167
G1 X214.255 Y119.192 E21.70215
G1 X214.037 Y119.381 E21.71127
G1 X213.301 Y119.963 E21.74092
G1 X212.516 Y120.478 E21.77058
G1 X211.688 Y120.922 E21.80027
G1 X210.829 Y121.288 E21.82977
G1 X209.974 Y121.575 E21.85827
G1 X209.068 Y121.82 E21.88792
G1 X208.179 Y121.978 E21.91645
G1 X206.923 Y122.072 E21.95625
G1 X205.736 Y122.085 E21.99376
G1 X204.999 Y122.073 E22.01705
G1 X204.067 Y122.016 E22.04655
G1 X203.404 Y121.925 E22.0677
G1 X200.401 Y121.415 E22.16394
G1 X197.898 Y121.068 E22.24379
G1 X195.401 Y120.792 E22.32316
G1 X192.86 Y120.584 E22.40372
G1 X190.393 Y120.453 E22.48178
G1 X186.753 Y120.382 E22.59682
G1 X33.259 Y120.381 E27.44679
G1 X30.664 Y120.418 E27.52879
G1 X28.096 Y120.527 E27.61
G1 X25.614 Y120.703 E27.68862
G1 X23.113 Y120.951 E27.76804
G1 X20.601 Y121.272 E27.84805
G1 X16.565 Y121.934 E27.97728
G1 X15.639 Y122.044 E28.00675
G1 X15.021 Y122.071 E28.02629
G1 X14.06 Y122.085 E28.05666
G1 X13.065 Y122.076 E28.0881
G1 X12.129 Y122.023 E28.11773
G1 X11.194 Y121.886 E28.14758
G1 X9.961 Y121.575 E28.18776
G1 X8.927 Y121.2 E28.22252
G1 X8.079 Y120.803 E28.2521
G1 X7.373 Y120.398 E28.27782
G1 X7.136 Y120.249 E28.28667
G1 X6.365 Y119.716 E28.31628
G1 X5.642 Y119.115 E28.34599
G1 X4.979 Y118.455 E28.37555
G1 X4.393 Y117.768 E28.40408
G1 X3.834 Y117.015 E28.43371
G1 X3.343 Y116.215 E28.46337
G1 X2.926 Y115.375 E28.493
G1 X2.603 Y114.558 E28.52076
G1 X2.483 Y114.21 E28.53239
G1 X2.216 Y113.31 E28.56205
G1 X2.035 Y112.425 E28.5906
G1 X1.925 Y111.459 E28.62132
G1 X1.902 Y110.571 E28.64938
G1 X1.912 Y110.018 E28.66686
G1 X1.947 Y109.322 E28.68888
G1 X1.993 Y108.78 E28.70607
G1 X2.114 Y107.85 E28.7357
G1 X2.296 Y107.015 E28.7627
G1 X2.429 Y106.507 E28.7793
G1 X2.705 Y105.611 E28.80892
G1 X3.021 Y104.83 E28.83554
G1 X3.235 Y104.356 E28.85197
G1 X3.668 Y103.503 E28.8822
G1 X4.175 Y102.694 E28.91237
G1 X4.491 Y102.237 E28.92992
G1 X5.059 Y101.489 E28.9596
G1 X5.667 Y100.82 E28.98816
G1 X6.051 Y100.431 E29.00543
G1 X6.714 Y99.818 E29.03396
G1 X7.21 Y99.422 E29.05402
G1 X7.589 Y99.138 E29.06898
G1 X8.366 Y98.609 E29.09868
G1 X9.198 Y98.144 E29.1288
G1 X9.626 Y97.931 E29.14391
G1 X10.48 Y97.551 E29.17344
G1 X11.144 Y97.316 E29.1957
G1 X11.621 Y97.165 E29.21151
G1 X12.524 Y96.923 E29.24104
G1 X13.23 Y96.791 E29.26374
G1 X13.681 Y96.723 E29.27815
M204 S2000
G0 F6000 X13.741 Y97.119
M204 S500
G1 F900 X14.888 Y97.012 E29.31455
G1 X15.753 Y96.987 E29.34189
G1 X203.793 Y96.985 E35.28342
G1 X204.725 Y96.997 E35.31287
G1 X205.55 Y97.039 E35.33897
G1 X206.337 Y97.126 E35.36399
G1 X206.603 Y97.166 E35.37249
G1 X207.685 Y97.39 E35.4074
G1 X208.038 Y97.483 E35.41893
G1 X209.262 Y97.89 E35.45969
G1 X209.68 Y98.059 E35.47394
G1 X210.502 Y98.434 E35.50248
G1 X211.094 Y98.762 E35.52387
G1 X211.338 Y98.908 E35.53285
G1 X211.871 Y99.25 E35.55286
G1 X212.113 Y99.416 E35.56214
G1 X212.834 Y99.959 E35.59066
G1 X213.369 Y100.429 E35.61316
G1 X213.845 Y100.888 E35.63405
G1 X214.085 Y101.135 E35.64493
G1 X214.685 Y101.81 E35.67347
G1 X215.069 Y102.313 E35.69346
G1 X215.372 Y102.737 E35.70993
G1 X215.864 Y103.494 E35.73846
G1 X216.274 Y104.264 E35.76602
G1 X216.497 Y104.73 E35.78235
G1 X216.85 Y105.561 E35.81087
G1 X217.115 Y106.371 E35.8378
G1 X217.259 Y106.883 E35.85461
G1 X217.465 Y107.763 E35.88316
G1 X217.598 Y108.722 E35.91376
G1 X217.646 Y109.25 E35.93051
G1 X217.688 Y110.143 E35.95876
G1 X217.69 Y110.819 E35.98012
G1 X217.653 Y111.721 E36.00864
G1 X217.536 Y112.617 E36.03719
G1 X217.34 Y113.498 E36.06571
G1 X217.067 Y114.359 E36.09425
G1 X216.719 Y115.193 E36.1228
G1 X216.455 Y115.715 E36.14129
G1 X216.271 Y116.054 E36.15347
G1 X215.805 Y116.828 E36.18202
G1 X215.273 Y117.557 E36.21054
G1 X214.678 Y118.237 E36.23909
G1 X213.993 Y118.89 E36.26899
G1 X213.788 Y119.068 E36.27757
G1 X213.081 Y119.629 E36.30608
G1 X212.327 Y120.126 E36.33462
G1 X211.531 Y120.554 E36.36318
G1 X210.701 Y120.909 E36.3917
G1 X209.869 Y121.189 E36.41944
G1 X208.998 Y121.426 E36.44796
G1 X208.109 Y121.584 E36.47649
G1 X206.919 Y121.672 E36.51419
G1 X205.742 Y121.685 E36.55138
G1 X205.023 Y121.674 E36.5741
G1 X204.121 Y121.62 E36.60266
G1 X203.471 Y121.531 E36.62339
G1 X200.456 Y121.019 E36.72002
G1 X197.942 Y120.67 E36.80021
G1 X195.441 Y120.394 E36.87972
G1 X192.893 Y120.186 E36.96049
G1 X190.401 Y120.053 E37.03935
G1 X186.761 Y119.982 E37.15438
G1 X33.253 Y119.981 E42.00479
G1 X30.647 Y120.018 E42.08714
G1 X28.079 Y120.127 E42.16836
G1 X25.579 Y120.304 E42.24755
G1 X23.062 Y120.554 E42.32747
G1 X20.542 Y120.876 E42.40774
G1 X16.518 Y121.537 E42.53659
G1 X15.621 Y121.644 E42.56514
G1 X15.015 Y121.671 E42.5843
G1 X14.063 Y121.685 E42.61439
G1 X13.087 Y121.677 E42.64523
G1 X12.186 Y121.627 E42.67374
G1 X11.292 Y121.498 E42.70228
G1 X10.059 Y121.187 E42.74246
G1 X9.096 Y120.838 E42.77482
G1 X8.278 Y120.456 E42.80335
G1 X7.585 Y120.059 E42.82859
G1 X7.363 Y119.92 E42.83686
G1 X6.62 Y119.408 E42.86537
G1 X5.924 Y118.831 E42.89394
G1 X5.283 Y118.195 E42.92247
G1 X4.714 Y117.529 E42.95015
G1 X4.175 Y116.805 E42.97867
G1 X3.701 Y116.036 E43.00721
G1 X3.298 Y115.228 E43.03574
G1 X2.981 Y114.427 E43.06296
G1 X2.866 Y114.096 E43.07403
G1 X2.608 Y113.23 E43.10258
G1 X2.427 Y112.345 E43.13113
G1 X2.325 Y111.448 E43.15965
G1 X2.302 Y110.578 E43.18715
G1 X2.311 Y110.038 E43.20422
G1 X2.346 Y109.355 E43.22582
G1 X2.39 Y108.831 E43.24244
G1 X2.505 Y107.935 E43.27098
G1 X2.683 Y107.116 E43.29747
G1 X2.811 Y106.624 E43.31353
G1 X3.076 Y105.761 E43.34205
G1 X3.386 Y104.995 E43.36816
G1 X3.6 Y104.521 E43.3846
G1 X4.007 Y103.715 E43.41313
G1 X4.504 Y102.921 E43.44272
G1 X4.81 Y102.478 E43.45974
G1 X5.355 Y101.758 E43.48827
G1 X5.951 Y101.101 E43.5163
G1 X6.323 Y100.725 E43.53301
G1 X6.986 Y100.112 E43.56154
G1 X7.45 Y99.742 E43.58029
G1 X7.815 Y99.468 E43.59471
G1 X8.561 Y98.958 E43.62327
G1 X9.377 Y98.502 E43.6528
G1 X9.789 Y98.296 E43.66736
G1 X10.614 Y97.928 E43.6959
G1 X11.265 Y97.697 E43.71773
G1 X11.725 Y97.551 E43.73298
G1 X12.597 Y97.316 E43.76151
G1 X13.29 Y97.187 E43.78378
G1 X13.741 Y97.119 E43.7982
M204 S2000
G1 F2100 E39.7982
;MESH:TankShield(1).STL
G0 F6000 X14.906 Y106.572
G0 X15.049 Y107.646
G0 X14.723 Y108.846
M204 S500
;TYPE:WALL-INNER
G1 F2100 E43.7982
G1 F930.2 X14.611 Y108.934 E43.804
G1 F834.8 X14.293 Y109.304 E43.82616
G1 F769.2 X14.109 Y109.688 E43.84715
G1 F766.8 X14.041 Y109.921 E43.85915
M204 S2000
G1 F2100 E39.85915
G0 F6000 X15.454 Y109.009
G0 X16.08 Y108.788
G0 X204.07 Y108.788
G0 X204.769 Y109.172
G0 X205.071 Y109.559
G0 X205.495 Y110.433
M204 S500
G1 F2100 E43.85915
G1 F1200 X206.519 Y110.43 E43.89151
G1 X206.465 Y109.839 E43.91026
G1 X206.378 Y109.512 E43.92095
G1 X206.225 Y109.183 E43.93242
G1 X206.031 Y108.906 E43.9431
G1 X205.723 Y108.599 E43.95684
G1 X205.427 Y108.41 E43.96794
G1 X205.089 Y108.272 E43.97947
G1 X204.749 Y108.199 E43.99046
G1 X204.462 Y108.186 E43.99954
G1 F1170.7 X203.854 Y108.196 E44.01923
G1 F1142.9 X185.07 Y108.196 E44.64243
G1 F1140.1 X166.286 Y108.196 E45.26711
G1 F1137.4 X147.502 Y108.197 E45.89328
G1 F1134.8 X128.718 Y108.197 E46.52092
G1 F1132.1 X109.934 Y108.197 E47.15005
G1 F1129.4 X91.15 Y108.198 E47.78067
G1 F1126.8 X72.366 Y108.198 E48.41277
G1 F1124.1 X53.582 Y108.199 E49.04635
G1 F1121.5 X34.798 Y108.199 E49.68142
G1 F1118.9 X16.014 Y108.199 E50.31797
G1 F1137.4 X15.419 Y108.183 E50.33781
G1 F1179.4 X14.955 Y108.248 E50.35287
G1 F1200 X14.499 Y108.456 E50.36871
G1 X14.24 Y108.635 E50.37866
G1 X13.97 Y108.906 E50.39075
G1 X13.776 Y109.184 E50.40146
G1 X13.623 Y109.512 E50.41289
G1 X13.535 Y109.84 E50.42362
G1 X13.481 Y110.433 E50.44244
G1 X14.503 Y110.429 E50.47473
G1 X14.546 Y109.959 E50.48964
G1 X14.876 Y109.32 E50.51237
G1 F1191.1 X15.352 Y108.878 E50.53305
G1 F1167.9 X16.019 Y108.627 E50.55618
G1 F1148.3 X16.223 Y108.617 E50.56293
G1 F1142.9 X203.854 Y108.616 E56.78796
G1 F1170.7 X204.324 Y108.741 E56.80371
G1 F1200 X204.863 Y109.042 E56.82322
G1 X205.276 Y109.557 E56.84408
G1 X205.449 Y110.056 E56.86076
G1 X205.495 Y110.433 E56.87276
M204 S2000
G1 F2100 E52.87276
G0 F6000 X205.142 Y109.65
G0 X204.769 Y109.172
G0 X204.07 Y108.788
G0 X16.08 Y108.788
G0 X15.454 Y109.009
G0 X15.015 Y109.407
G0 X14.752 Y109.904
G0 X14.617 Y110.551
G0 X14.828 Y110.769
M204 S500
G1 F2100 E56.87276
G1 F1200 X14.892 Y110.653 E56.87695
G1 X14.923 Y110.093 E56.89467
G1 X15.212 Y109.553 E56.91402
G1 X15.574 Y109.218 E56.92961
G1 X16.143 Y109.027 E56.94857
G1 X203.854 Y109.026 E62.8797
G1 X204.136 Y109.095 E62.88887
G1 X204.602 Y109.353 E62.9057
G1 X204.923 Y109.756 E62.92198
G1 X205.082 Y110.216 E62.93736
G1 X205.108 Y110.674 E62.95186
G1 X205.149 Y110.745 E62.95445
G1 X205.29 Y110.834 E62.95972
G1 X206.678 Y110.83 E63.00357
G1 X206.845 Y110.755 E63.00936
G1 X206.9 Y110.647 E63.01319
G1 X206.9 Y110.198 E63.02737
G1 X206.861 Y109.769 E63.04099
G1 X206.755 Y109.375 E63.05388
G1 X206.573 Y108.983 E63.06753
G1 X206.338 Y108.648 E63.08046
G1 X205.972 Y108.283 E63.0968
G1 X205.611 Y108.053 E63.11032
G1 X205.208 Y107.888 E63.12408
G1 X204.81 Y107.801 E63.13695
G1 X204.462 Y107.786 E63.14796
G1 X15.369 Y107.787 E69.12275
G1 X14.966 Y107.842 E69.13561
G1 X14.693 Y107.928 E69.14465
G1 X14.299 Y108.109 E69.15835
G1 X13.976 Y108.333 E69.17077
G1 X13.662 Y108.648 E69.18482
G1 X13.428 Y108.983 E69.19773
G1 X13.245 Y109.375 E69.2114
G1 X13.139 Y109.77 E69.22433
G1 X13.1 Y110.2 E69.23797
G1 X13.1 Y110.621 E69.25127
G1 X13.178 Y110.778 E69.25681
G1 X13.291 Y110.834 E69.2608
G1 X14.714 Y110.829 E69.30576
G1 X14.828 Y110.769 E69.30983
M204 S2000
G1 F2100 E65.30983
G0 F6000 X14.617 Y110.551
G0 X14.69 Y110.02
G0 X15.015 Y109.407
G0 X15.454 Y109.009
G0 X16.08 Y108.788
G0 X204.07 Y108.788
G0 X205.449 Y109.002
M204 S500
G1 F2100 E69.30983
G1 F810.8 X205.729 Y109.323 E69.32975
G1 F751.2 X205.882 Y109.692 E69.34991
G1 F743 X205.948 Y109.913 E69.36168
M204 S2000
G1 F2100 E65.36168
G0 F6000 X204.07 Y108.788
G0 X16.08 Y108.788
G0 X15.454 Y109.009
G0 X15.015 Y109.407
G0 X14.752 Y109.904
G0 X14.617 Y110.551
G0 X15.085 Y111.085
M204 S500
;TYPE:WALL-OUTER
G1 F2100 E69.36168
