;FLAVOR:Marlin
;TIME:5327
;Filament used: 2.83492m
;Layer height: 0.16
;MINX:62.557
;MINY:55.761
PRINT_START_SET MESH_MIN=62.557,55.761
;MINZ:0.2
;MAXX:156.449
;MAXY:164.242
PRINT_START_SET MESH_MAX=156.449,164.242
;MAXZ:7.96
;POSTPROCESSED
;Generated with Cura_SteamEngine 5.4.0
M82 ;absolute extrusion mode
M190 S0
M109 S0
_PRINT_START_PHASE_INIT EXTRUDER=230 BED=85 NOZZLE_SIZE=0.4
; Insert custom gcode here.
_PRINT_START_PHASE_PREHEAT
; Insert custom gcode here.
_PRINT_START_PHASE_PROBING
; Insert custom gcode here.
_PRINT_START_PHASE_EXTRUDER
; Insert custom gcode here.
_PRINT_START_PHASE_PURGE

; This is the place to put slicer purge lines if you haven't set a non-zero
; variable_start_purge_length to have START_PRINT automatically calculate and 
; perform the purge (e.g. if using a Mosaic Palette, which requires the slicer
; to generate the purge).
G92 E0
G92 E0
G1 F2100 E-4
;LAYER_COUNT:54
INIT_LAYER_GCODE LAYERS=54
PRINT_START_SET LAYERS=54
;BEFORE_LAYER_CHANGE
;LAYER:0
BEFORE_LAYER_CHANGE LAYER=0
AFTER_LAYER_CHANGE
M107
M204 S2000
G0 F6000 X89.565 Y66.036 Z0.2
M204 S500
;TYPE:SKIRT
G1 F2100 E0
G1 F900 X90.066 Y65.374 E0.02623
G1 X90.763 Y64.521 E0.06104
G1 X91.092 Y64.141 E0.07692
G1 X91.519 Y63.672 E0.09696
G1 X91.908 Y63.267 E0.1147
G1 X92.629 Y62.561 E0.14659
G1 X93.027 Y62.191 E0.16376
G1 X93.437 Y61.829 E0.18104
G1 X93.946 Y61.404 E0.20199
G1 X94.386 Y61.055 E0.21974
G1 X95.341 Y60.346 E0.25732
G1 X96.05 Y59.86 E0.28448
G1 X96.711 Y59.442 E0.30919
G1 X97.431 Y59.015 E0.33564
G1 X97.99 Y58.706 E0.35582
G1 X98.572 Y58.408 E0.37648
G1 X99.407 Y58.01 E0.40571
G1 X100.294 Y57.625 E0.43626
G1 X100.881 Y57.392 E0.45622
G1 X101.765 Y57.077 E0.48587
G1 X102.643 Y56.797 E0.51499
G1 X103.365 Y56.593 E0.5387
G1 X104.263 Y56.373 E0.56791
G1 X105.023 Y56.214 E0.59244
G1 X105.83 Y56.074 E0.61832
G1 X106.802 Y55.938 E0.64933
G1 X107.603 Y55.854 E0.67478
G1 X108.396 Y55.797 E0.6999
G1 X108.861 Y55.778 E0.71461
G1 X109.716 Y55.761 E0.74163
G1 X110.285 Y55.765 E0.75961
G1 X110.938 Y55.788 E0.78025
G1 X111.53 Y55.825 E0.799
G1 X112.393 Y55.902 E0.82637
G1 X113.46 Y56.035 E0.86035
G1 X114.063 Y56.134 E0.87966
G1 X114.938 Y56.304 E0.90782
G1 X115.923 Y56.531 E0.93976
G1 X116.489 Y56.685 E0.95829
G1 X117.348 Y56.944 E0.98664
G1 X117.815 Y57.096 E1.00216
G1 X118.485 Y57.331 E1.0246
G1 X119.344 Y57.667 E1.05374
G1 X120.305 Y58.09 E1.08692
G1 X120.768 Y58.313 E1.10315
G1 X121.377 Y58.623 E1.12475
G1 X122.413 Y59.199 E1.1622
G1 X123.103 Y59.621 E1.18776
G1 X123.842 Y60.106 E1.21569
G1 X124.53 Y60.593 E1.24232
G1 X124.975 Y60.926 E1.25988
G1 X125.571 Y61.397 E1.28388
G1 X126.277 Y61.997 E1.31316
G1 X126.877 Y62.541 E1.33875
G1 X127.176 Y62.826 E1.3518
G1 X127.638 Y63.291 E1.37251
G1 X128.2 Y63.886 E1.39837
G1 X128.579 Y64.309 E1.41632
G1 X129.043 Y64.855 E1.43896
G1 X129.364 Y65.251 E1.45507
G1 X129.895 Y65.953 E1.48288
G1 X130.486 Y66.793 E1.51533
G1 X132.657 Y70.059 E1.63925
G1 X134.102 Y72.098 E1.71821
G1 X135.616 Y74.111 E1.7978
G1 X137.205 Y76.105 E1.87836
G1 X138.794 Y77.989 E1.95624
G1 X140.484 Y79.877 E2.0363
G1 X142.231 Y81.726 E2.11668
G1 X144.002 Y83.493 E2.19573
G1 X145.851 Y85.239 E2.27608
G1 X147.703 Y86.89 E2.35447
G1 X149.643 Y88.524 E2.43462
G1 X150.122 Y88.903 E2.45392
G1 X151.485 Y90.014 E2.50948
G1 X152.208 Y90.655 E2.54001
G1 X152.849 Y91.32 E2.56919
G1 X153.776 Y92.436 E2.61503
G1 X154.49 Y93.523 E2.65613
G1 X154.703 Y93.891 E2.66956
G1 X155.121 Y94.692 E2.69811
G1 X155.534 Y95.666 E2.73154
G1 X155.861 Y96.595 E2.76266
G1 X156.158 Y97.819 E2.80246
G1 X156.252 Y98.338 E2.81912
G1 X156.383 Y99.331 E2.85077
G1 X156.425 Y100.094 E2.87491
G1 X156.448 Y101.427 E2.91704
G1 X156.449 Y118.96 E3.47103
G1 X156.433 Y119.816 E3.49808
G1 X156.378 Y120.755 E3.5278
G1 X156.237 Y121.848 E3.56263
G1 X155.964 Y123.049 E3.60154
G1 X155.881 Y123.34 E3.6111
G1 X155.506 Y124.454 E3.64824
G1 X154.98 Y125.617 E3.68857
G1 X154.776 Y126.008 E3.70251
G1 X154.3 Y126.829 E3.7325
G1 X153.957 Y127.337 E3.75186
G1 X153.692 Y127.704 E3.76617
G1 X153.083 Y128.471 E3.79711
G1 X152.346 Y129.24 E3.83077
G1 X151.944 Y129.619 E3.84822
G1 X151.359 Y130.129 E3.87275
G1 X149.035 Y132.001 E3.96704
G1 X147.095 Y133.661 E4.04771
G1 X145.276 Y135.31 E4.12529
G1 X143.419 Y137.091 E4.20659
G1 X141.69 Y138.847 E4.28446
G1 X139.941 Y140.723 E4.3655
G1 X138.302 Y142.587 E4.44393
G1 X136.682 Y144.539 E4.52408
G1 X135.128 Y146.521 E4.60366
G1 X133.633 Y148.543 E4.68311
G1 X132.202 Y150.598 E4.76224
G1 X130.67 Y152.937 E4.85058
G1 X130.132 Y153.719 E4.88058
G1 X129.71 Y154.299 E4.90324
G1 X129.191 Y154.964 E4.92989
G1 X128.625 Y155.639 E4.95773
G1 X128.064 Y156.263 E4.98424
G1 X127.498 Y156.852 E5.01005
G1 X126.861 Y157.471 E5.03812
G1 X126.263 Y158.014 E5.06364
G1 X125.634 Y158.55 E5.08975
G1 X124.98 Y159.069 E5.11613
G1 X123.991 Y159.791 E5.15482
G1 X123.361 Y160.213 E5.17878
G1 X122.775 Y160.583 E5.20068
G1 X122.267 Y160.884 E5.21934
G1 X121.638 Y161.233 E5.24207
G1 X121.197 Y161.464 E5.2578
G1 X120.408 Y161.856 E5.28563
G1 X119.786 Y162.145 E5.30731
G1 X119.354 Y162.33 E5.32215
G1 X118.697 Y162.591 E5.34449
G1 X118.175 Y162.784 E5.36208
G1 X117.206 Y163.105 E5.39433
G1 X116.468 Y163.322 E5.41864
G1 X115.828 Y163.489 E5.43954
G1 X114.961 Y163.688 E5.46764
G1 X114.308 Y163.822 E5.48871
G1 X113.358 Y163.979 E5.51913
G1 X112.671 Y164.069 E5.54102
G1 X111.892 Y164.147 E5.56576
G1 X110.799 Y164.218 E5.60037
G1 X109.886 Y164.242 E5.62923
G1 X108.874 Y164.228 E5.66121
G1 X108.331 Y164.201 E5.67838
G1 X107.22 Y164.111 E5.7136
G1 X106.568 Y164.035 E5.73435
G1 X105.584 Y163.888 E5.76578
G1 X104.883 Y163.758 E5.78831
G1 X104.315 Y163.639 E5.80665
G1 X103.59 Y163.468 E5.83018
G1 X102.8 Y163.25 E5.85608
G1 X101.828 Y162.944 E5.88828
G1 X100.544 Y162.481 E5.9314
G1 X99.744 Y162.148 E5.95878
G1 X99.132 Y161.871 E5.98001
G1 X98.638 Y161.63 E5.99738
G1 X98.003 Y161.3 E6.01999
G1 X97.428 Y160.983 E6.04073
G1 X96.462 Y160.404 E6.07632
G1 X95.853 Y160.011 E6.09922
G1 X94.917 Y159.351 E6.13541
G1 X94.352 Y158.921 E6.15784
G1 X93.917 Y158.572 E6.17547
G1 X93.087 Y157.86 E6.21002
G1 X92.414 Y157.241 E6.23891
G1 X91.721 Y156.546 E6.26992
G1 X91.329 Y156.125 E6.2881
G1 X90.611 Y155.3 E6.32266
G1 X89.997 Y154.538 E6.35358
G1 X89.662 Y154.099 E6.37102
G1 X89.227 Y153.498 E6.39447
G1 X88.954 Y153.095 E6.40985
G1 X88.583 Y152.518 E6.43152
G1 X88.29 Y152.033 E6.44943
G1 X87.764 Y151.101 E6.48324
G1 X87.345 Y150.303 E6.51172
G1 X86.125 Y148.058 E6.59245
G1 X84.833 Y145.835 E6.6737
G1 X83.53 Y143.732 E6.75186
G1 X82.134 Y141.613 E6.83204
G1 X80.692 Y139.555 E6.91144
G1 X79.2 Y137.546 E6.99051
G1 X77.629 Y135.554 E7.07067
G1 X76.03 Y133.639 E7.1495
G1 X74.348 Y131.739 E7.22968
G1 X72.662 Y129.936 E7.30768
G1 X70.132 Y127.407 E7.42071
G1 X69.597 Y126.89 E7.44422
G1 X69.23 Y126.519 E7.46071
G1 X68.781 Y126.043 E7.48138
G1 X68.414 Y125.633 E7.49877
G1 X67.994 Y125.138 E7.51928
G1 X67.687 Y124.758 E7.53472
G1 X67.281 Y124.231 E7.55574
G1 X66.938 Y123.76 E7.57415
G1 X66.536 Y123.175 E7.59657
G1 X66.264 Y122.758 E7.61231
G1 X65.948 Y122.247 E7.63129
G1 X65.662 Y121.76 E7.64913
G1 X65.329 Y121.152 E7.67104
G1 X64.846 Y120.191 E7.70502
G1 X64.625 Y119.711 E7.72172
G1 X64.364 Y119.107 E7.74251
G1 X63.967 Y118.084 E7.77718
G1 X63.781 Y117.546 E7.79517
G1 X63.574 Y116.894 E7.81678
G1 X63.428 Y116.392 E7.8333
G1 X63.264 Y115.767 E7.85372
G1 X63.145 Y115.265 E7.87002
G1 X63.006 Y114.612 E7.89112
G1 X62.909 Y114.096 E7.90771
G1 X62.808 Y113.464 E7.92793
G1 X62.734 Y112.926 E7.94509
G1 X62.661 Y112.255 E7.96641
G1 X62.617 Y111.705 E7.98385
G1 X62.578 Y111.033 E8.00512
G1 X62.562 Y110.521 E8.0213
G1 X62.557 Y109.896 E8.04105
G1 X62.591 Y108.771 E8.07662
G1 X62.622 Y108.263 E8.0927
G1 X62.677 Y107.641 E8.11243
G1 X62.749 Y107.021 E8.13215
G1 X62.873 Y106.181 E8.15898
G1 X62.972 Y105.613 E8.1772
G1 X63.114 Y104.91 E8.19986
G1 X63.244 Y104.353 E8.21793
G1 X63.522 Y103.321 E8.2517
G1 X63.691 Y102.768 E8.26997
G1 X63.849 Y102.296 E8.2857
G1 X64.069 Y101.683 E8.30628
G1 X64.258 Y101.195 E8.32281
G1 X64.485 Y100.649 E8.3415
G1 X64.694 Y100.179 E8.35775
G1 X65.01 Y99.511 E8.3811
G1 X65.26 Y99.019 E8.39854
G1 X65.567 Y98.45 E8.41896
G1 X65.86 Y97.942 E8.43749
G1 X66.25 Y97.308 E8.46101
G1 X66.838 Y96.422 E8.49461
G1 X67.129 Y96.015 E8.51042
G1 X67.542 Y95.465 E8.53215
G1 X67.893 Y95.023 E8.54999
G1 X68.61 Y94.182 E8.58491
G1 X69.031 Y93.723 E8.60459
G1 X69.395 Y93.346 E8.62115
G1 X71.29 Y91.49 E8.70496
G1 X73.036 Y89.7 E8.78397
G1 X74.759 Y87.831 E8.86429
G1 X76.41 Y85.937 E8.94368
G1 X78.025 Y83.977 E9.02392
G1 X79.551 Y82.011 E9.10256
G1 X81.044 Y79.972 E9.18241
G1 X82.467 Y77.908 E9.26163
G1 X83.841 Y75.791 E9.34137
G1 X85.144 Y73.653 E9.42048
G1 X86.399 Y71.453 E9.50051
G1 X87.932 Y68.592 E9.60307
G1 X88.32 Y67.92 E9.62759
G1 X88.717 Y67.284 E9.65128
G1 X89.151 Y66.627 E9.67616
G1 X89.565 Y66.036 E9.69896
M204 S2000
G0 F6000 X89.884 Y66.277
M204 S500
G1 F900 X90.376 Y65.627 E9.72472
G1 X91.065 Y64.783 E9.75914
G1 X91.388 Y64.41 E9.77473
G1 X91.808 Y63.949 E9.79444
G1 X92.188 Y63.553 E9.81178
G1 X92.902 Y62.854 E9.84335
G1 X93.292 Y62.491 E9.86018
G1 X93.694 Y62.136 E9.87713
G1 X94.195 Y61.717 E9.89777
G1 X94.625 Y61.376 E9.91511
G1 X95.567 Y60.676 E9.95219
G1 X96.264 Y60.198 E9.9789
G1 X96.915 Y59.786 E10.00324
G1 X97.625 Y59.365 E10.02932
G1 X98.173 Y59.062 E10.04911
G1 X98.744 Y58.769 E10.06938
G1 X99.566 Y58.377 E10.09816
G1 X100.442 Y57.997 E10.12833
G1 X101.015 Y57.769 E10.14782
G1 X101.887 Y57.458 E10.17707
G1 X102.752 Y57.182 E10.20576
G1 X103.46 Y56.982 E10.229
G1 X104.358 Y56.762 E10.25822
G1 X105.091 Y56.608 E10.28188
G1 X105.885 Y56.47 E10.30735
G1 X106.844 Y56.336 E10.33794
G1 X107.632 Y56.253 E10.36298
G1 X108.413 Y56.197 E10.38772
G1 X108.869 Y56.178 E10.40214
G1 X109.713 Y56.161 E10.42881
G1 X110.271 Y56.165 E10.44645
G1 X110.913 Y56.187 E10.46674
G1 X111.494 Y56.223 E10.48514
G1 X112.344 Y56.299 E10.5121
G1 X113.395 Y56.43 E10.54557
G1 X113.987 Y56.527 E10.56452
G1 X114.848 Y56.694 E10.59223
G1 X115.818 Y56.917 E10.62368
G1 X116.373 Y57.068 E10.64186
G1 X117.225 Y57.325 E10.66998
G1 X117.682 Y57.473 E10.68515
G1 X118.339 Y57.704 E10.70716
G1 X119.198 Y58.04 E10.7363
G1 X120.132 Y58.451 E10.76855
G1 X120.586 Y58.669 E10.78446
G1 X121.183 Y58.973 E10.80563
G1 X122.219 Y59.549 E10.84308
G1 X122.884 Y59.955 E10.8677
G1 X123.611 Y60.432 E10.89517
G1 X124.29 Y60.913 E10.92147
G1 X124.727 Y61.24 E10.93871
G1 X125.312 Y61.702 E10.96227
G1 X126.008 Y62.293 E10.99112
G1 X126.601 Y62.831 E11.01642
G1 X126.892 Y63.108 E11.02911
G1 X127.347 Y63.566 E11.04951
G1 X127.902 Y64.153 E11.07503
G1 X128.274 Y64.568 E11.09264
G1 X128.732 Y65.107 E11.11499
G1 X129.045 Y65.493 E11.13069
G1 X129.568 Y66.183 E11.15805
G1 X130.153 Y67.014 E11.19016
G1 X132.331 Y70.29 E11.31446
G1 X133.782 Y72.338 E11.39377
G1 X135.303 Y74.36 E11.47372
G1 X136.899 Y76.363 E11.55464
G1 X138.496 Y78.256 E11.6329
G1 X140.193 Y80.152 E11.7133
G1 X141.948 Y82.009 E11.79403
G1 X143.727 Y83.784 E11.87344
G1 X145.576 Y85.53 E11.95379
G1 X147.445 Y87.196 E12.0329
G1 X149.387 Y88.832 E12.11313
G1 X149.869 Y89.213 E12.13255
G1 X151.22 Y90.313 E12.1876
G1 X151.92 Y90.933 E12.21714
G1 X152.561 Y91.598 E12.24633
G1 X153.442 Y92.656 E12.28983
G1 X154.144 Y93.724 E12.33021
G1 X154.348 Y94.076 E12.34307
G1 X154.766 Y94.877 E12.37161
G1 X155.157 Y95.8 E12.40329
G1 X155.472 Y96.689 E12.43309
G1 X155.764 Y97.89 E12.47214
G1 X155.858 Y98.409 E12.48881
G1 X155.984 Y99.353 E12.5189
G1 X156.025 Y100.101 E12.54257
G1 X156.048 Y101.427 E12.58447
G1 X156.049 Y118.953 E13.13825
G1 X156.034 Y119.793 E13.16479
G1 X155.981 Y120.704 E13.19362
G1 X155.84 Y121.797 E13.22845
G1 X155.579 Y122.939 E13.26546
G1 X155.496 Y123.23 E13.27502
G1 X155.141 Y124.289 E13.31031
G1 X154.625 Y125.432 E13.34994
G1 X154.43 Y125.807 E13.36329
G1 X153.954 Y126.628 E13.39328
G1 X153.632 Y127.103 E13.41141
G1 X153.378 Y127.456 E13.42515
G1 X152.794 Y128.194 E13.45489
G1 X152.057 Y128.963 E13.48855
G1 X151.681 Y129.317 E13.50486
G1 X151.096 Y129.827 E13.52939
G1 X148.775 Y131.697 E13.62356
G1 X146.835 Y133.357 E13.70424
G1 X144.999 Y135.021 E13.78253
G1 X143.142 Y136.802 E13.86383
G1 X141.397 Y138.574 E13.94241
G1 X139.648 Y140.45 E14.02346
G1 X137.995 Y142.331 E14.10258
G1 X136.374 Y144.283 E14.18275
G1 X134.813 Y146.274 E14.26269
G1 X133.311 Y148.305 E14.34251
G1 X131.874 Y150.369 E14.42197
G1 X130.34 Y152.711 E14.51043
G1 X129.809 Y153.484 E14.54007
G1 X129.395 Y154.053 E14.5623
G1 X128.884 Y154.707 E14.58852
G1 X128.318 Y155.382 E14.61636
G1 X127.775 Y155.986 E14.64202
G1 X127.219 Y156.565 E14.66738
G1 X126.592 Y157.175 E14.69502
G1 X126.003 Y157.71 E14.72017
G1 X125.385 Y158.237 E14.74583
G1 X124.744 Y158.746 E14.77169
G1 X123.768 Y159.459 E14.80988
G1 X123.148 Y159.875 E14.83348
G1 X122.571 Y160.239 E14.85503
G1 X122.073 Y160.534 E14.87332
G1 X121.452 Y160.879 E14.89577
G1 X121.019 Y161.106 E14.91121
G1 X120.239 Y161.493 E14.93873
G1 X119.628 Y161.777 E14.96002
G1 X119.206 Y161.958 E14.97453
G1 X118.558 Y162.216 E14.99656
G1 X118.049 Y162.404 E15.01371
G1 X117.093 Y162.721 E15.04553
G1 X116.367 Y162.935 E15.06945
G1 X115.739 Y163.099 E15.08996
G1 X114.88 Y163.296 E15.1178
G1 X114.243 Y163.427 E15.13835
G1 X113.306 Y163.582 E15.16836
G1 X112.631 Y163.671 E15.18987
G1 X111.866 Y163.748 E15.21417
G1 X110.788 Y163.818 E15.2483
G1 X109.892 Y163.842 E15.27662
G1 X108.894 Y163.828 E15.30816
G1 X108.363 Y163.802 E15.32496
G1 X107.267 Y163.714 E15.3597
G1 X106.627 Y163.639 E15.38006
G1 X105.657 Y163.495 E15.41104
G1 X104.965 Y163.367 E15.43328
G1 X104.407 Y163.25 E15.45129
G1 X103.696 Y163.082 E15.47438
G1 X102.92 Y162.868 E15.49981
G1 X101.948 Y162.562 E15.53201
G1 X100.698 Y162.112 E15.57399
G1 X99.909 Y161.784 E15.60099
G1 X99.307 Y161.511 E15.62187
G1 X98.822 Y161.275 E15.63892
G1 X98.196 Y160.95 E15.6612
G1 X97.634 Y160.64 E15.68148
G1 X96.679 Y160.068 E15.71666
G1 X96.083 Y159.684 E15.73906
G1 X95.159 Y159.033 E15.77477
G1 X94.602 Y158.609 E15.79689
G1 X94.177 Y158.268 E15.81411
G1 X93.358 Y157.566 E15.84819
G1 X92.697 Y156.958 E15.87657
G1 X92.014 Y156.274 E15.90711
G1 X91.631 Y155.862 E15.92489
G1 X90.913 Y155.037 E15.95944
G1 X90.315 Y154.296 E15.98953
G1 X89.986 Y153.864 E16.00669
G1 X89.558 Y153.273 E16.02974
G1 X89.29 Y152.878 E16.04483
G1 X88.925 Y152.311 E16.06613
G1 X88.638 Y151.837 E16.08364
G1 X88.118 Y150.915 E16.11709
G1 X87.699 Y150.117 E16.14557
G1 X86.471 Y147.857 E16.22684
G1 X85.179 Y145.634 E16.30808
G1 X83.87 Y143.521 E16.38662
G1 X82.462 Y141.383 E16.46751
G1 X81.02 Y139.325 E16.54691
G1 X79.521 Y137.307 E16.62634
G1 X77.943 Y135.306 E16.70686
G1 X76.33 Y133.374 E16.78638
G1 X74.648 Y131.474 E16.86656
G1 X72.945 Y129.653 E16.94534
G1 X70.415 Y127.124 E17.05837
G1 X69.881 Y126.609 E17.08181
G1 X69.521 Y126.245 E17.09799
G1 X69.079 Y125.776 E17.11835
G1 X68.719 Y125.374 E17.1354
G1 X68.305 Y124.886 E17.15562
G1 X68.004 Y124.514 E17.17074
G1 X67.604 Y123.996 E17.19142
G1 X67.268 Y123.534 E17.20947
G1 X66.871 Y122.956 E17.23163
G1 X66.604 Y122.547 E17.24706
G1 X66.293 Y122.045 E17.26572
G1 X66.013 Y121.568 E17.2832
G1 X65.686 Y120.972 E17.30468
G1 X65.209 Y120.024 E17.33821
G1 X64.992 Y119.553 E17.3546
G1 X64.737 Y118.962 E17.37493
G1 X64.345 Y117.953 E17.40914
G1 X64.162 Y117.425 E17.42679
G1 X63.958 Y116.782 E17.44811
G1 X63.815 Y116.29 E17.4643
G1 X63.653 Y115.675 E17.48439
G1 X63.536 Y115.182 E17.5004
G1 X63.399 Y114.538 E17.52121
G1 X63.304 Y114.033 E17.53744
G1 X63.204 Y113.41 E17.55738
G1 X63.132 Y112.883 E17.57419
G1 X63.06 Y112.223 E17.59516
G1 X63.016 Y111.682 E17.61231
G1 X62.978 Y111.02 E17.63327
G1 X62.962 Y110.518 E17.64914
G1 X62.957 Y109.908 E17.66841
G1 X62.99 Y108.795 E17.70359
G1 X63.02 Y108.298 E17.71933
G1 X63.074 Y107.687 E17.73871
G1 X63.145 Y107.079 E17.75805
G1 X63.267 Y106.25 E17.78453
G1 X63.364 Y105.692 E17.80242
G1 X63.504 Y105 E17.82473
G1 X63.63 Y104.457 E17.84234
G1 X63.905 Y103.438 E17.87569
G1 X64.071 Y102.894 E17.89366
G1 X64.225 Y102.431 E17.90908
G1 X64.442 Y101.828 E17.92933
G1 X64.628 Y101.348 E17.9456
G1 X64.85 Y100.812 E17.96393
G1 X65.056 Y100.35 E17.97991
G1 X65.367 Y99.692 E18.00291
