;FLAVOR:Marlin
;TIME:3096
;Filament used: 1.64662m
;Layer height: 0.2
;MINX:86.67
;MINY:89.077
PRINT_START_SET MESH_MIN=86.67,89.077
;MINZ:0.2
;MAXX:134.34
;MAXY:133.356
PRINT_START_SET MESH_MAX=134.34,133.356
;MAXZ:40
;TARGET_MACHINE.NAME:Creality Ender-3 S1 Pro
;POSTPROCESSED
;Generated with Cura_SteamEngine 5.5.0
M82 ;absolute extrusion mode
M190 S0
M109 S0
_PRINT_START_PHASE_INIT EXTRUDER=215.0 BED=63 NOZZLE_SIZE=0.4
; Insert custom gcode here.
_PRINT_START_PHASE_PREHEAT
; Insert custom gcode here.
_PRINT_START_PHASE_PROBING
; Insert custom gcode here.
_PRINT_START_PHASE_EXTRUDER
; Insert custom gcode here.
_PRINT_START_PHASE_PURGE

; This is the place to put slicer purge lines if you haven't set a non-zero
; variable_start_purge_length to have START_PRINT automatically calculate and
; perform the purge (e.g. if using a Mosaic Palette, which requires the slicer
; to generate the purge).
G92 E0
G92 E0
G1 F2280 E-0.8
;LAYER_COUNT:200
INIT_LAYER_GCODE LAYERS=200
PRINT_START_SET LAYERS=200
;BEFORE_LAYER_CHANGE
;LAYER:0
BEFORE_LAYER_CHANGE LAYER=0
AFTER_LAYER_CHANGE
M107
M204 S2000
G0 F7500 X92.646 Y96.313 Z0.2
M204 S500
;TYPE:SKIRT
G1 F2280 E0
G1 F1500 X93.616 Y95.457 E0.04324
G1 X94.093 Y95.087 E0.06342
G1 X95.178 Y94.351 E0.10725
G1 X95.617 Y94.093 E0.12427
G1 X96.783 Y93.5 E0.16799
G1 X97.524 Y93.18 E0.19497
G1 X98.368 Y92.859 E0.22516
G1 X99.027 Y92.66 E0.24817
G1 X99.467 Y92.543 E0.26339
G1 X100.567 Y92.31 E0.30097
G1 X102.202 Y92.05 E0.35631
G1 X104.687 Y91.607 E0.44068
G1 X107.139 Y91.097 E0.5244
G1 X109.616 Y90.507 E0.60951
G1 X111.971 Y89.879 E0.69098
G1 X112.84 Y89.635 E0.72115
G1 X113.464 Y89.48 E0.74265
G1 X114.092 Y89.345 E0.76412
G1 X115.465 Y89.143 E0.81051
G1 X115.867 Y89.111 E0.82399
G1 X116.914 Y89.077 E0.859
G1 X117.328 Y89.085 E0.87284
G1 X118.56 Y89.18 E0.91415
G1 X119.078 Y89.251 E0.93162
G1 X120.22 Y89.476 E0.97053
G1 X120.531 Y89.555 E0.98126
G1 X121.488 Y89.847 E1.0147
G1 X121.998 Y90.032 E1.03284
G1 X122.985 Y90.445 E1.0686
G1 X123.445 Y90.666 E1.08566
G1 X124.352 Y91.158 E1.12015
G1 X124.834 Y91.453 E1.13904
G1 X125.567 Y91.945 E1.16855
G1 X126.07 Y92.313 E1.18938
G1 X126.937 Y93.018 E1.22673
G1 X127.359 Y93.399 E1.24574
G1 X127.797 Y93.819 E1.26602
G1 X128.362 Y94.41 E1.29335
G1 X128.891 Y95.001 E1.31987
G1 X129.426 Y95.647 E1.3479
G1 X130 Y96.4 E1.37955
G1 X130.386 Y96.941 E1.40177
G1 X130.578 Y97.227 E1.41328
G1 X130.984 Y97.884 E1.4391
G1 X131.394 Y98.607 E1.46688
G1 X131.824 Y99.423 E1.49771
G1 X132.081 Y99.962 E1.51767
G1 X132.473 Y100.842 E1.54987
G1 X132.74 Y101.501 E1.57364
G1 X133.024 Y102.277 E1.60126
G1 X133.238 Y102.908 E1.62353
G1 X133.549 Y103.971 E1.66056
G1 X133.738 Y104.754 E1.68748
G1 X133.987 Y105.978 E1.72923
G1 X134.126 Y106.847 E1.75865
G1 X134.215 Y107.604 E1.78413
G1 X134.271 Y108.247 E1.8057
G1 X134.319 Y109.19 E1.83726
G1 X134.34 Y110.254 E1.87284
G1 X134.328 Y111.104 E1.90125
G1 X134.284 Y111.928 E1.92883
G1 X134.199 Y112.907 E1.96168
G1 X134.102 Y113.739 E1.98968
G1 X133.939 Y114.827 E2.02646
G1 X133.682 Y116.222 E2.07387
G1 X133.46 Y117.225 E2.10821
G1 X133.174 Y118.335 E2.14652
G1 X132.882 Y119.285 E2.17974
G1 X132.556 Y120.192 E2.21196
G1 X132.21 Y121.037 E2.24248
G1 X132.032 Y121.424 E2.25672
G1 X131.635 Y122.2 E2.28586
G1 X131.261 Y122.862 E2.31127
G1 X130.9 Y123.459 E2.33459
G1 X130.447 Y124.151 E2.36224
G1 X130.025 Y124.748 E2.38668
G1 X129.519 Y125.417 E2.41472
G1 X129.115 Y125.918 E2.43623
G1 X128.66 Y126.448 E2.45958
G1 X128.176 Y126.975 E2.4835
G1 X127.572 Y127.591 E2.51233
G1 X126.796 Y128.304 E2.54756
G1 X126.376 Y128.65 E2.56575
G1 X125.605 Y129.231 E2.59802
G1 X125.169 Y129.529 E2.61567
G1 X124.378 Y130.02 E2.64679
G1 X123.98 Y130.243 E2.66204
G1 X123.354 Y130.568 E2.68562
G1 X123.058 Y130.709 E2.69658
G1 X122.476 Y130.965 E2.71783
G1 X121.408 Y131.392 E2.75628
G1 X120.334 Y131.782 E2.79447
G1 X119.431 Y132.081 E2.82627
G1 X118.946 Y132.23 E2.84323
G1 X117.857 Y132.536 E2.88104
G1 X117.352 Y132.664 E2.89845
G1 X116.153 Y132.93 E2.9395
G1 X115.499 Y133.051 E2.96174
G1 X114.975 Y133.134 E2.97947
G1 X114.372 Y133.215 E2.99981
G1 X113.481 Y133.298 E3.02972
G1 X112.556 Y133.343 E3.06067
G1 X111.978 Y133.356 E3.08
G1 X111.335 Y133.347 E3.1015
G1 X110.084 Y133.293 E3.14335
G1 X108.858 Y133.22 E3.1844
G1 X107.411 Y133.101 E3.23294
G1 X106.621 Y133.009 E3.25952
G1 X105.119 Y132.782 E3.3103
G1 X104.38 Y132.641 E3.33545
G1 X103.522 Y132.451 E3.36482
G1 X102.986 Y132.319 E3.38327
G1 X102.481 Y132.18 E3.40078
G1 X101.744 Y131.947 E3.42662
G1 X100.785 Y131.608 E3.46062
G1 X99.811 Y131.206 E3.49584
G1 X98.896 Y130.771 E3.5297
G1 X98.257 Y130.441 E3.55374
G1 X97.642 Y130.095 E3.57733
G1 X96.942 Y129.68 E3.60453
G1 X96.487 Y129.39 E3.62257
G1 X95.874 Y128.978 E3.64726
G1 X95.426 Y128.661 E3.6656
G1 X95.023 Y128.359 E3.68243
G1 X94.295 Y127.783 E3.71346
G1 X93.837 Y127.394 E3.73355
G1 X93.267 Y126.882 E3.75916
G1 X92.739 Y126.375 E3.78363
G1 X92.179 Y125.797 E3.81053
G1 X91.77 Y125.35 E3.83078
G1 X91.344 Y124.847 E3.85282
G1 X90.923 Y124.321 E3.87534
G1 X90.607 Y123.905 E3.8928
G1 X90.187 Y123.312 E3.91709
G1 X89.823 Y122.77 E3.93891
G1 X89.463 Y122.2 E3.96145
G1 X89.142 Y121.645 E3.98288
G1 X88.876 Y121.149 E4.00169
G1 X88.459 Y120.283 E4.03382
G1 X88.139 Y119.533 E4.06108
G1 X87.77 Y118.526 E4.09693
G1 X87.539 Y117.749 E4.12402
G1 X87.384 Y117.174 E4.14393
G1 X87.22 Y116.477 E4.16786
G1 X87.089 Y115.787 E4.19134
G1 X86.956 Y114.964 E4.21921
G1 X86.817 Y113.861 E4.25637
G1 X86.765 Y113.297 E4.2753
G1 X86.706 Y112.394 E4.30555
G1 X86.672 Y111.335 E4.34097
G1 X86.67 Y110.649 E4.3639
G1 X86.697 Y109.981 E4.38624
G1 X86.737 Y109.404 E4.40558
G1 X86.829 Y108.567 E4.43372
G1 X86.974 Y107.607 E4.46618
G1 X87.147 Y106.719 E4.49642
G1 X87.344 Y105.951 E4.52292
G1 X87.515 Y105.358 E4.54355
G1 X87.766 Y104.578 E4.57094
G1 X87.902 Y104.192 E4.58462
G1 X88.263 Y103.241 E4.61862
G1 X88.555 Y102.527 E4.64441
G1 X88.925 Y101.686 E4.67512
G1 X89.362 Y100.782 E4.70868
G1 X89.586 Y100.361 E4.72462
G1 X89.926 Y99.762 E4.74764
G1 X90.318 Y99.134 E4.77239
G1 X90.699 Y98.572 E4.79509
G1 X91.412 Y97.635 E4.83444
G1 X91.649 Y97.358 E4.84663
G1 X92.219 Y96.741 E4.87471
G1 X92.646 Y96.313 E4.89491
M204 S2000
G0 F7500 X92.911 Y96.613
M204 S500
G1 F1500 X93.881 Y95.757 E4.93816
G1 X94.318 Y95.418 E4.95665
G1 X95.381 Y94.696 E4.9996
G1 X95.798 Y94.45 E5.01578
G1 X96.964 Y93.857 E5.05951
G1 X97.666 Y93.554 E5.08507
G1 X98.51 Y93.233 E5.11525
G1 X99.13 Y93.047 E5.13689
G1 X99.57 Y92.93 E5.15211
G1 X100.63 Y92.705 E5.18833
G1 X102.272 Y92.444 E5.2439
G1 X104.767 Y91.999 E5.32862
G1 X107.22 Y91.489 E5.41237
G1 X109.709 Y90.896 E5.49789
G1 X112.079 Y90.264 E5.57988
G1 X112.937 Y90.023 E5.60967
G1 X113.548 Y89.871 E5.63072
G1 X114.151 Y89.741 E5.65134
G1 X115.497 Y89.542 E5.69682
G1 X115.88 Y89.511 E5.70966
G1 X116.907 Y89.477 E5.74401
G1 X117.297 Y89.484 E5.75705
G1 X118.529 Y89.579 E5.79835
G1 X119.001 Y89.644 E5.81428
G1 X120.122 Y89.864 E5.85246
G1 X120.414 Y89.938 E5.86253
G1 X121.371 Y90.23 E5.89598
G1 X121.844 Y90.401 E5.91279
G1 X122.812 Y90.806 E5.94786
G1 X123.254 Y91.018 E5.96425
G1 X124.161 Y91.51 E5.99874
G1 X124.611 Y91.785 E6.01637
G1 X125.331 Y92.268 E6.04535
G1 X125.834 Y92.636 E6.06618
G1 X126.669 Y93.315 E6.10216
G1 X127.082 Y93.688 E6.12076
G1 X127.52 Y94.108 E6.14104
G1 X128.064 Y94.677 E6.16736
G1 X128.583 Y95.256 E6.19335
G1 X129.108 Y95.89 E6.22086
G1 X129.675 Y96.633 E6.25211
G1 X130.054 Y97.163 E6.27389
G1 X130.238 Y97.438 E6.28495
G1 X130.636 Y98.081 E6.31022
G1 X131.04 Y98.793 E6.33759
G1 X131.463 Y99.596 E6.36792
G1 X131.716 Y100.125 E6.38753
G1 X132.102 Y100.992 E6.41925
G1 X132.364 Y101.639 E6.44258
G1 X132.645 Y102.406 E6.46989
G1 X132.854 Y103.021 E6.4916
G1 X133.16 Y104.065 E6.52796
G1 X133.346 Y104.834 E6.55441
G1 X133.592 Y106.042 E6.59562
G1 X133.729 Y106.894 E6.62446
G1 X133.817 Y107.639 E6.64954
G1 X133.872 Y108.267 E6.67061
G1 X133.919 Y109.198 E6.70177
G1 X133.94 Y110.249 E6.73691
G1 X133.929 Y111.083 E6.76479
G1 X133.886 Y111.893 E6.7919
G1 X133.802 Y112.86 E6.82435
G1 X133.706 Y113.68 E6.85194
G1 X133.543 Y114.768 E6.88872
G1 X133.291 Y116.136 E6.93521
G1 X133.073 Y117.125 E6.96907
G1 X132.792 Y118.218 E7.00679
G1 X132.506 Y119.15 E7.03938
G1 X132.186 Y120.041 E7.07102
G1 X131.847 Y120.87 E7.10096
G1 X131.676 Y121.242 E7.11465
G1 X131.287 Y122.003 E7.14321
G1 X130.919 Y122.655 E7.16824
G1 X130.565 Y123.24 E7.1911
G1 X130.12 Y123.92 E7.21826
G1 X129.706 Y124.507 E7.24227
G1 X129.208 Y125.166 E7.26988
G1 X128.811 Y125.658 E7.29101
G1 X128.365 Y126.178 E7.31391
G1 X127.891 Y126.695 E7.33736
G1 X127.301 Y127.296 E7.36551
G1 X126.525 Y128.009 E7.40074
G1 X126.135 Y128.331 E7.41764
G1 X125.379 Y128.901 E7.44929
G1 X124.958 Y129.189 E7.46634
G1 X124.182 Y129.671 E7.49687
G1 X123.796 Y129.888 E7.51168
G1 X123.182 Y130.207 E7.5348
G1 X122.897 Y130.343 E7.54536
G1 X122.327 Y130.594 E7.56618
G1 X121.272 Y131.016 E7.60416
G1 X120.208 Y131.402 E7.64199
G1 X119.313 Y131.699 E7.67352
G1 X118.838 Y131.845 E7.69013
G1 X117.759 Y132.148 E7.72759
G1 X117.265 Y132.273 E7.74462
G1 X116.066 Y132.539 E7.78567
G1 X115.436 Y132.656 E7.80709
G1 X114.922 Y132.738 E7.82449
G1 X114.335 Y132.817 E7.84429
G1 X113.461 Y132.898 E7.87363
G1 X112.547 Y132.943 E7.90422
G1 X111.984 Y132.956 E7.92304
G1 X111.352 Y132.947 E7.94417
G1 X110.108 Y132.894 E7.98579
G1 X108.891 Y132.821 E8.02654
G1 X107.458 Y132.704 E8.0746
G1 X106.681 Y132.613 E8.10075
G1 X105.194 Y132.389 E8.15102
G1 X104.466 Y132.25 E8.17579
G1 X103.618 Y132.063 E8.20482
G1 X103.092 Y131.933 E8.22293
G1 X102.587 Y131.794 E8.24044
G1 X101.877 Y131.57 E8.26532
G1 X100.938 Y131.238 E8.29862
G1 X99.964 Y130.836 E8.33384
G1 X99.08 Y130.416 E8.36655
G1 X98.453 Y130.092 E8.39014
G1 X97.846 Y129.751 E8.41342
G1 X97.157 Y129.343 E8.44018
G1 X96.71 Y129.058 E8.4579
G1 X96.105 Y128.652 E8.48226
G1 X95.666 Y128.341 E8.50024
G1 X95.271 Y128.045 E8.51674
G1 X94.554 Y127.478 E8.54729
G1 X94.104 Y127.096 E8.56702
G1 X93.544 Y126.593 E8.59219
G1 X93.026 Y126.096 E8.61618
G1 X92.474 Y125.527 E8.64268
G1 X92.075 Y125.092 E8.66241
G1 X91.656 Y124.597 E8.68409
G1 X91.242 Y124.079 E8.70625
G1 X90.926 Y123.663 E8.72372
G1 X90.519 Y123.089 E8.74724
G1 X90.161 Y122.556 E8.7687
G1 X89.809 Y122 E8.7907
G1 X89.494 Y121.456 E8.81171
G1 X89.236 Y120.976 E8.82992
G1 X88.827 Y120.126 E8.86145
G1 X88.515 Y119.395 E8.88802
G1 X88.146 Y118.388 E8.92387
G1 X87.925 Y117.645 E8.94978
G1 X87.773 Y117.082 E8.96928
G1 X87.613 Y116.402 E8.99263
G1 X87.484 Y115.723 E9.01573
G1 X87.353 Y114.914 E9.04312
G1 X87.215 Y113.824 E9.07985
G1 X87.164 Y113.271 E9.09841
G1 X87.106 Y112.381 E9.12822
G1 X87.072 Y111.334 E9.16324
G1 X87.07 Y110.665 E9.1856
G1 X87.096 Y110.009 E9.20755
G1 X87.135 Y109.448 E9.22635
G1 X87.225 Y108.627 E9.25395
G1 X87.367 Y107.683 E9.28586
G1 X87.54 Y106.795 E9.3161
G1 X87.728 Y106.062 E9.3414
G1 X87.896 Y105.48 E9.36165
G1 X88.143 Y104.711 E9.38864
G1 X88.276 Y104.334 E9.40201
G1 X88.633 Y103.392 E9.43568
G1 X88.921 Y102.688 E9.46111
G1 X89.285 Y101.86 E9.49134
G1 X89.715 Y100.97 E9.52438
G1 X89.934 Y100.558 E9.53998
G1 X90.265 Y99.974 E9.56241
G1 X90.649 Y99.358 E9.58668
G1 X91.017 Y98.814 E9.60863
G1 X91.716 Y97.895 E9.64723
G1 X91.943 Y97.629 E9.65892
G1 X92.502 Y97.023 E9.68647
G1 X92.911 Y96.613 E9.70583
M204 S2000
G0 F7500 X93.176 Y96.913
M204 S500
G1 F1500 X94.146 Y96.057 E9.74908
G1 X94.543 Y95.749 E9.76587
G1 X95.606 Y95.027 E9.80882
G1 X95.98 Y94.806 E9.82335
G1 X97.123 Y94.224 E9.86622
G1 X97.808 Y93.928 E9.89116
G1 X98.652 Y93.607 E9.92135
G1 X99.233 Y93.434 E9.94161
G1 X99.673 Y93.317 E9.95683
G1 X100.693 Y93.1 E9.99169
G1 X102.342 Y92.838 E10.0475
G1 X104.847 Y92.391 E10.13255
G1 X107.301 Y91.881 E10.21634
G1 X109.802 Y91.285 E10.30228
G1 X112.187 Y90.649 E10.38478
G1 X113.033 Y90.411 E10.41416
G1 X113.633 Y90.262 E10.43483
G1 X114.21 Y90.137 E10.45456
G1 X115.53 Y89.941 E10.49917
G1 X115.893 Y89.911 E10.51134
G1 X116.9 Y89.877 E10.54502
G1 X117.266 Y89.883 E10.55726
G1 X118.498 Y89.978 E10.59856
G1 X118.924 Y90.037 E10.61294
G1 X120.024 Y90.252 E10.6504
G1 X120.297 Y90.321 E10.65981
G1 X121.254 Y90.613 E10.69326
G1 X121.69 Y90.77 E10.70875
G1 X122.639 Y91.167 E10.74313
G1 X123.063 Y91.37 E10.75885
G1 X123.97 Y91.862 E10.79334
G1 X124.388 Y92.117 E10.80971
G1 X125.095 Y92.591 E10.83816
G1 X125.582 Y92.947 E10.85832
G1 X126.401 Y93.612 E10.89359
G1 X126.805 Y93.977 E10.91179
G1 X127.231 Y94.385 E10.9315
G1 X127.766 Y94.944 E10.95737
G1 X128.275 Y95.511 E10.98284
G1 X128.79 Y96.133 E11.00983
G1 X129.35 Y96.866 E11.04066
G1 X129.722 Y97.385 E11.06201
G1 X129.898 Y97.648 E11.07259
G1 X130.288 Y98.279 E11.09738
G1 X130.686 Y98.979 E11.1243
G1 X131.102 Y99.769 E11.15414
G1 X131.351 Y100.288 E11.17338
G1 X131.731 Y101.142 E11.20463
G1 X131.988 Y101.777 E11.22753
G1 X132.266 Y102.535 E11.25451
G1 X132.47 Y103.134 E11.27566
G1 X132.771 Y104.159 E11.31137
G1 X132.954 Y104.914 E11.33734
G1 X133.197 Y106.106 E11.37801
G1 X133.332 Y106.941 E11.40628
G1 X133.419 Y107.674 E11.43095
G1 X133.473 Y108.287 E11.45152
G1 X133.519 Y109.206 E11.48228
G1 X133.54 Y110.244 E11.51698
G1 X133.53 Y111.062 E11.54433
G1 X133.488 Y111.858 E11.57097
G1 X133.405 Y112.813 E11.60302
G1 X133.31 Y113.621 E11.63021
G1 X133.147 Y114.709 E11.66698
G1 X132.9 Y116.05 E11.71256
G1 X132.682 Y117.039 E11.74641
G1 X132.41 Y118.101 E11.78306
G1 X132.13 Y119.015 E11.81501
G1 X131.816 Y119.89 E11.84609
G1 X131.484 Y120.703 E11.87544
G1 X131.32 Y121.06 E11.88857
G1 X130.938 Y121.807 E11.91662
G1 X130.577 Y122.448 E11.94121
G1 X130.23 Y123.021 E11.9636
G1 X129.793 Y123.69 E11.99031
G1 X129.387 Y124.266 E12.01387
G1 X128.896 Y124.915 E12.04107
G1 X128.507 Y125.398 E12.0618
G1 X128.07 Y125.908 E12.08425
G1 X127.605 Y126.415 E12.10725
G1 X127.03 Y127.001 E12.13469
G1 X126.254 Y127.714 E12.16991
G1 X125.894 Y128.012 E12.18554
G1 X125.153 Y128.571 E12.21656
G1 X124.747 Y128.849 E12.23301
G1 X123.986 Y129.322 E12.26296
G1 X123.611 Y129.533 E12.27734
G1 X123.009 Y129.846 E12.30002
G1 X122.735 Y129.977 E12.31017
G1 X122.178 Y130.223 E12.33053
G1 X121.136 Y130.64 E12.36804
G1 X120.082 Y131.022 E12.40552
G1 X119.196 Y131.317 E12.43673
G1 X118.73 Y131.46 E12.45303
G1 X117.661 Y131.76 E12.49014
G1 X117.178 Y131.882 E12.50679
G1 X115.979 Y132.148 E12.54784
G1 X115.373 Y132.261 E12.56845
G1 X114.868 Y132.342 E12.58555
G1 X114.298 Y132.419 E12.60477
G1 X113.441 Y132.498 E12.63354
G1 X112.538 Y132.543 E12.66376
G1 X111.99 Y132.556 E12.68208
G1 X111.369 Y132.547 E12.70284
G1 X110.132 Y132.495 E12.74423
G1 X108.923 Y132.422 E12.78472
G1 X107.505 Y132.307 E12.83227
G1 X106.74 Y132.217 E12.85802
G1 X105.269 Y131.996 E12.90774
G1 X104.552 Y131.859 E12.93214
G1 X103.714 Y131.675 E12.96082
G1 X103.198 Y131.547 E12.97859
G1 X102.707 Y131.412 E12.99561
G1 X102.01 Y131.193 E13.02003
G1 X101.091 Y130.868 E13.05262
G1 X100.117 Y130.466 E13.08784
G1 X99.264 Y130.061 E13.1194
G1 X98.649 Y129.743 E13.14254
G1 X98.05 Y129.407 E13.1655
G1 X97.372 Y129.005 E13.19185
G1 X96.933 Y128.726 E13.20923
G1 X96.336 Y128.325 E13.23327
G1 X95.906 Y128.021 E13.25088
G1 X95.519 Y127.731 E13.26704
G1 X94.813 Y127.173 E13.29712
G1 X94.371 Y126.798 E13.3165
G1 X93.821 Y126.305 E13.34119
G1 X93.313 Y125.817 E13.36473
G1 X92.768 Y125.256 E13.39088
G1 X92.38 Y124.834 E13.41004
G1 X91.968 Y124.347 E13.43136
G1 X91.56 Y123.837 E13.45319
G1 X91.252 Y123.432 E13.4702
G1 X90.851 Y122.866 E13.49339
G1 X90.499 Y122.342 E13.51449
G1 X90.155 Y121.799 E13.53597
G1 X89.846 Y121.266 E13.55657
G1 X89.596 Y120.802 E13.57419
G1 X89.195 Y119.969 E13.60509
G1 X88.891 Y119.257 E13.63097
G1 X88.522 Y118.25 E13.66682
G1 X88.311 Y117.541 E13.69154
G1 X88.162 Y116.99 E13.71062
G1 X88.006 Y116.327 E13.73339
G1 X87.879 Y115.659 E13.75612
G1 X87.75 Y114.863 E13.78307
G1 X87.613 Y113.787 E13.81933
G1 X87.563 Y113.245 E13.83752
G1 X87.506 Y112.368 E13.8669
G1 X87.472 Y111.333 E13.90151
G1 X87.47 Y110.681 E13.92331
G1 X87.495 Y110.037 E13.94485
G1 X87.533 Y109.491 E13.96315
G1 X87.621 Y108.686 E13.99022
G1 X87.76 Y107.759 E14.02155
G1 X87.928 Y106.894 E14.051
G1 X88.112 Y106.173 E14.07588
G1 X88.277 Y105.602 E14.09574
G1 X88.52 Y104.844 E14.12235
