;FLAVOR:Marlin
;TIME:1146
;Filament used: 0.569658m
;Layer height: 0.2
;MINX:83.512
;MINY:83.5
PRINT_START_SET MESH_MIN=83.512,83.5
;MINZ:0.2
;MAXX:136.5
;MAXY:136.488
PRINT_START_SET MESH_MAX=136.5,136.488
;MAXZ:2
;TARGET_MACHINE.NAME:Creality Ender-3 S1 Pro
;POSTPROCESSED
;Generated with Cura_SteamEngine 5.5.0
M82 ;absolute extrusion mode
M190 S0
M109 S0
_PRINT_START_PHASE_INIT EXTRUDER=215.0 BED=63 NOZZLE_SIZE=0.4
; Insert custom gcode here.
_PRINT_START_PHASE_PREHEAT
; Insert custom gcode here.
_PRINT_START_PHASE_PROBING
; Insert custom gcode here.
_PRINT_START_PHASE_EXTRUDER
; Insert custom gcode here.
_PRINT_START_PHASE_PURGE

; This is the place to put slicer purge lines if you haven't set a non-zero
; variable_start_purge_length to have START_PRINT automatically calculate and
; perform the purge (e.g. if using a Mosaic Palette, which requires the slicer
; to generate the purge).
G92 E0
G92 E0
G1 F2280 E-0.8
;LAYER_COUNT:10
INIT_LAYER_GCODE LAYERS=10
PRINT_START_SET LAYERS=10
;BEFORE_LAYER_CHANGE
;LAYER:0
BEFORE_LAYER_CHANGE LAYER=0
AFTER_LAYER_CHANGE
M107
M204 S2000
G0 F7500 X92.559 Y86.908 Z0.2
M204 S500
;TYPE:SKIRT
G1 F2280 E0
G1 F1500 X93.262 Y86.235 E0.02978
G1 X94.023 Y85.626 E0.0596
G1 X94.833 Y85.087 E0.08938
G1 X95.689 Y84.621 E0.1192
G1 X96.549 Y84.247 E0.14789
G1 X97.508 Y83.927 E0.17883
G1 X98.455 Y83.703 E0.20861
G1 X99.348 Y83.571 E0.23623
G1 X100.205 Y83.513 E0.26251
G1 X100.812 Y83.5 E0.28109
G1 X124.804 Y83.5 E1.01523
G1 X125.684 Y83.513 E1.04216
G1 X126.656 Y83.572 E1.07196
G1 X127.619 Y83.718 E1.10176
G1 X128.566 Y83.949 E1.13159
G1 X129.454 Y84.249 E1.16027
G1 X130.346 Y84.639 E1.19006
G1 X131.229 Y85.126 E1.22092
G1 X131.98 Y85.628 E1.24856
G1 X132.795 Y86.286 E1.28061
G1 X133.493 Y86.964 E1.31038
G1 X134.129 Y87.701 E1.34017
G1 X134.699 Y88.491 E1.36998
G1 X135.161 Y89.267 E1.39762
G1 X135.615 Y90.209 E1.42961
G1 X135.944 Y91.087 E1.4583
G1 X136.213 Y92.059 E1.48916
G1 X136.39 Y93.025 E1.51921
G1 X136.485 Y94.155 E1.55391
G1 X136.5 Y94.83 E1.57457
G1 X136.499 Y118.916 E2.31159
G1 X136.487 Y119.676 E2.33485
G1 X136.429 Y120.649 E2.36467
G1 X136.283 Y121.612 E2.39448
G1 X136.052 Y122.559 E2.4243
G1 X135.739 Y123.481 E2.4541
G1 X135.347 Y124.372 E2.48388
G1 X134.895 Y125.194 E2.51259
G1 X134.332 Y126.032 E2.54348
G1 X133.718 Y126.79 E2.57333
G1 X133.042 Y127.488 E2.60306
G1 X132.361 Y128.081 E2.63069
G1 X131.513 Y128.692 E2.66268
G1 X130.675 Y129.191 E2.69252
G1 X129.83 Y129.597 E2.72121
G1 X128.885 Y129.952 E2.7521
G1 X127.948 Y130.211 E2.78184
G1 X127.064 Y130.377 E2.80937
G1 X126.103 Y130.515 E2.83907
G1 X125.116 Y130.642 E2.86952
G1 X122.619 Y131.034 E2.94687
G1 X120.163 Y131.493 E3.02332
G1 X117.683 Y132.028 E3.10095
G1 X115.288 Y132.617 E3.17642
G1 X112.83 Y133.293 E3.25443
G1 X110.447 Y134.025 E3.33071
G1 X106.915 Y135.242 E3.44502
G1 X106.19 Y135.508 E3.46865
G1 X105.354 Y135.781 E3.49556
G1 X104.802 Y135.935 E3.5131
G1 X104.313 Y136.056 E3.52851
G1 X103.292 Y136.26 E3.56037
G1 X102.736 Y136.342 E3.57757
G1 X101.992 Y136.424 E3.60047
G1 X101.094 Y136.479 E3.628
G1 X100.236 Y136.488 E3.65426
G1 X99.892 Y136.478 E3.66479
G1 X99.028 Y136.426 E3.69127
G1 X98.333 Y136.35 E3.71267
G1 X97.893 Y136.287 E3.72627
G1 X97.173 Y136.162 E3.74863
G1 X96.57 Y136.03 E3.76752
G1 X95.762 Y135.816 E3.79309
G1 X95.448 Y135.721 E3.80313
G1 X94.825 Y135.512 E3.82324
G1 X93.964 Y135.182 E3.85145
G1 X93.198 Y134.841 E3.87711
G1 X92.427 Y134.45 E3.90356
G1 X92.096 Y134.266 E3.91515
G1 X91.537 Y133.932 E3.93508
G1 X91.204 Y133.72 E3.94716
G1 X90.564 Y133.283 E3.97087
G1 X89.891 Y132.771 E3.99674
G1 X89.212 Y132.199 E4.02391
G1 X88.537 Y131.56 E4.05235
G1 X88.069 Y131.075 E4.07298
G1 X87.481 Y130.416 E4.1
G1 X87.231 Y130.109 E4.11212
G1 X86.708 Y129.422 E4.13854
G1 X86.365 Y128.925 E4.15701
G1 X86.139 Y128.578 E4.16969
G1 X85.716 Y127.874 E4.19482
G1 X85.312 Y127.115 E4.22113
G1 X84.938 Y126.319 E4.24804
G1 X84.685 Y125.705 E4.26836
G1 X84.533 Y125.304 E4.28148
G1 X84.276 Y124.547 E4.30594
G1 X84.057 Y123.777 E4.33044
G1 X83.912 Y123.174 E4.34942
G1 X83.827 Y122.761 E4.36232
G1 X83.69 Y121.969 E4.38691
G1 X83.579 Y121.029 E4.41588
G1 X83.521 Y120.102 E4.4443
G1 X83.512 Y119.202 E4.47184
G1 X83.539 Y118.524 E4.4926
G1 X83.568 Y118.118 E4.50506
G1 X83.637 Y117.424 E4.5264
G1 X83.736 Y116.742 E4.54748
G1 X83.811 Y116.331 E4.56027
G1 X83.968 Y115.58 E4.58375
G1 X84.108 Y115.033 E4.60102
G1 X84.227 Y114.62 E4.61417
G1 X84.43 Y113.987 E4.63452
G1 X85.592 Y110.713 E4.74082
G1 X86.368 Y108.296 E4.8185
G1 X87.074 Y105.868 E4.89587
G1 X87.697 Y103.474 E4.97156
G1 X88.271 Y100.972 E5.05011
G1 X88.757 Y98.556 E5.12552
G1 X89.181 Y96.078 E5.20245
G1 X89.622 Y92.941 E5.29938
G1 X89.804 Y91.985 E5.32916
G1 X90.069 Y91.048 E5.35896
G1 X90.416 Y90.139 E5.38873
G1 X90.842 Y89.263 E5.41854
G1 X91.344 Y88.428 E5.44835
G1 X91.918 Y87.641 E5.47815
G1 X92.559 Y86.908 E5.50795
M204 S2000
G0 F7500 X92.836 Y87.197
M204 S500
G1 F1500 X93.513 Y86.547 E5.53667
G1 X94.245 Y85.959 E5.5654
G1 X95.025 Y85.438 E5.5941
G1 X95.849 Y84.988 E5.62283
G1 X96.709 Y84.614 E5.65153
G1 X97.6 Y84.316 E5.68027
G1 X98.513 Y84.099 E5.70899
G1 X99.406 Y83.967 E5.73661
G1 X100.214 Y83.913 E5.76139
G1 X100.821 Y83.9 E5.77997
G1 X124.798 Y83.9 E6.51365
G1 X125.66 Y83.912 E6.54003
G1 X126.597 Y83.968 E6.56875
G1 X127.525 Y84.107 E6.59746
G1 X128.438 Y84.328 E6.62621
G1 X129.294 Y84.616 E6.65384
G1 X130.186 Y85.006 E6.68363
G1 X131.007 Y85.459 E6.71233
G1 X131.758 Y85.961 E6.73997
G1 X132.517 Y86.573 E6.7698
G1 X133.191 Y87.226 E6.79852
G1 X133.805 Y87.935 E6.82722
G1 X134.355 Y88.696 E6.85595
G1 X134.817 Y89.472 E6.88358
G1 X135.24 Y90.349 E6.91338
G1 X135.569 Y91.227 E6.94207
G1 X135.82 Y92.132 E6.9708
G1 X135.991 Y93.059 E6.99965
G1 X136.086 Y94.189 E7.03435
G1 X136.1 Y94.83 E7.05397
G1 X136.099 Y118.91 E7.7908
G1 X136.088 Y119.653 E7.81354
G1 X136.033 Y120.59 E7.84226
G1 X135.894 Y121.518 E7.87097
G1 X135.673 Y122.431 E7.89971
G1 X135.373 Y123.32 E7.92842
G1 X134.996 Y124.179 E7.95713
G1 X134.544 Y125.001 E7.98583
G1 X134.021 Y125.781 E8.01457
G1 X133.431 Y126.512 E8.04331
G1 X132.779 Y127.186 E8.07201
G1 X132.098 Y127.779 E8.09964
G1 X131.308 Y128.349 E8.12945
G1 X130.502 Y128.83 E8.15817
G1 X129.657 Y129.236 E8.18686
G1 X128.778 Y129.567 E8.2156
G1 X127.874 Y129.818 E8.24431
G1 X127.007 Y129.981 E8.2713
G1 X126.052 Y130.118 E8.30082
G1 X125.065 Y130.245 E8.33127
G1 X122.557 Y130.639 E8.40896
G1 X120.079 Y131.102 E8.48609
G1 X117.599 Y131.637 E8.56373
G1 X115.182 Y132.231 E8.63988
G1 X112.724 Y132.908 E8.7179
G1 X110.317 Y133.647 E8.79494
G1 X106.785 Y134.864 E8.90926
G1 X106.066 Y135.128 E8.93269
G1 X105.246 Y135.396 E8.95909
G1 X104.705 Y135.547 E8.97628
G1 X104.235 Y135.664 E8.9911
G1 X103.233 Y135.864 E9.02236
G1 X102.692 Y135.944 E9.0391
G1 X101.948 Y136.026 E9.062
G1 X101.09 Y136.079 E9.08831
G1 X100.247 Y136.088 E9.1141
G1 X99.916 Y136.079 E9.12424
G1 X99.071 Y136.028 E9.15014
G1 X98.389 Y135.954 E9.17113
G1 X97.961 Y135.893 E9.18436
G1 X97.258 Y135.771 E9.20619
G1 X96.672 Y135.643 E9.22455
G1 X95.877 Y135.433 E9.24971
G1 X95.575 Y135.342 E9.25936
G1 X94.968 Y135.139 E9.27894
G1 X94.126 Y134.816 E9.30654
G1 X93.379 Y134.484 E9.33155
G1 X92.621 Y134.1 E9.35755
G1 X92.301 Y133.923 E9.36874
G1 X91.752 Y133.595 E9.38831
G1 X91.43 Y133.39 E9.39999
G1 X90.806 Y132.964 E9.42311
G1 X90.149 Y132.465 E9.44836
G1 X89.487 Y131.908 E9.47483
G1 X88.825 Y131.282 E9.50271
G1 X88.357 Y130.797 E9.52333
G1 X87.791 Y130.163 E9.54934
G1 X87.549 Y129.867 E9.56104
G1 X87.037 Y129.195 E9.58689
G1 X86.7 Y128.707 E9.60504
G1 X86.482 Y128.372 E9.61727
G1 X86.069 Y127.686 E9.64177
G1 X85.674 Y126.945 E9.66746
G1 X85.308 Y126.166 E9.6938
G1 X85.059 Y125.563 E9.71376
G1 X84.912 Y125.175 E9.72646
G1 X84.661 Y124.437 E9.75031
G1 X84.446 Y123.683 E9.7743
G1 X84.304 Y123.093 E9.79287
G1 X84.221 Y122.692 E9.8054
G1 X84.087 Y121.922 E9.82932
G1 X83.978 Y121.004 E9.8576
G1 X83.921 Y120.098 E9.88538
G1 X83.912 Y119.218 E9.91231
G1 X83.938 Y118.552 E9.93271
G1 X83.966 Y118.157 E9.94482
G1 X84.033 Y117.481 E9.96561
G1 X84.13 Y116.813 E9.98626
G1 X84.202 Y116.413 E9.9987
G1 X84.356 Y115.679 E10.02165
G1 X84.496 Y115.132 E10.03893
G1 X84.608 Y114.742 E10.05134
G1 X84.807 Y114.121 E10.0713
G1 X85.969 Y110.847 E10.1776
G1 X86.749 Y108.418 E10.25566
G1 X87.458 Y105.98 E10.33336
G1 X88.084 Y103.575 E10.4094
G1 X88.661 Y101.062 E10.4883
G1 X89.149 Y98.635 E10.56405
G1 X89.575 Y96.145 E10.64135
G1 X90.015 Y93.015 E10.73806
G1 X90.189 Y92.093 E10.76678
G1 X90.443 Y91.19 E10.79548
G1 X90.776 Y90.313 E10.82418
G1 X91.185 Y89.468 E10.85291
G1 X91.667 Y88.663 E10.88162
G1 X92.219 Y87.904 E10.91034
G1 X92.836 Y87.197 E10.93905
M204 S2000
G0 F7500 X93.113 Y87.485
M204 S500
G1 F1500 X93.764 Y86.858 E10.96671
G1 X94.467 Y86.291 E10.99434
G1 X95.217 Y85.789 E11.02196
G1 X96.009 Y85.355 E11.0496
G1 X96.837 Y84.993 E11.07725
G1 X97.693 Y84.705 E11.10488
G1 X98.571 Y84.495 E11.13251
G1 X99.464 Y84.363 E11.16013
G1 X100.223 Y84.313 E11.1834
G1 X100.83 Y84.3 E11.20198
G1 X124.793 Y84.3 E11.93523
G1 X125.637 Y84.311 E11.96106
G1 X126.539 Y84.364 E11.98871
G1 X127.432 Y84.496 E12.01633
G1 X128.31 Y84.707 E12.04396
G1 X129.166 Y84.995 E12.0716
G1 X129.993 Y85.357 E12.09922
G1 X130.785 Y85.792 E12.12687
G1 X131.536 Y86.294 E12.15451
G1 X132.239 Y86.861 E12.18215
G1 X132.889 Y87.488 E12.20978
G1 X133.481 Y88.17 E12.23742
G1 X134.011 Y88.901 E12.26505
G1 X134.473 Y89.677 E12.29268
G1 X134.866 Y90.49 E12.32031
G1 X135.184 Y91.335 E12.34794
G1 X135.427 Y92.205 E12.37558
G1 X135.592 Y93.093 E12.40322
G1 X135.687 Y94.223 E12.43792
G1 X135.7 Y94.83 E12.4565
G1 X135.699 Y118.904 E13.19314
G1 X135.689 Y119.63 E13.21536
G1 X135.637 Y120.532 E13.24301
G1 X135.505 Y121.425 E13.27063
G1 X135.294 Y122.304 E13.29829
G1 X135.007 Y123.16 E13.32592
G1 X134.645 Y123.987 E13.35354
G1 X134.211 Y124.779 E13.38117
G1 X133.709 Y125.53 E13.40882
G1 X133.143 Y126.234 E13.43646
G1 X132.516 Y126.884 E13.46409
G1 X131.835 Y127.477 E13.49172
G1 X131.103 Y128.006 E13.51936
G1 X130.328 Y128.47 E13.547
G1 X129.515 Y128.862 E13.57462
G1 X128.67 Y129.182 E13.60226
G1 X127.8 Y129.425 E13.6299
G1 X126.95 Y129.585 E13.65637
G1 X126.001 Y129.721 E13.68571
G1 X125.014 Y129.848 E13.71616
G1 X122.495 Y130.244 E13.79418
G1 X119.994 Y130.711 E13.87203
G1 X117.514 Y131.247 E13.94967
G1 X115.076 Y131.845 E14.02649
G1 X112.618 Y132.523 E14.10451
G1 X110.187 Y133.269 E14.18232
G1 X106.655 Y134.486 E14.29663
G1 X105.942 Y134.748 E14.31987
G1 X105.138 Y135.011 E14.34576
G1 X104.608 Y135.159 E14.3626
G1 X104.157 Y135.272 E14.37682
G1 X103.174 Y135.468 E14.4075
G1 X102.648 Y135.546 E14.42377
G1 X101.904 Y135.628 E14.44667
G1 X101.086 Y135.679 E14.47175
G1 X100.257 Y135.688 E14.49712
G1 X99.94 Y135.68 E14.50682
G1 X99.114 Y135.63 E14.53214
G1 X98.445 Y135.558 E14.55273
G1 X98.029 Y135.499 E14.56559
G1 X97.343 Y135.38 E14.58689
G1 X96.774 Y135.256 E14.60471
G1 X95.992 Y135.05 E14.62946
G1 X95.702 Y134.963 E14.63872
G1 X95.111 Y134.765 E14.65779
G1 X94.288 Y134.45 E14.68476
G1 X93.56 Y134.127 E14.70913
G1 X92.815 Y133.75 E14.73468
G1 X92.506 Y133.579 E14.74548
G1 X91.967 Y133.258 E14.76468
G1 X91.656 Y133.06 E14.77596
G1 X91.048 Y132.645 E14.79849
G1 X90.391 Y132.146 E14.82373
G1 X89.762 Y131.617 E14.84888
G1 X89.1 Y130.991 E14.87676
G1 X88.655 Y130.531 E14.89635
G1 X88.1 Y129.909 E14.92185
G1 X87.867 Y129.625 E14.93309
G1 X87.366 Y128.967 E14.9584
G1 X87.035 Y128.489 E14.97619
G1 X86.825 Y128.166 E14.98798
G1 X86.422 Y127.497 E15.01188
G1 X86.036 Y126.775 E15.03693
G1 X85.678 Y126.013 E15.06269
G1 X85.433 Y125.422 E15.08227
G1 X85.291 Y125.046 E15.09457
G1 X85.046 Y124.327 E15.11781
G1 X84.835 Y123.589 E15.1413
G1 X84.696 Y123.011 E15.15949
G1 X84.615 Y122.623 E15.17162
G1 X84.484 Y121.875 E15.19485
G1 X84.377 Y120.979 E15.22246
G1 X84.321 Y120.094 E15.2496
G1 X84.312 Y119.233 E15.27595
G1 X84.337 Y118.58 E15.29594
G1 X84.364 Y118.196 E15.30772
G1 X84.429 Y117.538 E15.32795
G1 X84.524 Y116.883 E15.34821
G1 X84.593 Y116.495 E15.36027
G1 X84.744 Y115.778 E15.38269
G1 X84.881 Y115.242 E15.39961
G1 X84.989 Y114.864 E15.41164
G1 X85.184 Y114.255 E15.43121
G1 X86.346 Y110.981 E15.53752
G1 X87.13 Y108.54 E15.61597
G1 X87.842 Y106.092 E15.69398
G1 X88.471 Y103.676 E15.77037
G1 X89.051 Y101.152 E15.84962
G1 X89.541 Y98.714 E15.92571
G1 X89.969 Y96.212 E16.00338
G1 X90.408 Y93.089 E16.09988
G1 X90.574 Y92.201 E16.12752
G1 X90.817 Y91.331 E16.15516
G1 X91.136 Y90.487 E16.18277
G1 X91.528 Y89.673 E16.21042
G1 X91.991 Y88.898 E16.23804
G1 X92.521 Y88.166 E16.2657
G1 X93.113 Y87.485 E16.29331
M204 S2000
G1 F2280 E15.49331
;MESH:Body1.3mf
G0 F7500 X102.344 Y117.417
G0 X103.054 Y119.005
M204 S500
;TYPE:WALL-INNER
G1 F2280 E16.29331
G1 F1200 X103.101 Y119.471 E16.30764
G1 X103.059 Y119.974 E16.32308
G1 X102.917 Y120.459 E16.33855
G1 X102.682 Y120.913 E16.35419
G1 X102.398 Y121.279 E16.36837
G1 X102.065 Y121.577 E16.38204
G1 X101.643 Y121.836 E16.39719
G1 X101.139 Y122.021 E16.41362
G1 X100.676 Y122.093 E16.42796
G1 X100.065 Y122.079 E16.44666
G1 X99.47 Y121.887 E16.46579
G1 X99.062 Y121.666 E16.47999
G1 X98.696 Y121.374 E16.49432
G1 X98.376 Y121.002 E16.50933
G1 X98.122 Y120.553 E16.52512
G1 X97.929 Y119.996 E16.54315
G1 X97.901 Y119.388 E16.56178
G1 X97.988 Y118.768 E16.58093
G1 X98.221 Y118.249 E16.59834
G1 X98.579 Y117.723 E16.61781
G1 X99.155 Y117.254 E16.64054
G1 X99.834 Y116.97 E16.66306
G1 X100.583 Y116.885 E16.68613
G1 X101.285 Y117.01 E16.70795
G1 X101.839 Y117.271 E16.72669
G1 X102.223 Y117.551 E16.74123
G1 X102.549 Y117.899 E16.75582
G1 X102.892 Y118.44 E16.77542
G1 X103.054 Y119.005 E16.79341
M204 S2000
G1 F2280 E15.99341
G0 F7500 X103.016 Y118.509
G0 X102.899 Y119.954
G0 X102.775 Y120.384
G0 X102.565 Y120.802
G0 X102.292 Y121.157
G0 X101.944 Y121.468
G0 X101.561 Y121.699
G0 X101.123 Y121.86
G0 X100.681 Y121.934
G0 X100.097 Y121.922
G0 X99.553 Y121.749
G0 X99.16 Y121.539
G0 X98.652 Y121.067
G0 X98.281 Y121.194
G0 X96.37 Y122.655
G0 X96.29 Y122.88
M204 S500
G1 F2280 E16.79341
G1 F1200 X96.49 Y123.115 E16.80285
G1 X96.675 Y123.311 E16.8111
G1 X96.886 Y123.51 E16.81997
G1 X97.12 Y123.71 E16.82939
G1 X97.336 Y123.875 E16.83771
G1 X97.584 Y124.046 E16.84692
G1 X97.949 Y124.265 E16.85995
G1 X98.337 Y124.447 E16.87306
G1 X98.618 Y124.56 E16.88233
G1 X98.879 Y124.649 E16.89077
G1 X99.167 Y124.732 E16.89994
G1 X99.439 Y124.794 E16.90848
G1 X99.758 Y124.848 E16.91838
G1 X100.009 Y124.876 E16.9261
G1 X100.316 Y124.896 E16.93552
G1 X100.592 Y124.899 E16.94396
G1 X100.895 Y124.885 E16.95325
G1 X101.168 Y124.859 E16.96164
G1 X101.457 Y124.814 E16.97059
G1 X101.85 Y124.731 E16.98288
G1 X102.305 Y124.588 E16.99747
G1 X102.588 Y124.478 E17.00676
G1 X102.839 Y124.366 E17.01517
G1 X103.079 Y124.243 E17.02343
G1 X103.344 Y124.088 E17.03282
G1 X103.571 Y123.941 E17.04109
G1 X103.812 Y123.763 E17.05026
G1 X104.037 Y123.578 E17.05918
G1 X104.249 Y123.385 E17.06795
G1 X104.478 Y123.149 E17.07801
G1 X104.649 Y122.957 E17.08588
G1 X104.815 Y122.745 E17.09412
G1 X105.008 Y122.468 E17.10445
G1 X105.144 Y122.254 E17.11221
G1 X105.289 Y121.994 E17.12132
G1 X105.407 Y121.752 E17.12955
G1 X105.527 Y121.47 E17.13893
G1 X105.619 Y121.213 E17.14728
G1 X105.713 Y120.903 E17.1572
G1 X105.777 Y120.644 E17.16536
G1 X105.866 Y120.112 E17.18187
G1 X105.891 Y119.787 E17.19184
G1 X105.904 Y119.437 E17.20256
G1 X105.965 Y119.227 E17.20925
G1 X106.097 Y119.055 E17.21588
G1 X106.233 Y118.962 E17.22092
G1 X106.448 Y118.902 E17.22775
G1 X124.9 Y118.9 E17.79237
G1 X124.9 Y95.1 E18.52064
G1 X101.1 Y95.1 E19.2489
G1 X101.098 Y113.552 E19.81352
G1 X101.06 Y113.717 E19.8187
G1 X100.903 Y113.945 E19.82717
G1 X100.612 Y114.089 E19.83711
G1 X99.888 Y114.134 E19.8593
G1 X99.268 Y114.238 E19.87854
G1 X98.786 Y114.38 E19.89392
G1 X98.53 Y114.473 E19.90225
G1 X98.248 Y114.593 E19.91163
G1 X98.006 Y114.711 E19.91987
G1 X97.746 Y114.856 E19.92898
G1 X97.501 Y115.011 E19.93785
G1 X97.255 Y115.185 E19.94707
G1 X97.037 Y115.357 E19.95556
G1 X96.827 Y115.543 E19.96415
G1 X96.615 Y115.751 E19.97324
G1 X96.421 Y115.964 E19.98205
G1 X96.237 Y116.188 E19.99092
G1 X96.06 Y116.429 E20.00007
G1 X95.912 Y116.656 E20.00836
