;FLAVOR:Marlin
;TIME:1267
;Filament used: 1.03321m
;Layer height: 0.2
;MINX:70.981
;MINY:77.83
PRINT_START_SET MESH_MIN=70.981,77.83
;MINZ:0.2
;MAXX:149.019
;MAXY:142.17
PRINT_START_SET MESH_MAX=149.019,142.17
;MAXZ:1
;TARGET_MACHINE.NAME:Creality Ender-3 S1 Pro
;POSTPROCESSED
;Generated with Cura_SteamEngine 5.5.0
M82 ;absolute extrusion mode
M190 S0
M109 S0
_PRINT_START_PHASE_INIT EXTRUDER=215.0 BED=63 NOZZLE_SIZE=0.4
; Insert custom gcode here.
_PRINT_START_PHASE_PREHEAT
; Insert custom gcode here.
_PRINT_START_PHASE_PROBING
; Insert custom gcode here.
_PRINT_START_PHASE_EXTRUDER
; Insert custom gcode here.
_PRINT_START_PHASE_PURGE

; This is the place to put slicer purge lines if you haven't set a non-zero
; variable_start_purge_length to have START_PRINT automatically calculate and 
; perform the purge (e.g. if using a Mosaic Palette, which requires the slicer
; to generate the purge).
G92 E0
G92 E0
G1 F2280 E-0.8
;LAYER_COUNT:5
INIT_LAYER_GCODE LAYERS=5
PRINT_START_SET LAYERS=5
;BEFORE_LAYER_CHANGE
;LAYER:0
BEFORE_LAYER_CHANGE LAYER=0
AFTER_LAYER_CHANGE
M107
M204 S2000
G0 F7500 X74.437 Y80.843 Z0.2
M204 S500
;TYPE:SKIRT
G1 F2280 E0
G1 F1500 X75.173 Y80.206 E0.03237
G1 X75.905 Y79.676 E0.06243
G1 X76.802 Y79.141 E0.09717
G1 X77.68 Y78.72 E0.12956
G1 X78.593 Y78.378 E0.16198
G1 X79.53 Y78.119 E0.19432
G1 X80.497 Y77.941 E0.22702
G1 X81.636 Y77.845 E0.26504
G1 X82.293 Y77.83 E0.2869
G1 X137.323 Y77.83 E2.1172
G1 X138.203 Y77.843 E2.14647
G1 X139.175 Y77.902 E2.17886
G1 X140.138 Y78.048 E2.21126
G1 X141.085 Y78.279 E2.24368
G1 X141.973 Y78.579 E2.27485
G1 X142.865 Y78.969 E2.30723
G1 X143.748 Y79.456 E2.34077
G1 X144.499 Y79.958 E2.37082
G1 X145.314 Y80.616 E2.40566
G1 X146.012 Y81.294 E2.43802
G1 X146.648 Y82.031 E2.4704
G1 X147.218 Y82.821 E2.5028
G1 X147.68 Y83.597 E2.53284
G1 X148.134 Y84.539 E2.56762
G1 X148.463 Y85.417 E2.5988
G1 X148.732 Y86.389 E2.63235
G1 X148.909 Y87.355 E2.66501
G1 X149.004 Y88.485 E2.70273
G1 X149.019 Y89.16 E2.72518
G1 X149.018 Y130.57 E4.10249
G1 X149.007 Y131.333 E4.12787
G1 X148.95 Y132.306 E4.16028
G1 X148.805 Y133.269 E4.19267
G1 X148.576 Y134.215 E4.22505
G1 X148.265 Y135.139 E4.25747
G1 X147.873 Y136.03 E4.28985
G1 X147.405 Y136.882 E4.32218
G1 X146.883 Y137.663 E4.35342
G1 X146.25 Y138.448 E4.38696
G1 X145.625 Y139.099 E4.41698
G1 X144.836 Y139.787 E4.4518
G1 X144.076 Y140.337 E4.483
G1 X143.209 Y140.854 E4.51657
G1 X142.331 Y141.276 E4.54898
G1 X141.42 Y141.618 E4.58134
G1 X140.481 Y141.879 E4.61376
G1 X139.515 Y142.057 E4.64643
G1 X138.364 Y142.155 E4.68485
G1 X137.689 Y142.17 E4.7073
G1 X82.545 Y142.169 E6.5414
G1 X81.812 Y142.158 E6.56578
G1 X80.84 Y142.101 E6.59817
G1 X79.877 Y141.955 E6.63056
G1 X78.931 Y141.726 E6.66293
G1 X78.007 Y141.414 E6.69537
G1 X77.117 Y141.022 E6.72772
G1 X76.294 Y140.571 E6.75893
G1 X75.455 Y140.01 E6.7925
G1 X74.751 Y139.444 E6.82254
G1 X73.998 Y138.719 E6.85731
G1 X73.361 Y137.983 E6.88969
G1 X72.831 Y137.252 E6.91972
G1 X72.295 Y136.355 E6.95447
G1 X71.873 Y135.477 E6.98687
G1 X71.531 Y134.565 E7.01927
G1 X71.271 Y133.627 E7.05164
G1 X71.093 Y132.658 E7.08441
G1 X70.995 Y131.479 E7.12376
G1 X70.981 Y130.828 E7.14542
G1 X70.982 Y89.355 E8.52481
G1 X70.993 Y88.655 E8.5481
G1 X71.051 Y87.682 E8.58052
G1 X71.197 Y86.719 E8.61291
G1 X71.427 Y85.773 E8.64529
G1 X71.74 Y84.85 E8.67771
G1 X72.132 Y83.96 E8.71006
G1 X72.602 Y83.107 E8.74245
G1 X73.145 Y82.299 E8.77483
G1 X73.712 Y81.595 E8.80489
G1 X74.437 Y80.843 E8.83964
M204 S2000
G0 F7500 X74.699 Y81.145
M204 S500
G1 F1500 X75.408 Y80.53 E8.87085
G1 X76.14 Y80 E8.90091
G1 X76.976 Y79.501 E8.93329
G1 X77.821 Y79.094 E8.96449
G1 X78.7 Y78.763 E8.99573
G1 X79.603 Y78.512 E9.0269
G1 X80.531 Y78.34 E9.05829
G1 X81.67 Y78.244 E9.09631
G1 X82.302 Y78.23 E9.11733
G1 X137.317 Y78.23 E10.94714
G1 X138.179 Y78.242 E10.97581
G1 X139.116 Y78.298 E11.00703
G1 X140.044 Y78.437 E11.03824
G1 X140.957 Y78.658 E11.06949
G1 X141.813 Y78.946 E11.09953
G1 X142.705 Y79.336 E11.13191
G1 X143.526 Y79.789 E11.16309
G1 X144.277 Y80.291 E11.19314
G1 X145.036 Y80.903 E11.22557
G1 X145.71 Y81.556 E11.25678
G1 X146.324 Y82.265 E11.28797
G1 X146.874 Y83.026 E11.3192
G1 X147.336 Y83.802 E11.34924
G1 X147.759 Y84.679 E11.38163
G1 X148.088 Y85.557 E11.41281
G1 X148.339 Y86.462 E11.44405
G1 X148.51 Y87.389 E11.4754
G1 X148.605 Y88.519 E11.51312
G1 X148.619 Y89.16 E11.53444
G1 X148.618 Y130.565 E12.91158
G1 X148.608 Y131.31 E12.93636
G1 X148.554 Y132.247 E12.96758
G1 X148.416 Y133.176 E12.99881
G1 X148.197 Y134.088 E13.03001
G1 X147.899 Y134.978 E13.06123
G1 X147.522 Y135.838 E13.09246
G1 X147.072 Y136.66 E13.12363
G1 X146.55 Y137.441 E13.15487
G1 X145.961 Y138.171 E13.18607
G1 X145.336 Y138.822 E13.21608
G1 X144.601 Y139.463 E13.24852
G1 X143.841 Y140.013 E13.27972
G1 X143.035 Y140.494 E13.31094
G1 X142.19 Y140.902 E13.34215
G1 X141.312 Y141.233 E13.37336
G1 X140.408 Y141.486 E13.40458
G1 X139.481 Y141.658 E13.43594
G1 X138.33 Y141.756 E13.47436
G1 X137.689 Y141.77 E13.49569
G1 X82.551 Y141.769 E15.32958
G1 X81.835 Y141.759 E15.3534
G1 X80.899 Y141.705 E15.38458
G1 X79.97 Y141.566 E15.41583
G1 X79.058 Y141.347 E15.44702
G1 X78.168 Y141.048 E15.47825
G1 X77.309 Y140.671 E15.50945
G1 X76.486 Y140.22 E15.54066
G1 X75.706 Y139.698 E15.57188
G1 X75.002 Y139.132 E15.60192
G1 X74.3 Y138.457 E15.63432
G1 X73.685 Y137.748 E15.66553
G1 X73.155 Y137.017 E15.69556
G1 X72.655 Y136.181 E15.72796
G1 X72.247 Y135.336 E15.75917
G1 X71.916 Y134.458 E15.79038
G1 X71.664 Y133.554 E15.82159
G1 X71.492 Y132.625 E15.85302
G1 X71.394 Y131.446 E15.89237
G1 X71.381 Y130.828 E15.91293
G1 X71.382 Y89.361 E17.29212
G1 X71.392 Y88.678 E17.31484
G1 X71.447 Y87.741 E17.34606
G1 X71.586 Y86.813 E17.37727
G1 X71.806 Y85.901 E17.40847
G1 X72.106 Y85.011 E17.43971
G1 X72.483 Y84.152 E17.47091
G1 X72.934 Y83.33 E17.5021
G1 X73.457 Y82.55 E17.53333
G1 X74.024 Y81.846 E17.5634
G1 X74.699 Y81.145 E17.59577
M204 S2000
G0 F7500 X74.962 Y81.447
M204 S500
G1 F1500 X75.643 Y80.854 E17.6258
G1 X76.375 Y80.324 E17.65586
G1 X77.15 Y79.861 E17.68588
G1 X77.963 Y79.468 E17.71592
G1 X78.808 Y79.148 E17.74597
G1 X79.677 Y78.905 E17.77598
G1 X80.565 Y78.739 E17.80603
G1 X81.704 Y78.643 E17.84405
G1 X82.311 Y78.63 E17.86424
G1 X137.312 Y78.63 E19.69358
G1 X138.156 Y78.641 E19.72165
G1 X139.058 Y78.694 E19.75171
G1 X139.951 Y78.826 E19.78173
G1 X140.829 Y79.037 E19.81176
G1 X141.685 Y79.325 E19.8418
G1 X142.512 Y79.687 E19.87183
G1 X143.304 Y80.122 E19.90188
G1 X144.055 Y80.624 E19.93193
G1 X144.758 Y81.191 E19.96197
G1 X145.408 Y81.818 E19.99201
G1 X146 Y82.5 E20.02204
G1 X146.53 Y83.231 E20.05207
G1 X146.992 Y84.007 E20.08211
G1 X147.385 Y84.82 E20.11215
G1 X147.703 Y85.665 E20.14217
G1 X147.946 Y86.535 E20.17222
G1 X148.111 Y87.423 E20.20226
G1 X148.206 Y88.553 E20.23998
G1 X148.219 Y89.16 E20.26017
G1 X148.218 Y130.56 E21.63714
G1 X148.209 Y131.287 E21.66132
G1 X148.158 Y132.189 E21.69137
G1 X148.027 Y133.083 E21.72142
G1 X147.818 Y133.961 E21.75144
G1 X147.532 Y134.818 E21.78149
G1 X147.171 Y135.646 E21.81153
G1 X146.739 Y136.438 E21.84154
G1 X146.238 Y137.19 E21.87159
G1 X145.672 Y137.894 E21.90164
G1 X145.047 Y138.545 E21.93165
G1 X144.366 Y139.139 E21.96171
G1 X143.635 Y139.67 E21.99176
G1 X142.861 Y140.134 E22.02177
G1 X142.048 Y140.528 E22.05182
G1 X141.204 Y140.848 E22.08184
G1 X140.334 Y141.093 E22.11191
G1 X139.447 Y141.259 E22.14192
G1 X138.296 Y141.357 E22.18034
G1 X137.689 Y141.37 E22.20053
G1 X82.556 Y141.369 E24.03426
G1 X81.858 Y141.36 E24.05748
G1 X80.957 Y141.309 E24.0875
G1 X80.063 Y141.177 E24.11755
G1 X79.185 Y140.968 E24.14757
G1 X78.328 Y140.681 E24.17763
G1 X77.501 Y140.32 E24.20765
G1 X76.708 Y139.887 E24.2377
G1 X75.957 Y139.386 E24.26772
G1 X75.253 Y138.82 E24.29777
G1 X74.602 Y138.194 E24.32781
G1 X74.009 Y137.513 E24.35784
G1 X73.479 Y136.782 E24.38787
G1 X73.015 Y136.007 E24.41791
G1 X72.621 Y135.194 E24.44796
G1 X72.301 Y134.35 E24.47798
G1 X72.057 Y133.48 E24.50804
G1 X71.891 Y132.592 E24.53808
G1 X71.794 Y131.437 E24.57663
G1 X71.781 Y130.828 E24.59689
G1 X71.782 Y89.366 E25.97593
G1 X71.791 Y88.701 E25.99805
G1 X71.843 Y87.799 E26.0281
G1 X71.975 Y86.906 E26.05812
G1 X72.185 Y86.028 E26.08815
G1 X72.472 Y85.171 E26.11821
G1 X72.834 Y84.344 E26.14823
G1 X73.267 Y83.552 E26.17825
G1 X73.769 Y82.801 E26.2083
G1 X74.336 Y82.097 E26.23836
G1 X74.962 Y81.447 E26.26838
M204 S2000
G1 F2280 E25.46838
;MESH:Cube
G0 F7500 X82.401 Y88.165
G0 X137.419 Y130.57
M204 S500
;TYPE:WALL-INNER
G1 F2280 E26.26838
G1 F1200 X137.419 Y89.43 E27.6367
G1 X82.581 Y89.43 E29.46062
G1 X82.581 Y130.57 E30.82894
G1 X137.419 Y130.57 E32.65286
M204 S2000
G0 F7500 X137.819 Y130.97
M204 S500
;TYPE:WALL-OUTER
G1 F1200 X137.819 Y89.03 E34.04779
G1 X82.181 Y89.03 E35.89832
G1 X82.181 Y130.97 E37.29325
G1 X137.819 Y130.97 E39.14378
M204 S2000
G0 F7500 X137.549 Y130.7
G0 X137.319 Y130.21
G0 X137.059 Y130.21
M204 S500
;TYPE:SKIN
G1 F1200 X82.941 Y130.21 E40.94375
G1 X82.941 Y89.79 E42.28812
G1 X137.059 Y89.79 E44.0881
G1 X137.059 Y130.21 E45.43247
M204 S2000
G1 F2280 E44.63247
G0 F7500 X137.319 Y130.21
G0 X137.319 Y90.472
G0 X136.858 Y90.472
M204 S500
G1 F2280 E45.43247
G1 F1200 X136.376 Y89.989 E45.45517
M204 S2000
G0 F7500 X135.81 Y89.989
M204 S500
G1 F1200 X136.858 Y91.037 E45.50446
M204 S2000
G0 F7500 X136.858 Y91.603
M204 S500
G1 F1200 X135.244 Y89.989 E45.58038
M204 S2000
G0 F7500 X134.679 Y89.989
M204 S500
G1 F1200 X136.858 Y92.169 E45.68289
M204 S2000
G0 F7500 X136.858 Y92.734
M204 S500
G1 F1200 X134.113 Y89.989 E45.81201
M204 S2000
G0 F7500 X133.547 Y89.989
M204 S500
G1 F1200 X136.858 Y93.3 E45.96775
M204 S2000
G0 F7500 X136.858 Y93.866
M204 S500
G1 F1200 X132.982 Y89.989 E46.15009
M204 S2000
G0 F7500 X132.416 Y89.989
M204 S500
G1 F1200 X136.858 Y94.431 E46.35903
M204 S2000
G0 F7500 X136.858 Y94.997
M204 S500
G1 F1200 X131.85 Y89.989 E46.59459
M204 S2000
G0 F7500 X131.284 Y89.989
M204 S500
G1 F1200 X136.858 Y95.563 E46.85677
M204 S2000
G0 F7500 X136.858 Y96.129
M204 S500
G1 F1200 X130.719 Y89.989 E47.14555
M204 S2000
G0 F7500 X130.153 Y89.989
M204 S500
G1 F1200 X136.858 Y96.694 E47.46094
M204 S2000
G0 F7500 X136.858 Y97.26
M204 S500
G1 F1200 X129.587 Y89.989 E47.80294
M204 S2000
G0 F7500 X129.022 Y89.989
M204 S500
G1 F1200 X136.858 Y97.826 E48.17155
M204 S2000
G0 F7500 X136.858 Y98.391
M204 S500
G1 F1200 X128.456 Y89.989 E48.56675
M204 S2000
G0 F7500 X127.89 Y89.989
M204 S500
G1 F1200 X136.858 Y98.957 E48.98858
M204 S2000
G0 F7500 X136.858 Y99.523
M204 S500
G1 F1200 X127.325 Y89.989 E49.43701
M204 S2000
G0 F7500 X126.759 Y89.989
M204 S500
G1 F1200 X136.858 Y100.088 E49.91203
M204 S2000
G0 F7500 X136.858 Y100.654
M204 S500
G1 F1200 X126.193 Y89.989 E50.41368
M204 S2000
G0 F7500 X125.628 Y89.989
M204 S500
G1 F1200 X136.858 Y101.22 E50.94193
M204 S2000
G0 F7500 X136.858 Y101.785
M204 S500
G1 F1200 X125.062 Y89.989 E51.49678
M204 S2000
G0 F7500 X124.496 Y89.989
M204 S500
G1 F1200 X136.858 Y102.351 E52.07825
M204 S2000
G0 F7500 X136.858 Y102.917
M204 S500
G1 F1200 X123.931 Y89.989 E52.68632
M204 S2000
G0 F7500 X123.365 Y89.989
M204 S500
G1 F1200 X136.858 Y103.482 E53.32099
M204 S2000
G0 F7500 X136.858 Y104.048
M204 S500
G1 F1200 X122.799 Y89.989 E53.98228
M204 S2000
G0 F7500 X122.234 Y89.989
M204 S500
G1 F1200 X136.858 Y104.614 E54.67017
M204 S2000
G0 F7500 X136.858 Y105.18
M204 S500
G1 F1200 X121.668 Y89.989 E55.38469
M204 S2000
G0 F7500 X121.102 Y89.989
M204 S500
G1 F1200 X136.858 Y105.745 E56.1258
M204 S2000
G0 F7500 X136.858 Y106.311
M204 S500
G1 F1200 X120.536 Y89.989 E56.89354
M204 S2000
G0 F7500 X119.971 Y89.989
M204 S500
G1 F1200 X136.858 Y106.877 E57.68787
M204 S2000
G0 F7500 X136.858 Y107.442
M204 S500
G1 F1200 X119.405 Y89.989 E58.50881
M204 S2000
G0 F7500 X118.839 Y89.989
M204 S500
G1 F1200 X136.858 Y108.008 E59.35637
M204 S2000
G0 F7500 X136.858 Y108.574
M204 S500
G1 F1200 X118.274 Y89.989 E60.23052
M204 S2000
G0 F7500 X117.708 Y89.989
M204 S500
G1 F1200 X136.858 Y109.139 E61.13128
M204 S2000
G0 F7500 X136.858 Y109.705
M204 S500
G1 F1200 X117.142 Y89.989 E62.05866
M204 S2000
G0 F7500 X116.577 Y89.989
M204 S500
G1 F1200 X136.858 Y110.271 E63.01264
M204 S2000
G0 F7500 X136.858 Y110.836
M204 S500
G1 F1200 X116.011 Y89.989 E63.99322
M204 S2000
G0 F7500 X115.445 Y89.989
M204 S500
G1 F1200 X136.858 Y111.402 E65.00042
M204 S2000
G0 F7500 X136.858 Y111.968
M204 S500
G1 F1200 X114.88 Y89.989 E66.03422
M204 S2000
G0 F7500 X114.314 Y89.989
M204 S500
G1 F1200 X136.858 Y112.533 E67.09462
M204 S2000
G0 F7500 X136.858 Y113.099
M204 S500
G1 F1200 X113.748 Y89.989 E68.18165
M204 S2000
G0 F7500 X113.183 Y89.989
M204 S500
G1 F1200 X136.858 Y113.665 E69.29527
M204 S2000
G0 F7500 X136.858 Y114.23
M204 S500
G1 F1200 X112.617 Y89.989 E70.43549
M204 S2000
G0 F7500 X112.051 Y89.989
M204 S500
G1 F1200 X136.858 Y114.796 E71.60234
M204 S2000
G0 F7500 X136.858 Y115.362
M204 S500
G1 F1200 X111.485 Y89.989 E72.79581
M204 S2000
G0 F7500 X110.92 Y89.989
M204 S500
G1 F1200 X136.858 Y115.928 E74.01587
M204 S2000
G0 F7500 X136.858 Y116.493
M204 S500
G1 F1200 X110.354 Y89.989 E75.26254
M204 S2000
G0 F7500 X109.788 Y89.989
M204 S500
G1 F1200 X136.858 Y117.059 E76.53583
M204 S2000
G0 F7500 X136.858 Y117.625
M204 S500
G1 F1200 X109.223 Y89.989 E77.83572
M204 S2000
G0 F7500 X108.657 Y89.989
M204 S500
G1 F1200 X136.858 Y118.19 E79.16221
M204 S2000
G0 F7500 X136.858 Y118.756
M204 S500
G1 F1200 X108.091 Y89.989 E80.51532
M204 S2000
G0 F7500 X107.526 Y89.989
M204 S500
G1 F1200 X136.858 Y119.322 E81.89503
M204 S2000
G0 F7500 X136.858 Y119.887
M204 S500
G1 F1200 X106.96 Y89.989 E83.30134
M204 S2000
G0 F7500 X106.394 Y89.989
M204 S500
G1 F1200 X136.858 Y120.453 E84.73427
M204 S2000
G0 F7500 X136.858 Y121.019
M204 S500
G1 F1200 X105.829 Y89.989 E86.19381
M204 S2000
G0 F7500 X105.263 Y89.989
M204 S500
G1 F1200 X136.858 Y121.584 E87.67994
M204 S2000
G0 F7500 X136.858 Y122.15
M204 S500
G1 F1200 X104.697 Y89.989 E89.19269
M204 S2000
G0 F7500 X104.132 Y89.989
M204 S500
G1 F1200 X136.858 Y122.716 E90.73205
M204 S2000
G0 F7500 X136.858 Y123.281
M204 S500
G1 F1200 X103.566 Y89.989 E92.298
M204 S2000
G0 F7500 X103 Y89.989
M204 S500
G1 F1200 X136.858 Y123.847 E93.89058
M204 S2000
G0 F7500 X136.858 Y124.413
M204 S500
G1 F1200 X102.435 Y89.989 E95.50975
M204 S2000
G0 F7500 X101.869 Y89.989
M204 S500
G1 F1200 X136.858 Y124.979 E97.15555
M204 S2000
G0 F7500 X136.858 Y125.544
M204 S500
G1 F1200 X101.303 Y89.989 E98.82795
M204 S2000
G0 F7500 X100.737 Y89.989
M204 S500
G1 F1200 X136.858 Y126.11 E100.52697
M204 S2000
G0 F7500 X136.858 Y126.676
M204 S500
G1 F1200 X100.172 Y89.989 E102.25259
M204 S2000
G0 F7500 X99.606 Y89.989
M204 S500
G1 F1200 X136.858 Y127.241 E104.00481
M204 S2000
G0 F7500 X136.858 Y127.807
M204 S500
G1 F1200 X99.04 Y89.989 E105.78365
M204 S2000
G0 F7500 X98.475 Y89.989
M204 S500
G1 F1200 X136.858 Y128.373 E107.5891
M204 S2000
G0 F7500 X136.858 Y128.938
M204 S500
G1 F1200 X97.909 Y89.989 E109.42114
M204 S2000
G0 F7500 X97.343 Y89.989
M204 S500
G1 F1200 X136.858 Y129.504 E111.2798
M204 S2000
G0 F7500 X136.797 Y130.009
M204 S500
G1 F1200 X96.778 Y89.989 E113.1622
M204 S2000
G0 F7500 X96.212 Y89.989
M204 S500
G1 F1200 X136.231 Y130.009 E115.04459
M204 S2000
G0 F7500 X135.666 Y130.009
M204 S500
G1 F1200 X95.646 Y89.989 E116.92701
M204 S2000
G0 F7500 X95.081 Y89.989
M204 S500
G1 F1200 X135.1 Y130.009 E118.8094
M204 S2000
G0 F7500 X134.534 Y130.009
M204 S500
G1 F1200 X94.515 Y89.989 E120.6918
M204 S2000
G0 F7500 X93.949 Y89.989
M204 S500
G1 F1200 X133.969 Y130.009 E122.57422
M204 S2000
G0 F7500 X133.403 Y130.009
M204 S500
G1 F1200 X93.384 Y89.989 E124.45661
M204 S2000
G0 F7500 X92.818 Y89.989
M204 S500
G1 F1200 X132.837 Y130.009 E126.33901
M204 S2000
G0 F7500 X132.272 Y130.009
M204 S500
G1 F1200 X92.252 Y89.989 E128.22142
M204 S2000
G0 F7500 X91.687 Y89.989
M204 S500
G1 F1200 X131.706 Y130.009 E130.10382
M204 S2000
G0 F7500 X131.14 Y130.009
M204 S500
G1 F1200 X91.121 Y89.989 E131.98621
M204 S2000
G0 F7500 X90.555 Y89.989
M204 S500
G1 F1200 X130.575 Y130.009 E133.86863
M204 S2000
G0 F7500 X130.009 Y130.009
M204 S500
G1 F1200 X89.989 Y89.989 E135.75105
M204 S2000
G0 F7500 X89.424 Y89.989
M204 S500
