;FLAVOR:Marlin
;TIME:881
;Filament used: 0.330732m
;Layer height: 0.2
;MINX:92.2
;MINY:92.2
PRINT_START_SET MESH_MIN=92.2,92.2
;MINZ:0.2
;MAXX:127.8
;MAXY:127.8
PRINT_START_SET MESH_MAX=127.8,127.8
;MAXZ:20
;TARGET_MACHINE.NAME:Creality Ender-3 S1 Pro
;POSTPROCESSED
;Generated with Cura_SteamEngine 5.5.0
M82 ;absolute extrusion mode
M190 S0
M109 S0
_PRINT_START_PHASE_INIT EXTRUDER=215.0 BED=63 NOZZLE_SIZE=0.4
; Insert custom gcode here.
_PRINT_START_PHASE_PREHEAT
; Insert custom gcode here.
_PRINT_START_PHASE_PROBING
; Insert custom gcode here.
_PRINT_START_PHASE_EXTRUDER
; Insert custom gcode here.
_PRINT_START_PHASE_PURGE

; This is the place to put slicer purge lines if you haven't set a non-zero
; variable_start_purge_length to have START_PRINT automatically calculate and
; perform the purge (e.g. if using a Mosaic Palette, which requires the slicer
; to generate the purge).
G92 E0
G92 E0
G1 F2280 E-0.8
;LAYER_COUNT:100
INIT_LAYER_GCODE LAYERS=100
PRINT_START_SET LAYERS=100
;BEFORE_LAYER_CHANGE
;LAYER:0
BEFORE_LAYER_CHANGE LAYER=0
AFTER_LAYER_CHANGE
M107
M204 S2000
G0 F7500 X93.719 Y95.223 Z0.2
M204 S500
;TYPE:SKIRT
G1 F2280 E0
G1 F1500 X95.28 Y93.764 E0.07107
G1 X97.303 Y92.557 E0.14942
G1 X99.021 Y92.275 E0.20732
G1 X120.853 Y92.2 E0.93346
G1 X122.749 Y92.666 E0.9984
G1 X124.777 Y93.719 E1.0744
G1 X126.236 Y95.28 E1.14547
G1 X127.443 Y97.303 E1.22382
G1 X127.725 Y99.021 E1.28173
G1 X127.8 Y120.853 E2.00787
G1 X127.334 Y122.749 E2.0728
G1 X126.281 Y124.777 E2.14881
G1 X124.72 Y126.236 E2.21987
G1 X122.697 Y127.443 E2.29822
G1 X120.979 Y127.725 E2.35613
G1 X99.147 Y127.8 E3.08227
G1 X97.251 Y127.334 E3.14721
G1 X95.223 Y126.281 E3.22321
G1 X93.764 Y124.72 E3.29427
G1 X92.557 Y122.697 E3.37263
G1 X92.275 Y120.979 E3.43053
G1 X92.2 Y99.147 E4.15667
G1 X92.666 Y97.251 E4.22161
G1 X93.719 Y95.223 E4.29761
M204 S2000
G0 F7500 X94.042 Y95.468
M204 S500
G1 F1500 X95.519 Y94.088 E4.36484
G1 X97.443 Y92.94 E4.43936
G1 X99.086 Y92.67 E4.49474
G1 X120.807 Y92.6 E5.21719
G1 X122.606 Y93.042 E5.2788
G1 X124.532 Y94.042 E5.35098
G1 X125.912 Y95.519 E5.41821
G1 X127.06 Y97.443 E5.49273
G1 X127.33 Y99.086 E5.54811
G1 X127.4 Y120.807 E6.27056
G1 X126.958 Y122.606 E6.33217
G1 X125.958 Y124.532 E6.40435
G1 X124.481 Y125.912 E6.47158
G1 X122.557 Y127.06 E6.5461
G1 X120.914 Y127.33 E6.60148
G1 X99.193 Y127.4 E7.32392
G1 X97.394 Y126.958 E7.38554
G1 X95.468 Y125.958 E7.45772
G1 X94.088 Y124.481 E7.52495
G1 X92.94 Y122.557 E7.59947
G1 X92.67 Y120.914 E7.65485
G1 X92.6 Y99.193 E8.37729
G1 X93.042 Y97.394 E8.43891
G1 X94.042 Y95.468 E8.51109
M204 S2000
G0 F7500 X94.365 Y95.713
M204 S500
G1 F1500 X95.761 Y94.409 E8.57462
G1 X97.581 Y93.323 E8.64511
G1 X99.151 Y93.065 E8.69803
G1 X120.76 Y93 E9.41676
G1 X122.464 Y93.419 E9.47512
G1 X124.287 Y94.365 E9.54343
G1 X125.591 Y95.761 E9.60697
G1 X126.677 Y97.581 E9.67746
G1 X126.935 Y99.151 E9.73038
G1 X127 Y120.76 E10.4491
G1 X126.581 Y122.464 E10.50746
G1 X125.635 Y124.287 E10.57577
G1 X124.239 Y125.591 E10.63931
G1 X122.419 Y126.677 E10.7098
G1 X120.849 Y126.935 E10.76272
G1 X99.24 Y127 E11.48144
G1 X97.536 Y126.581 E11.5398
G1 X95.713 Y125.635 E11.60811
G1 X94.409 Y124.239 E11.67165
G1 X93.323 Y122.419 E11.74214
G1 X93.065 Y120.849 E11.79506
G1 X93 Y99.24 E12.51378
G1 X93.419 Y97.536 E12.57215
G1 X94.365 Y95.713 E12.64046
M204 S2000
G0 F7500 X94.688 Y95.958
M204 S500
G1 F1500 X96.003 Y94.73 E12.7003
G1 X97.719 Y93.706 E12.76676
G1 X99.216 Y93.46 E12.81722
G1 X120.714 Y93.4 E13.53225
G1 X122.321 Y93.795 E13.58729
G1 X124.042 Y94.688 E13.65178
G1 X125.27 Y96.003 E13.71162
G1 X126.294 Y97.719 E13.77808
G1 X126.54 Y99.216 E13.82854
G1 X126.6 Y120.714 E14.54357
G1 X126.205 Y122.321 E14.59861
G1 X125.312 Y124.042 E14.6631
G1 X123.997 Y125.27 E14.72294
G1 X122.281 Y126.294 E14.78941
G1 X120.784 Y126.54 E14.83986
G1 X99.286 Y126.6 E15.55489
G1 X97.679 Y126.205 E15.60993
G1 X95.958 Y125.312 E15.67442
G1 X94.73 Y123.997 E15.73426
G1 X93.706 Y122.281 E15.80073
G1 X93.46 Y120.784 E15.85119
G1 X93.4 Y99.286 E16.56622
G1 X93.795 Y97.679 E16.62126
G1 X94.688 Y95.958 E16.68574
M204 S2000
G0 F7500 X95.011 Y96.203
M204 S500
G1 F1500 X96.245 Y95.051 E16.74189
G1 X97.857 Y94.089 E16.80433
G1 X99.281 Y93.855 E16.85233
G1 X120.668 Y93.8 E17.56366
G1 X122.178 Y94.171 E17.61538
G1 X123.797 Y95.011 E17.67604
G1 X124.949 Y96.245 E17.73219
G1 X125.911 Y97.857 E17.79463
G1 X126.145 Y99.281 E17.84263
G1 X126.2 Y120.668 E18.55396
G1 X125.829 Y122.178 E18.60568
G1 X124.989 Y123.797 E18.66634
G1 X123.755 Y124.949 E18.72249
G1 X122.143 Y125.911 E18.78493
G1 X120.719 Y126.145 E18.83293
G1 X99.332 Y126.2 E19.54426
G1 X97.822 Y125.829 E19.59598
G1 X96.203 Y124.989 E19.65664
G1 X95.051 Y123.755 E19.71279
G1 X94.089 Y122.143 E19.77523
G1 X93.855 Y120.719 E19.82323
G1 X93.8 Y99.332 E20.53456
G1 X94.171 Y97.822 E20.58628
G1 X95.011 Y96.203 E20.64695
M204 S2000
G0 F7500 X95.334 Y96.448
M204 S500
G1 F1500 X96.487 Y95.372 E20.6994
G1 X97.995 Y94.472 E20.75781
G1 X99.346 Y94.25 E20.80335
G1 X120.621 Y94.2 E21.51096
G1 X122.036 Y94.548 E21.55942
G1 X123.552 Y95.334 E21.61622
G1 X124.628 Y96.487 E21.66867
G1 X125.528 Y97.995 E21.72708
G1 X125.75 Y99.346 E21.77262
G1 X125.8 Y120.621 E22.48023
G1 X125.452 Y122.036 E22.5287
G1 X124.666 Y123.552 E22.58549
G1 X123.513 Y124.628 E22.63795
G1 X122.005 Y125.528 E22.69636
G1 X120.654 Y125.75 E22.74189
G1 X99.379 Y125.8 E23.44951
G1 X97.964 Y125.452 E23.49797
G1 X96.448 Y124.666 E23.55477
G1 X95.372 Y123.513 E23.60722
G1 X94.472 Y122.005 E23.66563
G1 X94.25 Y120.654 E23.71117
G1 X94.2 Y99.379 E24.41878
G1 X94.548 Y97.964 E24.46725
G1 X95.334 Y96.448 E24.52404
M204 S2000
G0 F7500 X95.657 Y96.693
M204 S500
G1 F1500 X96.729 Y95.693 E24.5728
G1 X98.133 Y94.855 E24.62718
G1 X99.411 Y94.645 E24.67026
G1 X120.575 Y94.6 E25.37418
G1 X121.893 Y94.924 E25.41932
G1 X123.307 Y95.657 E25.47229
G1 X124.307 Y96.729 E25.52105
G1 X125.145 Y98.133 E25.57544
G1 X125.355 Y99.411 E25.61851
G1 X125.4 Y120.575 E26.32243
G1 X125.076 Y121.893 E26.36757
G1 X124.343 Y123.307 E26.42055
G1 X123.271 Y124.307 E26.46931
G1 X121.867 Y125.145 E26.52369
G1 X120.589 Y125.355 E26.56677
G1 X99.425 Y125.4 E27.27069
G1 X98.107 Y125.076 E27.31583
G1 X96.693 Y124.343 E27.3688
G1 X95.693 Y123.271 E27.41756
G1 X94.855 Y121.867 E27.47194
G1 X94.645 Y120.589 E27.51502
G1 X94.6 Y99.425 E28.21894
G1 X94.924 Y98.107 E28.26408
G1 X95.657 Y96.693 E28.31705
M204 S2000
G0 F7500 X95.979 Y96.94
M204 S500
G1 F1500 X96.974 Y96.012 E28.36231
G1 X98.271 Y95.238 E28.41254
G1 X99.476 Y95.04 E28.45316
G1 X120.529 Y95 E29.15339
G1 X121.75 Y95.3 E29.19521
G1 X123.06 Y95.979 E29.24428
G1 X123.988 Y96.974 E29.28953
G1 X124.762 Y98.271 E29.33977
G1 X124.96 Y99.476 E29.38039
G1 X125 Y120.529 E30.08061
G1 X124.7 Y121.75 E30.12243
G1 X124.021 Y123.06 E30.17151
G1 X123.026 Y123.988 E30.21676
G1 X121.729 Y124.762 E30.267
G1 X120.524 Y124.96 E30.30761
G1 X99.471 Y125 E31.00784
G1 X98.25 Y124.7 E31.04966
G1 X96.94 Y124.021 E31.09873
G1 X96.012 Y123.026 E31.14399
G1 X95.238 Y121.729 E31.19422
G1 X95.04 Y120.524 E31.23484
G1 X95 Y99.471 E31.93507
G1 X95.3 Y98.25 E31.97688
G1 X95.979 Y96.94 E32.02596
M204 S2000
G0 F7500 X96.301 Y97.187
M204 S500
G1 F1500 X97.216 Y96.334 E32.06757
G1 X98.411 Y95.621 E32.11385
G1 X99.541 Y95.435 E32.15194
G1 X120.483 Y95.4 E32.84847
G1 X121.607 Y95.676 E32.88697
G1 X122.813 Y96.301 E32.93215
G1 X123.666 Y97.216 E32.97375
G1 X124.379 Y98.411 E33.02004
G1 X124.565 Y99.541 E33.05813
G1 X124.6 Y120.483 E33.75466
G1 X124.324 Y121.607 E33.79316
G1 X123.699 Y122.813 E33.83833
G1 X122.784 Y123.666 E33.87994
G1 X121.589 Y124.379 E33.92622
G1 X120.459 Y124.565 E33.96431
G1 X99.517 Y124.6 E34.66085
G1 X98.393 Y124.324 E34.69934
G1 X97.187 Y123.699 E34.74452
G1 X96.334 Y122.784 E34.78613
G1 X95.621 Y121.589 E34.83241
G1 X95.435 Y120.459 E34.8705
G1 X95.4 Y99.517 E35.56703
G1 X95.676 Y98.393 E35.60553
G1 X96.301 Y97.187 E35.65071
M204 S2000
G0 F7500 X96.623 Y97.434
M204 S500
G1 F1500 X97.458 Y96.656 E35.68867
G1 X98.551 Y96.004 E35.731
G1 X99.606 Y95.83 E35.76656
G1 X120.436 Y95.8 E36.45937
G1 X121.465 Y96.053 E36.49461
G1 X122.566 Y96.623 E36.53585
G1 X123.344 Y97.458 E36.57381
G1 X123.996 Y98.551 E36.61614
G1 X124.17 Y99.606 E36.6517
G1 X124.2 Y120.436 E37.34451
G1 X123.947 Y121.465 E37.37975
G1 X123.377 Y122.566 E37.42099
G1 X122.542 Y123.344 E37.45895
G1 X121.449 Y123.996 E37.50128
G1 X120.394 Y124.17 E37.53684
G1 X99.564 Y124.2 E38.22965
G1 X98.535 Y123.947 E38.2649
G1 X97.434 Y123.377 E38.30613
G1 X96.656 Y122.542 E38.34409
G1 X96.004 Y121.449 E38.38642
G1 X95.83 Y120.394 E38.42198
G1 X95.8 Y99.564 E39.11479
G1 X96.053 Y98.535 E39.15004
G1 X96.623 Y97.434 E39.19127
M204 S2000
G0 F7500 X96.945 Y97.681
M204 S500
G1 F1500 X97.7 Y96.978 E39.22559
G1 X98.691 Y96.387 E39.26396
G1 X99.671 Y96.225 E39.297
G1 X120.39 Y96.2 E39.98612
G1 X121.322 Y96.429 E40.01804
G1 X122.319 Y96.945 E40.05538
G1 X123.022 Y97.7 E40.08969
G1 X123.613 Y98.691 E40.12806
G1 X123.775 Y99.671 E40.1611
G1 X123.8 Y120.39 E40.85022
G1 X123.571 Y121.322 E40.88214
G1 X123.055 Y122.319 E40.91948
G1 X122.3 Y123.022 E40.95379
G1 X121.309 Y123.613 E40.99217
G1 X120.329 Y123.775 E41.0252
G1 X99.61 Y123.8 E41.71432
G1 X98.678 Y123.571 E41.74624
G1 X97.681 Y123.055 E41.78358
G1 X96.978 Y122.3 E41.81789
G1 X96.387 Y121.309 E41.85627
G1 X96.225 Y120.329 E41.88931
G1 X96.2 Y99.61 E42.57842
G1 X96.429 Y98.678 E42.61034
G1 X96.945 Y97.681 E42.64768
M204 S2000
G0 F7500 X97.268 Y97.926
M204 S500
G1 F1500 X97.939 Y97.302 E42.67816
G1 X98.831 Y96.77 E42.7127
G1 X99.736 Y96.62 E42.74321
G1 X120.344 Y96.6 E43.42864
G1 X121.179 Y96.805 E43.45724
G1 X122.074 Y97.268 E43.49075
G1 X122.698 Y97.939 E43.52123
G1 X123.23 Y98.831 E43.55577
G1 X123.38 Y99.736 E43.58628
G1 X123.4 Y120.344 E44.27171
G1 X123.195 Y121.179 E44.3003
G1 X122.732 Y122.074 E44.33382
G1 X122.061 Y122.698 E44.3643
G1 X121.169 Y123.23 E44.39884
G1 X120.264 Y123.38 E44.42935
G1 X99.656 Y123.4 E45.11478
G1 X98.821 Y123.195 E45.14337
G1 X97.926 Y122.732 E45.17689
G1 X97.302 Y122.061 E45.20737
G1 X96.77 Y121.169 E45.24191
G1 X96.62 Y120.264 E45.27242
G1 X96.6 Y99.656 E45.95785
G1 X96.805 Y98.821 E45.98644
G1 X97.268 Y97.926 E46.01996
M204 S2000
G0 F7500 X97.591 Y98.171
M204 S500
G1 F1500 X98.178 Y97.626 E46.0466
G1 X98.971 Y97.153 E46.07731
G1 X99.802 Y97.015 E46.10533
G1 X120.298 Y97 E46.78703
G1 X121.036 Y97.181 E46.8123
G1 X121.829 Y97.591 E46.84199
G1 X122.374 Y98.178 E46.86863
G1 X122.847 Y98.971 E46.89934
G1 X122.985 Y99.802 E46.92736
G1 X123 Y120.298 E47.60906
G1 X122.819 Y121.036 E47.63434
G1 X122.409 Y121.829 E47.66403
G1 X121.822 Y122.374 E47.69067
G1 X121.029 Y122.847 E47.72138
G1 X120.198 Y122.985 E47.7494
G1 X99.702 Y123 E48.4311
G1 X98.964 Y122.819 E48.45637
G1 X98.171 Y122.409 E48.48606
G1 X97.626 Y121.822 E48.5127
G1 X97.153 Y121.029 E48.54341
G1 X97.015 Y120.198 E48.57143
G1 X97 Y99.702 E49.25313
G1 X97.181 Y98.964 E49.27841
G1 X97.591 Y98.171 E49.3081
M204 S2000
G0 F7500 X97.914 Y98.416
M204 S500
G1 F1500 X98.417 Y97.95 E49.3309
G1 X99.111 Y97.536 E49.35778
G1 X99.868 Y97.41 E49.38331
G1 X120.248 Y97.4 E50.06115
G1 X120.897 Y97.559 E50.08337
G1 X121.584 Y97.914 E50.10909
G1 X122.05 Y98.417 E50.1319
G1 X122.464 Y99.111 E50.15878
G1 X122.59 Y99.868 E50.1843
G1 X122.6 Y120.248 E50.86214
G1 X122.441 Y120.897 E50.88437
G1 X122.086 Y121.584 E50.91009
G1 X121.583 Y122.05 E50.93289
G1 X120.889 Y122.464 E50.95977
G1 X120.132 Y122.59 E50.98529
G1 X99.752 Y122.6 E51.66313
G1 X99.103 Y122.441 E51.68536
G1 X98.416 Y122.086 E51.71108
G1 X97.95 Y121.583 E51.73389
G1 X97.536 Y120.889 E51.76076
G1 X97.41 Y120.132 E51.78629
G1 X97.4 Y99.752 E52.46413
G1 X97.559 Y99.103 E52.48635
G1 X97.914 Y98.416 E52.51207
M204 S2000
G0 F7500 X98.237 Y98.662
M204 S500
G1 F1500 X98.656 Y98.274 E52.53107
G1 X99.251 Y97.919 E52.55411
G1 X99.934 Y97.805 E52.57714
G1 X120.198 Y97.8 E53.25113
G1 X120.758 Y97.937 E53.2703
G1 X121.338 Y98.237 E53.29202
G1 X121.726 Y98.656 E53.31101
G1 X122.081 Y99.251 E53.33406
G1 X122.195 Y99.934 E53.35709
G1 X122.2 Y120.198 E54.03107
G1 X122.063 Y120.758 E54.05025
G1 X121.763 Y121.338 E54.07196
G1 X121.344 Y121.726 E54.09096
G1 X120.749 Y122.081 E54.114
G1 X120.066 Y122.195 E54.13703
G1 X99.802 Y122.2 E54.81102
G1 X99.242 Y122.063 E54.83019
G1 X98.662 Y121.763 E54.85191
G1 X98.274 Y121.344 E54.8709
G1 X97.919 Y120.749 E54.89395
G1 X97.805 Y120.066 E54.91698
G1 X97.8 Y99.802 E55.59096
G1 X97.937 Y99.242 E55.61014
G1 X98.237 Y98.662 E55.63186
M204 S2000
G0 F7500 X98.56 Y98.908
M204 S500
G1 F1500 X98.898 Y98.595 E55.64718
G1 X99.389 Y98.302 E55.6662
G1 X100 Y98.2 E55.6868
G1 X120.148 Y98.2 E56.35692
G1 X120.619 Y98.315 E56.37305
G1 X121.092 Y98.56 E56.39077
G1 X121.405 Y98.898 E56.40609
G1 X121.698 Y99.389 E56.42511
G1 X121.8 Y100 E56.44571
G1 X121.8 Y120.148 E57.11583
G1 X121.685 Y120.619 E57.13196
G1 X121.44 Y121.092 E57.14968
G1 X121.102 Y121.405 E57.165
G1 X120.611 Y121.698 E57.18402
G1 X120 Y121.8 E57.20462
G1 X99.852 Y121.8 E57.87475
G1 X99.381 Y121.685 E57.89087
G1 X98.908 Y121.44 E57.90859
G1 X98.595 Y121.102 E57.92391
G1 X98.302 Y120.611 E57.94293
G1 X98.2 Y120 E57.96353
G1 X98.2 Y99.852 E58.63366
G1 X98.315 Y99.381 E58.64978
G1 X98.56 Y98.908 E58.6675
M204 S2000
G0 F7500 X98.883 Y99.154
M204 S500
G1 F1500 X98.693 Y99.52 E58.68121
G1 X98.6 Y99.902 E58.69429
G1 X98.6 Y120 E59.36275
G1 X98.685 Y120.473 E59.37874
G1 X98.916 Y120.86 E59.39373
G1 X99.154 Y121.117 E59.40538
G1 X99.52 Y121.307 E59.41909
G1 X99.902 Y121.4 E59.43217
G1 X120 Y121.4 E60.10063
G1 X120.473 Y121.315 E60.11662
G1 X120.86 Y121.084 E60.13161
G1 X121.117 Y120.846 E60.14326
G1 X121.307 Y120.48 E60.15697
G1 X121.4 Y120.098 E60.17005
G1 X121.4 Y100 E60.83851
G1 X121.315 Y99.527 E60.85449
G1 X121.084 Y99.14 E60.86949
G1 X120.846 Y98.883 E60.88114
G1 X120.48 Y98.693 E60.89485
G1 X120.098 Y98.6 E60.90793
G1 X100 Y98.6 E61.57639
G1 X99.527 Y98.685 E61.59237
G1 X99.14 Y98.916 E61.60736
G1 X98.883 Y99.154 E61.61901
M204 S2000
G0 F7500 X99.345 Y99.26
M204 S500
G1 F1500 X99.672 Y99.065 E61.63168
G1 X100 Y99 E61.6428
G1 X120.049 Y99 E62.30963
G1 X120.338 Y99.07 E62.31952
G1 X120.601 Y99.207 E62.32938
G1 X120.74 Y99.345 E62.3359
G1 X120.935 Y99.672 E62.34856
G1 X121 Y100 E62.35968
G1 X121 Y120.049 E63.02652
G1 X120.93 Y120.338 E63.03641
G1 X120.793 Y120.601 E63.04627
G1 X120.655 Y120.74 E63.05278
G1 X120.328 Y120.935 E63.06545
G1 X120 Y121 E63.07657
G1 X99.951 Y121 E63.7434
G1 X99.662 Y120.93 E63.75329
G1 X99.399 Y120.793 E63.76315
G1 X99.26 Y120.655 E63.76967
G1 X99.065 Y120.328 E63.78233
G1 X99 Y120 E63.79345
G1 X99 Y99.951 E64.46029
G1 X99.07 Y99.662 E64.47018
G1 X99.207 Y99.399 E64.48004
G1 X99.345 Y99.26 E64.48655
M204 S2000
G0 F7500 X99.839 Y99.881
M204 S500
G1 F1500 X100 Y99.8 E64.49255
G1 X120 Y99.8 E65.15775
G1 X120.119 Y99.839 E65.16192
G1 X120.2 Y100 E65.16791
G1 X120.2 Y120 E65.83311
G1 X120.161 Y120.119 E65.83728
G1 X120 Y120.2 E65.84327
G1 X100 Y120.2 E66.50848
G1 X99.881 Y120.161 E66.51264
G1 X99.8 Y120 E66.51863
G1 X99.8 Y100 E67.18384
G1 X99.839 Y99.881 E67.188
M204 S2000
G0 F7500 X99.55 Y99.604
M204 S500
G1 F1500 X99.82 Y99.443 E67.19846
G1 X100 Y99.4 E67.20461
G1 X120 Y99.4 E67.86982
G1 X120.244 Y99.459 E67.87817
G1 X120.396 Y99.55 E67.88406
G1 X120.557 Y99.82 E67.89451
G1 X120.6 Y100 E67.90067
G1 X120.6 Y120 E68.56587
G1 X120.541 Y120.244 E68.57422
G1 X120.45 Y120.396 E68.58011
G1 X120.18 Y120.557 E68.59057
G1 X120 Y120.6 E68.59672
G1 X100 Y120.6 E69.26193
G1 X99.756 Y120.541 E69.27028
G1 X99.604 Y120.45 E69.27617
G1 X99.443 Y120.18 E69.28662
G1 X99.4 Y120 E69.29278
G1 X99.4 Y100 E69.95798
G1 X99.459 Y99.756 E69.96633
G1 X99.55 Y99.604 E69.97222
M204 S2000
G1 F2280 E69.17222
;MESH:Cube
G0 F7500 X99.335 Y99.604
G0 X99.347 Y120.653
G0 X119.8 Y120.665
G0 X119.8 Y119.8
M104 S215
M204 S500
;TYPE:WALL-OUTER
G1 F2280 E69.97222
G1 F1200 X100.2 Y119.8 E70.62412
G1 X100.2 Y100.2 E71.27602
G1 X119.8 Y100.2 E71.92792
G1 X119.8 Y119.8 E72.57982
;TIME_ELAPSED:94.817044
;BEFORE_LAYER_CHANGE
;LAYER:1
BEFORE_LAYER_CHANGE LAYER=1
AFTER_LAYER_CHANGE
M106 S255
M204 S2000
;MESH:Cube
G0 F8250 X119.8 Y119.8 Z0.4
M204 S500
;TYPE:WALL-OUTER
