;FLAVOR:Marlin
;TIME:2524
;Filament used: 1.96594m
;Layer height: 0.2
;MINX:92.021
;MINY:92.02
PRINT_START_SET MESH_MIN=92.021,92.02
;MINZ:0.2
;MAXX:127.979
;MAXY:127.98
PRINT_START_SET MESH_MAX=127.979,127.98
;MAXZ:30
;TARGET_MACHINE.NAME:Creality Ender-3 S1 Pro
;POSTPROCESSED
;Generated with Cura_SteamEngine 5.5.0
M82 ;absolute extrusion mode
M190 S0
M109 S0
_PRINT_START_PHASE_INIT EXTRUDER=215.0 BED=63 NOZZLE_SIZE=0.4
; Insert custom gcode here.
_PRINT_START_PHASE_PREHEAT
; Insert custom gcode here.
_PRINT_START_PHASE_PROBING
; Insert custom gcode here.
_PRINT_START_PHASE_EXTRUDER
; Insert custom gcode here.
_PRINT_START_PHASE_PURGE

; This is the place to put slicer purge lines if you haven't set a non-zero
; variable_start_purge_length to have START_PRINT automatically calculate and 
; perform the purge (e.g. if using a Mosaic Palette, which requires the slicer
; to generate the purge).
G92 E0
G92 E0
G1 F2280 E-0.8
;LAYER_COUNT:150
INIT_LAYER_GCODE LAYERS=150
PRINT_START_SET LAYERS=150
;BEFORE_LAYER_CHANGE
;LAYER:0
BEFORE_LAYER_CHANGE LAYER=0
AFTER_LAYER_CHANGE
M107
G0 F7500 X97.436 Y97.138 Z0.2
;TYPE:SKIRT
G1 F2280 E0
G1 F1500 X97.981 Y96.629 E0.02493
G1 X98.56 Y96.122 E0.05065
G1 X99.266 Y95.558 E0.08086
G1 X99.728 Y95.238 E0.09964
G1 X100.353 Y94.827 E0.12465
G1 X100.988 Y94.442 E0.14947
G1 X101.68 Y94.055 E0.17597
G1 X102.538 Y93.625 E0.20805
G1 X103.075 Y93.401 E0.2275
G1 X103.752 Y93.14 E0.25175
G1 X104.44 Y92.902 E0.27609
G1 X104.963 Y92.741 E0.29438
G1 X105.644 Y92.557 E0.31796
G1 X106.366 Y92.386 E0.34276
G1 X107.253 Y92.217 E0.37294
G1 X107.857 Y92.144 E0.39328
G1 X108.634 Y92.073 E0.41936
G1 X109.39 Y92.03 E0.44467
G1 X109.904 Y92.02 E0.46186
G1 X110.651 Y92.033 E0.48683
G1 X111.16 Y92.059 E0.50387
G1 X111.982 Y92.131 E0.53145
G1 X112.828 Y92.241 E0.55996
G1 X114.141 Y92.498 E0.60469
G1 X114.883 Y92.694 E0.63034
G1 X115.583 Y92.906 E0.65479
G1 X116.247 Y93.132 E0.67823
G1 X117.438 Y93.618 E0.72123
G1 X117.973 Y93.873 E0.74104
G1 X118.812 Y94.322 E0.77285
G1 X119.469 Y94.715 E0.79844
G1 X120.078 Y95.108 E0.82267
G1 X120.656 Y95.51 E0.8462
G1 X121.411 Y96.086 E0.87794
G1 X121.843 Y96.466 E0.89718
G1 X122.42 Y97.001 E0.92348
G1 X122.946 Y97.524 E0.94827
G1 X123.472 Y98.085 E0.97398
G1 X124.06 Y98.77 E1.00415
G1 X124.41 Y99.238 E1.02369
G1 X124.845 Y99.855 E1.04892
G1 X125.257 Y100.486 E1.07411
G1 X125.65 Y101.138 E1.09956
G1 X126.106 Y101.978 E1.13151
G1 X126.331 Y102.466 E1.14947
G1 X126.629 Y103.164 E1.17484
G1 X126.905 Y103.878 E1.20043
G1 X127.073 Y104.367 E1.21771
G1 X127.283 Y105.051 E1.24163
G1 X127.421 Y105.562 E1.25932
G1 X127.583 Y106.249 E1.28291
G1 X127.679 Y106.724 E1.29911
G1 X127.805 Y107.498 E1.32533
G1 X127.87 Y108.029 E1.34321
G1 X127.935 Y108.763 E1.36784
G1 X127.964 Y109.279 E1.38511
G1 X127.979 Y110.005 E1.40939
G1 X127.972 Y110.553 E1.42771
G1 X127.936 Y111.293 E1.45247
G1 X127.883 Y111.914 E1.4733
G1 X127.766 Y112.82 E1.50384
G1 X127.608 Y113.649 E1.53205
G1 X127.472 Y114.245 E1.55248
G1 X127.289 Y114.929 E1.57615
G1 X127.134 Y115.446 E1.59419
G1 X126.888 Y116.166 E1.61963
G1 X126.699 Y116.662 E1.63737
G1 X126.418 Y117.328 E1.66153
G1 X126.106 Y118.002 E1.68636
G1 X125.666 Y118.853 E1.71838
G1 X125.391 Y119.305 E1.73606
G1 X124.988 Y119.932 E1.76098
G1 X124.572 Y120.532 E1.78538
G1 X124.09 Y121.177 E1.8123
G1 X123.481 Y121.921 E1.84444
G1 X123.096 Y122.328 E1.86316
G1 X122.564 Y122.862 E1.88836
G1 X122.019 Y123.371 E1.91329
G1 X121.44 Y123.878 E1.93901
G1 X120.734 Y124.442 E1.96922
G1 X120.272 Y124.762 E1.988
G1 X119.647 Y125.173 E2.01301
G1 X119.012 Y125.558 E2.03783
G1 X118.32 Y125.945 E2.06433
G1 X117.462 Y126.375 E2.09641
G1 X116.925 Y126.599 E2.11586
G1 X116.248 Y126.86 E2.14011
G1 X115.56 Y127.098 E2.16445
G1 X115.037 Y127.259 E2.18274
G1 X114.356 Y127.443 E2.20632
G1 X113.634 Y127.614 E2.23112
G1 X112.747 Y127.783 E2.2613
G1 X112.143 Y127.856 E2.28164
G1 X111.366 Y127.927 E2.30772
G1 X110.61 Y127.97 E2.33303
G1 X110.096 Y127.98 E2.35022
G1 X109.349 Y127.967 E2.37519
G1 X108.84 Y127.941 E2.39223
G1 X108.018 Y127.869 E2.41981
G1 X107.172 Y127.759 E2.44833
G1 X105.859 Y127.502 E2.49305
G1 X105.117 Y127.306 E2.5187
G1 X104.416 Y127.093 E2.54319
G1 X103.696 Y126.845 E2.56864
G1 X102.576 Y126.388 E2.60908
G1 X102.039 Y126.133 E2.62895
G1 X101.184 Y125.675 E2.66137
G1 X100.529 Y125.283 E2.68689
G1 X99.915 Y124.885 E2.71135
G1 X99.323 Y124.474 E2.73544
G1 X98.584 Y123.909 E2.76653
G1 X98.164 Y123.54 E2.78522
G1 X97.585 Y123.004 E2.81159
G1 X97.054 Y122.475 E2.83665
G1 X96.528 Y121.913 E2.86238
G1 X95.921 Y121.206 E2.89352
G1 X95.579 Y120.746 E2.91268
G1 X95.141 Y120.124 E2.93811
G1 X94.734 Y119.499 E2.96304
G1 X94.344 Y118.853 E2.98827
G1 X93.911 Y118.06 E3.01847
G1 X93.661 Y117.518 E3.03842
G1 X93.366 Y116.825 E3.0636
G1 X93.095 Y116.122 E3.08878
G1 X92.927 Y115.632 E3.10609
G1 X92.714 Y114.936 E3.13042
G1 X92.572 Y114.409 E3.14867
G1 X92.408 Y113.71 E3.17267
G1 X92.316 Y113.25 E3.18835
G1 X92.197 Y112.511 E3.21337
G1 X92.131 Y111.977 E3.23135
G1 X92.063 Y111.217 E3.25686
G1 X92.035 Y110.706 E3.27397
G1 X92.021 Y109.995 E3.29774
G1 X92.028 Y109.447 E3.31606
G1 X92.064 Y108.707 E3.34082
G1 X92.124 Y108.001 E3.36451
G1 X92.239 Y107.105 E3.3947
G1 X92.356 Y106.515 E3.41481
G1 X92.525 Y105.771 E3.44031
G1 X92.713 Y105.063 E3.4648
G1 X92.867 Y104.55 E3.4827
G1 X93.112 Y103.834 E3.508
G1 X93.301 Y103.338 E3.52574
G1 X93.586 Y102.662 E3.55026
G1 X93.902 Y101.981 E3.57535
G1 X94.33 Y101.155 E3.60645
G1 X94.623 Y100.674 E3.62528
G1 X95.022 Y100.053 E3.64995
G1 X95.435 Y99.459 E3.67413
G1 X95.907 Y98.827 E3.7005
G1 X96.496 Y98.106 E3.73162
G1 X96.904 Y97.672 E3.75153
G1 X97.436 Y97.138 E3.77673
G0 F7500 X97.709 Y97.43
G1 F1500 X98.244 Y96.93 E3.80121
G1 X98.81 Y96.435 E3.82634
G1 X99.516 Y95.871 E3.85654
G1 X99.948 Y95.572 E3.87411
G1 X100.561 Y95.169 E3.89863
G1 X101.183 Y94.791 E3.92296
G1 X101.86 Y94.412 E3.94889
G1 X102.692 Y93.994 E3.98001
G1 X103.219 Y93.774 E3.9991
G1 X103.883 Y93.518 E4.02289
G1 X104.558 Y93.284 E4.04677
G1 X105.067 Y93.127 E4.06458
G1 X105.736 Y92.946 E4.08774
G1 X106.441 Y92.779 E4.11196
G1 X107.328 Y92.61 E4.14214
G1 X107.894 Y92.542 E4.1612
G1 X108.657 Y92.472 E4.18681
G1 X109.398 Y92.43 E4.21162
G1 X109.897 Y92.42 E4.2283
G1 X110.631 Y92.432 E4.25284
G1 X111.125 Y92.457 E4.26937
G1 X111.931 Y92.528 E4.29642
G1 X112.751 Y92.634 E4.32406
G1 X114.064 Y92.891 E4.36878
G1 X114.767 Y93.077 E4.39309
G1 X115.454 Y93.285 E4.41708
G1 X116.118 Y93.511 E4.44053
G1 X117.266 Y93.979 E4.48197
G1 X117.784 Y94.226 E4.50115
G1 X118.623 Y94.675 E4.53296
G1 X119.252 Y95.051 E4.55745
G1 X119.85 Y95.437 E4.58124
G1 X120.413 Y95.828 E4.60416
G1 X121.168 Y96.404 E4.6359
G1 X121.571 Y96.759 E4.65385
G1 X122.138 Y97.285 E4.6797
G1 X122.654 Y97.798 E4.70402
G1 X123.168 Y98.346 E4.72914
G1 X123.756 Y99.031 E4.75931
G1 X124.083 Y99.469 E4.77759
G1 X124.51 Y100.074 E4.80234
G1 X124.915 Y100.693 E4.82706
G1 X125.299 Y101.329 E4.8519
G1 X125.743 Y102.146 E4.88298
G1 X125.963 Y102.623 E4.90054
G1 X126.256 Y103.308 E4.92544
G1 X126.527 Y104.008 E4.95053
G1 X126.691 Y104.485 E4.96739
G1 X126.897 Y105.155 E4.99082
G1 X127.032 Y105.654 E5.0081
G1 X127.191 Y106.328 E5.03125
G1 X127.284 Y106.789 E5.04697
G1 X127.408 Y107.547 E5.07265
G1 X127.472 Y108.064 E5.09006
G1 X127.536 Y108.785 E5.11425
G1 X127.564 Y109.287 E5.13106
G1 X127.579 Y110 E5.1549
G1 X127.572 Y110.534 E5.17275
G1 X127.537 Y111.259 E5.19701
G1 X127.486 Y111.863 E5.21727
G1 X127.373 Y112.745 E5.247
G1 X127.218 Y113.56 E5.27473
G1 X127.085 Y114.142 E5.29468
G1 X126.906 Y114.814 E5.31793
G1 X126.755 Y115.317 E5.33548
G1 X126.514 Y116.024 E5.36045
G1 X126.33 Y116.507 E5.37773
G1 X126.055 Y117.16 E5.40141
G1 X125.751 Y117.818 E5.42564
G1 X125.324 Y118.645 E5.45675
G1 X125.054 Y119.089 E5.47412
G1 X124.659 Y119.704 E5.49855
G1 X124.243 Y120.304 E5.52296
G1 X123.78 Y120.924 E5.54882
G1 X123.19 Y121.646 E5.57999
G1 X122.812 Y122.046 E5.59839
G1 X122.291 Y122.57 E5.62309
G1 X121.756 Y123.07 E5.64756
G1 X121.19 Y123.565 E5.6727
G1 X120.484 Y124.129 E5.7029
G1 X120.052 Y124.428 E5.72047
G1 X119.439 Y124.831 E5.74499
G1 X118.817 Y125.209 E5.76932
G1 X118.14 Y125.588 E5.79525
G1 X117.308 Y126.006 E5.82637
G1 X116.781 Y126.226 E5.84546
G1 X116.117 Y126.482 E5.86925
G1 X115.442 Y126.716 E5.89313
G1 X114.933 Y126.873 E5.91094
G1 X114.264 Y127.054 E5.9341
G1 X113.559 Y127.221 E5.95832
G1 X112.672 Y127.39 E5.9885
G1 X112.106 Y127.458 E6.00756
G1 X111.343 Y127.528 E6.03317
G1 X110.602 Y127.57 E6.05798
G1 X110.103 Y127.58 E6.07466
G1 X109.369 Y127.568 E6.0992
G1 X108.875 Y127.543 E6.11573
G1 X108.069 Y127.472 E6.14278
G1 X107.249 Y127.366 E6.17042
G1 X105.936 Y127.109 E6.21514
G1 X105.233 Y126.923 E6.23945
G1 X104.546 Y126.715 E6.26344
G1 X103.847 Y126.475 E6.28814
G1 X102.748 Y126.027 E6.32781
G1 X102.228 Y125.78 E6.34706
G1 X101.373 Y125.322 E6.37948
G1 X100.746 Y124.947 E6.4039
G1 X100.143 Y124.557 E6.4279
G1 X99.566 Y124.156 E6.45139
G1 X98.848 Y123.608 E6.48158
G1 X98.436 Y123.247 E6.49989
G1 X97.867 Y122.72 E6.52582
G1 X97.346 Y122.202 E6.55038
G1 X96.831 Y121.652 E6.57556
G1 X96.224 Y120.945 E6.60671
G1 X95.906 Y120.516 E6.62456
G1 X95.476 Y119.906 E6.64951
G1 X95.076 Y119.292 E6.674
G1 X94.695 Y118.661 E6.69864
G1 X94.262 Y117.868 E6.72884
G1 X94.029 Y117.361 E6.74749
G1 X93.739 Y116.681 E6.7722
G1 X93.473 Y115.992 E6.79689
G1 X93.309 Y115.515 E6.81375
G1 X93.1 Y114.832 E6.83763
G1 X92.961 Y114.317 E6.85546
G1 X92.8 Y113.632 E6.87898
G1 X92.711 Y113.186 E6.89418
G1 X92.594 Y112.461 E6.91873
G1 X92.529 Y111.941 E6.93625
G1 X92.462 Y111.195 E6.96128
G1 X92.435 Y110.698 E6.97792
G1 X92.421 Y110 E7.00126
G1 X92.428 Y109.466 E7.01911
G1 X92.463 Y108.741 E7.04337
G1 X92.521 Y108.052 E7.06648
G1 X92.636 Y107.156 E7.09668
G1 X92.746 Y106.604 E7.11549
G1 X92.912 Y105.873 E7.14055
G1 X93.096 Y105.178 E7.16458
G1 X93.246 Y104.679 E7.182
G1 X93.486 Y103.976 E7.20683
G1 X93.67 Y103.493 E7.2241
G1 X93.949 Y102.83 E7.24815
G1 X94.257 Y102.165 E7.27265
G1 X94.685 Y101.339 E7.30374
G1 X94.959 Y100.89 E7.32132
G1 X95.351 Y100.281 E7.34553
G1 X95.756 Y99.698 E7.36926
G1 X96.217 Y99.08 E7.39503
G1 X96.788 Y98.38 E7.42523
G1 X97.188 Y97.954 E7.44476
G1 X97.709 Y97.43 E7.46946
G0 F7500 X97.983 Y97.722
G1 F1500 X98.507 Y97.231 E7.49347
G1 X99.06 Y96.748 E7.51801
G1 X99.766 Y96.184 E7.54821
G1 X100.168 Y95.906 E7.56455
G1 X100.769 Y95.511 E7.58859
G1 X101.379 Y95.14 E7.61246
G1 X102.04 Y94.769 E7.63779
G1 X102.846 Y94.363 E7.66796
G1 X103.363 Y94.147 E7.68669
G1 X104.014 Y93.896 E7.71001
G1 X104.676 Y93.666 E7.73344
G1 X105.172 Y93.513 E7.75079
G1 X105.828 Y93.335 E7.77351
G1 X106.516 Y93.172 E7.79714
G1 X107.403 Y93.003 E7.82732
G1 X107.931 Y92.94 E7.8451
G1 X108.68 Y92.871 E7.87024
G1 X109.406 Y92.83 E7.89455
G1 X109.891 Y92.82 E7.91076
G1 X110.611 Y92.831 E7.93483
G1 X111.09 Y92.855 E7.95086
G1 X111.88 Y92.925 E7.97737
G1 X112.674 Y93.027 E8.00413
G1 X113.987 Y93.284 E8.04885
G1 X114.651 Y93.46 E8.07182
G1 X115.325 Y93.664 E8.09536
G1 X115.989 Y93.89 E8.1188
G1 X117.094 Y94.34 E8.15868
G1 X117.595 Y94.579 E8.17724
G1 X118.434 Y95.028 E8.20905
G1 X119.035 Y95.387 E8.23245
G1 X119.622 Y95.766 E8.2558
G1 X120.185 Y96.157 E8.27871
G1 X120.904 Y96.705 E8.30893
G1 X121.299 Y97.052 E8.32651
G1 X121.856 Y97.568 E8.35189
G1 X122.362 Y98.072 E8.37576
G1 X122.864 Y98.607 E8.40028
G1 X123.452 Y99.292 E8.43046
G1 X123.756 Y99.7 E8.44747
G1 X124.175 Y100.293 E8.47174
G1 X124.573 Y100.9 E8.496
G1 X124.948 Y101.52 E8.52022
G1 X125.38 Y102.313 E8.5504
G1 X125.595 Y102.781 E8.56762
G1 X125.883 Y103.453 E8.59206
G1 X126.149 Y104.139 E8.61665
G1 X126.309 Y104.602 E8.63303
G1 X126.511 Y105.26 E8.65603
G1 X126.643 Y105.746 E8.67287
G1 X126.799 Y106.407 E8.69557
G1 X126.889 Y106.854 E8.71081
G1 X127.011 Y107.597 E8.73598
G1 X127.074 Y108.099 E8.75289
G1 X127.137 Y108.807 E8.77665
G1 X127.164 Y109.296 E8.79302
G1 X127.179 Y109.995 E8.81639
G1 X127.172 Y110.515 E8.83378
G1 X127.138 Y111.226 E8.85757
G1 X127.089 Y111.813 E8.87726
G1 X126.98 Y112.67 E8.90614
G1 X126.828 Y113.471 E8.93339
G1 X126.698 Y114.039 E8.95286
G1 X126.523 Y114.699 E8.97569
G1 X126.376 Y115.188 E8.99276
G1 X126.14 Y115.882 E9.01726
G1 X125.961 Y116.352 E9.03407
G1 X125.692 Y116.993 E9.05731
G1 X125.396 Y117.635 E9.08094
G1 X124.982 Y118.437 E9.11111
G1 X124.717 Y118.873 E9.12816
G1 X124.33 Y119.476 E9.15211
G1 X123.922 Y120.065 E9.17606
G1 X123.47 Y120.671 E9.20133
G1 X122.899 Y121.371 E9.23153
G1 X122.528 Y121.764 E9.24959
G1 X122.017 Y122.278 E9.27382
G1 X121.493 Y122.769 E9.29782
G1 X120.94 Y123.252 E9.32237
G1 X120.234 Y123.816 E9.35257
G1 X119.832 Y124.094 E9.36891
G1 X119.231 Y124.489 E9.39295
G1 X118.621 Y124.86 E9.41681
G1 X117.96 Y125.231 E9.44215
G1 X117.154 Y125.637 E9.47232
G1 X116.637 Y125.853 E9.49105
G1 X115.986 Y126.104 E9.51437
G1 X115.324 Y126.334 E9.5378
G1 X114.828 Y126.487 E9.55515
G1 X114.172 Y126.665 E9.57787
G1 X113.484 Y126.828 E9.6015
G1 X112.597 Y126.997 E9.63168
G1 X112.069 Y127.06 E9.64946
G1 X111.32 Y127.129 E9.6746
G1 X110.594 Y127.17 E9.69891
G1 X110.109 Y127.18 E9.71512
G1 X109.389 Y127.169 E9.73919
G1 X108.91 Y127.145 E9.75522
G1 X108.12 Y127.075 E9.78173
G1 X107.326 Y126.973 E9.80849
G1 X106.013 Y126.716 E9.85321
G1 X105.349 Y126.54 E9.87617
G1 X104.662 Y126.332 E9.90017
G1 X103.998 Y126.105 E9.92362
G1 X102.92 Y125.666 E9.96253
G1 X102.417 Y125.427 E9.98115
G1 X101.562 Y124.969 E10.01357
G1 X100.963 Y124.611 E10.03689
G1 X100.371 Y124.229 E10.06044
G1 X99.809 Y123.838 E10.08333
G1 X99.091 Y123.29 E10.11352
G1 X98.708 Y122.953 E10.13057
G1 X98.149 Y122.436 E10.15603
G1 X97.638 Y121.928 E10.18011
G1 X97.134 Y121.391 E10.20473
G1 X96.545 Y120.706 E10.23493
G1 X96.233 Y120.286 E10.25242
G1 X95.811 Y119.687 E10.27691
G1 X95.418 Y119.085 E10.30094
G1 X95.046 Y118.469 E10.32499
G1 X94.613 Y117.676 E10.35519
G1 X94.397 Y117.204 E10.37255
G1 X94.112 Y116.537 E10.39679
G1 X93.851 Y115.861 E10.42101
G1 X93.691 Y115.398 E10.43739
G1 X93.486 Y114.728 E10.46081
G1 X93.35 Y114.225 E10.47822
G1 X93.192 Y113.554 E10.50127
G1 X93.106 Y113.122 E10.51599
G1 X92.991 Y112.411 E10.54007
G1 X92.927 Y111.905 E10.55711
G1 X92.861 Y111.173 E10.58168
G1 X92.835 Y110.69 E10.59785
G1 X92.821 Y110.005 E10.62075
G1 X92.828 Y109.485 E10.63814
G1 X92.862 Y108.774 E10.66193
G1 X92.918 Y108.103 E10.68444
G1 X93.033 Y107.207 E10.71463
G1 X93.136 Y106.693 E10.73215
G1 X93.299 Y105.975 E10.75677
G1 X93.479 Y105.293 E10.78034
G1 X93.625 Y104.808 E10.79727
G1 X93.86 Y104.118 E10.82164
G1 X94.039 Y103.648 E10.83845
G1 X94.312 Y102.998 E10.86202
G1 X94.612 Y102.349 E10.88591
G1 X95.027 Y101.547 E10.9161
G1 X95.295 Y101.107 E10.93332
G1 X95.68 Y100.509 E10.95709
G1 X96.077 Y99.937 E10.98037
G1 X96.527 Y99.333 E11.00554
G1 X97.098 Y98.633 E11.03574
G1 X97.472 Y98.236 E11.05397
G1 X97.983 Y97.722 E11.0782
G1 F2280 E10.2782
;MESH:Cylinder
G0 F7500 X103.83 Y105.456
G0 X110.21 Y116.396
;TYPE:WALL-INNER
G1 F2280 E11.0782
G1 F1200 X110.68 Y116.362 E11.09395
G1 X111.107 Y116.303 E11.10836
G1 X111.536 Y116.211 E11.12302
G1 X111.988 Y116.081 E11.13875
G1 X112.386 Y115.937 E11.15289
G1 X112.797 Y115.755 E11.16792
G1 X113.208 Y115.536 E11.18349
G1 X113.583 Y115.302 E11.19826
G1 X113.943 Y115.04 E11.21314
G1 X114.272 Y114.763 E11.22752
G1 X114.61 Y114.436 E11.24324
G1 X114.91 Y114.104 E11.2582
G1 X115.169 Y113.771 E11.2723
G1 X115.42 Y113.397 E11.28735
G1 X115.656 Y112.991 E11.30305
G1 X115.844 Y112.608 E11.31731
G1 X116.017 Y112.178 E11.33281
G1 X116.154 Y111.753 E11.34773
G1 X116.262 Y111.318 E11.36271
G1 X116.336 Y110.898 E11.37697
G1 X116.383 Y110.453 E11.39193
G1 X116.399 Y109.989 E11.40745
G1 X116.383 Y109.544 E11.42233
G1 X116.336 Y109.098 E11.43732
G1 X116.262 Y108.681 E11.45148
G1 X116.154 Y108.248 E11.4664
G1 X116.009 Y107.801 E11.4821
G1 X115.842 Y107.388 E11.49699
G1 X115.656 Y107.008 E11.51114
G1 X115.42 Y106.601 E11.52686
G1 X115.17 Y106.229 E11.54184
G1 X114.91 Y105.896 E11.55597
G1 X114.61 Y105.564 E11.57092
G1 X114.272 Y105.237 E11.58664
G1 X113.943 Y104.96 E11.60102
G1 X113.583 Y104.698 E11.6159
G1 X113.208 Y104.464 E11.63068
G1 X112.795 Y104.243 E11.64634
G1 X112.387 Y104.064 E11.66123
